(.../eagle-7.5.0/ulp/pcb-gcode/pcb-gcode.ulp)
(Copyright 2005 - 2012 by John Johnson)
(See readme.txt for licensing terms.)
(This file generated from the board:)
(.../makeict-security-server-V2016-3-29.brd)
(Current profile is .../ulp/pcb-gcode/profiles/emc.pp  )
(This file generated 8/26/16 3:15 PM)
(Settings from pcb-machine.h)
(spindle on time = 3.0000)
(spindle speed = 20000.0000)
(tool change at 0.0000 0.0000 0.5000 )
(feed rate xy = F0.00  )
(feed rate z  = F3.00  )
(Z Axis Settings)
(  High     Up        Down     Drill)
(0.5000 	0.0500 	-0.0025 	-0.0640 )
(Settings from pcb-defaults.h)
(isolate min = 0.0010)
(isolate max = 0.0300)
(isolate step = 0.0075)
(Generated top outlines, top drill, )
(Unit of measure: inch)
( Tool|       Size       |  Min Sub |  Max Sub |   Count )
( T01 | 0.800mm 0.0315in | 0.0000in | 0.0000in |       0 )
( T02 | 0.813mm 0.0320in | 0.0000in | 0.0000in |       0 )
( T03 | 0.914mm 0.0360in | 0.0000in | 0.0000in |       0 )
( T04 | 1.016mm 0.0400in | 0.0000in | 0.0000in |       0 )
( T05 | 1.194mm 0.0470in | 0.0000in | 0.0000in |       0 )
(Inch Mode)
G20
(Absolute Coordinates)
G90
S20000
G00 Z0.5000 
G00 X0.0000 Y0.0000 
M03
G04 P3.000000
M05
M06 T01 (0.0315 )
G01 Z0.0000 F3.00  
M06 
G00 Z0.0500 
M03
G04 P3.000000
G82 X0.9250 Y0.2750 Z-0.0640 F3.00  R0.0500 P1.000000
G82 X0.9250 Y0.5750 
G82 X1.8750 Y0.3750 
G82 X2.0750 Y0.5750 
G82 X1.8750 Y0.7750 
M05
G00 Z0.5000 
G00 X0.0000 Y0.0000 
M06 T02 (0.0320 )
G01 Z0.0000 F3.00  
M06 
G00 Z0.0500 
M03
G04 P3.000000
G82 X0.1750 Y0.3750 Z-0.0640 F3.00  R0.0500 P1.000000
G82 X0.2500 Y0.5000 
G82 X0.4500 Y0.5750 
G82 X0.5000 Y0.6750 
G82 X0.5500 Y0.7500 
G82 X0.6000 Y0.6750 
G82 X0.6500 Y0.5000 
G82 X0.8500 Y0.5750 
G82 X1.0750 Y0.5250 
G82 X1.0750 Y0.6250 
G82 X1.0750 Y0.7250 
G82 X1.0750 Y0.4250 
G82 X1.3750 Y0.4250 
G82 X1.3750 Y0.5250 
G82 X1.3750 Y0.6250 
G82 X1.3750 Y0.7250 
G82 X1.4750 Y0.9000 
G82 X1.5750 Y0.7750 
G82 X1.6750 Y0.6750 
G82 X1.4750 Y0.5000 
G82 X1.5750 Y0.3750 
G82 X1.6750 Y0.2750 
G82 X0.3750 Y0.7750 
G82 X0.2750 Y0.7750 
G82 X0.1750 Y0.7750 
M05
G00 Z0.5000 
G00 X0.0000 Y0.0000 
M06 T03 (0.0360 )
G01 Z0.0000 F3.00  
M06 
G00 Z0.0500 
M03
G04 P3.000000
G82 X0.1750 Y0.0750 Z-0.0640 F3.00  R0.0500 P1.000000
G82 X0.1750 Y0.1750 
G82 X0.2750 Y0.1750 
G82 X0.3750 Y0.1750 
G82 X0.4750 Y0.1750 
G82 X0.5750 Y0.1750 
G82 X0.5750 Y0.0750 
G82 X0.4750 Y0.0750 
G82 X0.3750 Y0.0750 
G82 X0.2750 Y0.0750 
G82 X0.6750 Y0.0750 
G82 X0.7750 Y0.0750 
G82 X0.8750 Y0.0750 
G82 X0.9750 Y0.0750 
G82 X1.0750 Y0.0750 
G82 X1.0750 Y0.1750 
G82 X0.9750 Y0.1750 
G82 X0.8750 Y0.1750 
G82 X0.7750 Y0.1750 
G82 X0.6750 Y0.1750 
G82 X1.1750 Y0.1750 
G82 X1.2750 Y0.1750 
G82 X1.2750 Y0.0750 
G82 X1.1750 Y0.0750 
G82 X1.3750 Y0.0750 
G82 X1.3750 Y0.1750 
G82 X1.4750 Y0.1750 
G82 X1.5750 Y0.1750 
G82 X1.5750 Y0.0750 
G82 X1.4750 Y0.0750 
G82 X1.6750 Y0.0750 
G82 X1.7750 Y0.0750 
G82 X1.7750 Y0.1750 
G82 X1.6750 Y0.1750 
G82 X1.8750 Y0.1750 
G82 X1.8750 Y0.0750 
G82 X1.9750 Y0.0750 
G82 X1.9750 Y0.1750 
G82 X2.0750 Y0.1750 
G82 X2.0750 Y0.0750 
M05
G00 Z0.5000 
G00 X0.0000 Y0.0000 
M06 T04 (0.0400 )
G01 Z0.0000 F3.00  
M06 
G00 Z0.0500 
M03
G04 P3.000000
G82 X0.7000 Y0.7000 Z-0.0640 F3.00  R0.0500 P1.000000
G82 X0.8000 Y0.7000 
G82 X0.9000 Y0.7000 
M05
G00 Z0.5000 
G00 X0.0000 Y0.0000 
M06 T05 (0.0470 )
G01 Z0.0000 F3.00  
M06 
G00 Z0.0500 
M03
G04 P3.000000
G82 X1.9758 Y0.3781 Z-0.0640 F3.00  R0.0500 P1.000000
G82 X1.9758 Y0.5750 
G82 X1.9758 Y0.7719 
T01 
G00 Z0.5000 
M05
M02
