(.../eagle-7.5.0/ulp/pcb-gcode/pcb-gcode.ulp)
(Copyright 2005 - 2012 by John Johnson)
(See readme.txt for licensing terms.)
(This file generated from the board:)
(.../makeict-security-server-V2016-3-29.brd)
(Current profile is .../ulp/pcb-gcode/profiles/emc.pp  )
(This file generated 8/26/16 3:12 PM)
(Settings from pcb-machine.h)
(spindle on time = 3.0000)
(  Tool Size)
(0.0156 )
(spindle speed = 30000.0000)
(tool change at 0.0000 0.0000 0.5000 )
(feed rate xy = F3.00  )
(feed rate z  = F10.00 )
(Z Axis Settings)
(  High     Up        Down     Drill)
(0.5000 	0.0500 	-0.0025 	-0.0640 )
(Settings from pcb-defaults.h)
(isolate min = 0.0010)
(isolate max = 0.0300)
(isolate step = 0.0075)
(Generated top outlines, top drill, )
(Unit of measure: inch)
(Inch Mode)
G20
(Absolute Coordinates)
G90
S30000
G00 Z0.5000 
G00 X0.0000 Y0.0000 
M03
G04 P3.000000
G00 Z0.0500 
G00 X0.0526 Y0.1066 
G01 Z-0.0025 F10.00 
G01 X0.0495 Y0.1114 F3.00  
G01 X0.0473 Y0.1166 
G01 X0.0462 Y0.1222 
G01 X0.0462 Y0.4528 
G01 X0.0473 Y0.4584 
G01 X0.0495 Y0.4636 
G01 X0.0526 Y0.4684 
G01 X0.0566 Y0.4724 
G01 X0.1066 Y0.5224 
G01 X0.1114 Y0.5255 
G01 X0.1166 Y0.5277 
G01 X0.1222 Y0.5288 
G01 X0.2296 Y0.5288 
G01 X0.2356 Y0.5348 
G01 X0.2644 Y0.5348 
G01 X0.2848 Y0.5144 
G01 X0.2848 Y0.4856 
G01 X0.2644 Y0.4652 
G01 X0.2356 Y0.4652 
G01 X0.2296 Y0.4712 
G01 X0.1369 Y0.4712 
G01 X0.1038 Y0.4381 
G01 X0.1038 Y0.1369 
G01 X0.1369 Y0.1038 
G01 X0.1519 Y0.1038 
G01 X0.1576 Y0.1076 
G01 X0.1643 Y0.1104 
G01 X0.1714 Y0.1118 
G01 X0.1786 Y0.1118 
G01 X0.1857 Y0.1104 
G01 X0.1924 Y0.1076 
G01 X0.1985 Y0.1036 
G01 X0.2036 Y0.0985 
G01 X0.2076 Y0.0924 
G01 X0.2104 Y0.0857 
G01 X0.2118 Y0.0786 
G01 X0.2118 Y0.0714 
G01 X0.2104 Y0.0643 
G01 X0.2076 Y0.0576 
G01 X0.2036 Y0.0515 
G01 X0.1985 Y0.0464 
G01 X0.1924 Y0.0424 
G01 X0.1857 Y0.0396 
G01 X0.1786 Y0.0382 
G01 X0.1714 Y0.0382 
G01 X0.1643 Y0.0396 
G01 X0.1576 Y0.0424 
G01 X0.1519 Y0.0462 
G01 X0.1222 Y0.0462 
G01 X0.1166 Y0.0473 
G01 X0.1114 Y0.0495 
G01 X0.1066 Y0.0526 
G01 X0.1026 Y0.0566 
G01 X0.0526 Y0.1066 
G00 Z0.0500 
G00 X0.1382 Y0.1598 
G01 Z-0.0025 F10.00 
G01 X0.1382 Y0.1902 F3.00  
G01 X0.1462 Y0.1982 
G01 X0.1462 Y0.3546 
G01 X0.1402 Y0.3606 
G01 X0.1402 Y0.3894 
G01 X0.1606 Y0.4098 
G01 X0.1894 Y0.4098 
G01 X0.1954 Y0.4038 
G01 X0.2881 Y0.4038 
G01 X0.3212 Y0.4369 
G01 X0.3212 Y0.5881 
G01 X0.2881 Y0.6212 
G01 X0.1222 Y0.6212 
G01 X0.1166 Y0.6223 
G01 X0.1114 Y0.6245 
G01 X0.1066 Y0.6276 
G01 X0.1026 Y0.6316 
G01 X0.0526 Y0.6816 
G01 X0.0495 Y0.6864 
G01 X0.0473 Y0.6916 
G01 X0.0462 Y0.6972 
G01 X0.0462 Y0.8127 
G01 X0.0473 Y0.8183 
G01 X0.0495 Y0.8235 
G01 X0.0526 Y0.8282 
G01 X0.0566 Y0.8322 
G01 X0.1468 Y0.9224 
G01 X0.1515 Y0.9255 
G01 X0.1567 Y0.9277 
G01 X0.1623 Y0.9288 
G01 X1.4546 Y0.9288 
G01 X1.4606 Y0.9348 
G01 X1.4894 Y0.9348 
G01 X1.5098 Y0.9144 
G01 X1.5098 Y0.8856 
G01 X1.4894 Y0.8652 
G01 X1.4606 Y0.8652 
G01 X1.4546 Y0.8712 
G01 X1.4038 Y0.8712 
G01 X1.4038 Y0.7598 
G01 X1.4044 Y0.7598 
G01 X1.4112 Y0.7585 
G01 X1.4175 Y0.7558 
G01 X1.4232 Y0.7520 
G01 X1.4280 Y0.7472 
G01 X1.4318 Y0.7415 
G01 X1.4345 Y0.7352 
G01 X1.4358 Y0.7284 
G01 X1.4358 Y0.7216 
G01 X1.4345 Y0.7148 
G01 X1.4318 Y0.7085 
G01 X1.4280 Y0.7028 
G01 X1.4232 Y0.6980 
G01 X1.4175 Y0.6942 
G01 X1.4112 Y0.6915 
G01 X1.4044 Y0.6902 
G01 X1.3456 Y0.6902 
G01 X1.3388 Y0.6915 
G01 X1.3325 Y0.6942 
G01 X1.3268 Y0.6980 
G01 X1.3220 Y0.7028 
G01 X1.3182 Y0.7085 
G01 X1.3155 Y0.7148 
G01 X1.3142 Y0.7216 
G01 X1.3142 Y0.7284 
G01 X1.3155 Y0.7352 
G01 X1.3182 Y0.7415 
G01 X1.3220 Y0.7472 
G01 X1.3268 Y0.7520 
G01 X1.3325 Y0.7558 
G01 X1.3388 Y0.7585 
G01 X1.3456 Y0.7598 
G01 X1.3462 Y0.7598 
G01 X1.3462 Y0.8712 
G01 X0.1771 Y0.8712 
G01 X0.1038 Y0.7979 
G01 X0.1038 Y0.7119 
G01 X0.1369 Y0.6788 
G01 X0.3028 Y0.6788 
G01 X0.3084 Y0.6777 
G01 X0.3136 Y0.6755 
G01 X0.3184 Y0.6724 
G01 X0.3684 Y0.6224 
G01 X0.3724 Y0.6184 
G01 X0.3755 Y0.6136 
G01 X0.3777 Y0.6084 
G01 X0.3788 Y0.6028 
G01 X0.3788 Y0.4222 
G01 X0.3777 Y0.4166 
G01 X0.3755 Y0.4114 
G01 X0.3724 Y0.4066 
G01 X0.3224 Y0.3566 
G01 X0.3184 Y0.3526 
G01 X0.3136 Y0.3495 
G01 X0.3084 Y0.3473 
G01 X0.3028 Y0.3462 
G01 X0.2038 Y0.3462 
G01 X0.2038 Y0.2038 
G01 X0.2518 Y0.2038 
G01 X0.2598 Y0.2118 
G01 X0.2902 Y0.2118 
G01 X0.3118 Y0.1902 
G01 X0.3118 Y0.1598 
G01 X0.2902 Y0.1382 
G01 X0.2598 Y0.1382 
G01 X0.2518 Y0.1462 
G01 X0.1982 Y0.1462 
G01 X0.1902 Y0.1382 
G01 X0.1598 Y0.1382 
G01 X0.1382 Y0.1598 
G00 Z0.0500 
G00 X0.2598 Y0.1118 
G01 Z-0.0025 F10.00 
G01 X0.2902 Y0.1118 F3.00  
G01 X0.3118 Y0.0902 
G01 X0.3118 Y0.0598 
G01 X0.2902 Y0.0382 
G01 X0.2598 Y0.0382 
G01 X0.2382 Y0.0598 
G01 X0.2382 Y0.0902 
G01 X0.2598 Y0.1118 
G00 Z0.0500 
G00 X0.3598 Y0.1118 
G01 Z-0.0025 F10.00 
G01 X0.3902 Y0.1118 F3.00  
G01 X0.4118 Y0.0902 
G01 X0.4118 Y0.0598 
G01 X0.3902 Y0.0382 
G01 X0.3598 Y0.0382 
G01 X0.3382 Y0.0598 
G01 X0.3382 Y0.0902 
G01 X0.3598 Y0.1118 
G00 Z0.0500 
G00 X0.3598 Y0.1382 
G01 Z-0.0025 F10.00 
G01 X0.3382 Y0.1598 F3.00  
G01 X0.3382 Y0.1902 
G01 X0.3598 Y0.2118 
G01 X0.3902 Y0.2118 
G01 X0.4118 Y0.1902 
G01 X0.4118 Y0.1598 
G01 X0.3902 Y0.1382 
G01 X0.3598 Y0.1382 
G00 Z0.0500 
G00 X0.4382 Y0.1598 
G01 Z-0.0025 F10.00 
G01 X0.4382 Y0.1902 F3.00  
G01 X0.4462 Y0.1982 
G01 X0.4462 Y0.3278 
G01 X0.4473 Y0.3334 
G01 X0.4495 Y0.3386 
G01 X0.4526 Y0.3434 
G01 X0.5566 Y0.4474 
G01 X0.5614 Y0.4505 
G01 X0.5666 Y0.4527 
G01 X0.5722 Y0.4538 
G01 X1.0295 Y0.4538 
G01 X1.0325 Y0.4558 
G01 X1.0388 Y0.4585 
G01 X1.0456 Y0.4598 
G01 X1.1044 Y0.4598 
G01 X1.1112 Y0.4585 
G01 X1.1175 Y0.4558 
G01 X1.1232 Y0.4520 
G01 X1.1280 Y0.4472 
G01 X1.1318 Y0.4415 
G01 X1.1345 Y0.4352 
G01 X1.1358 Y0.4284 
G01 X1.1358 Y0.4216 
G01 X1.1345 Y0.4148 
G01 X1.1318 Y0.4085 
G01 X1.1280 Y0.4028 
G01 X1.1232 Y0.3980 
G01 X1.1175 Y0.3942 
G01 X1.1112 Y0.3915 
G01 X1.1044 Y0.3902 
G01 X1.0456 Y0.3902 
G01 X1.0388 Y0.3915 
G01 X1.0325 Y0.3942 
G01 X1.0295 Y0.3962 
G01 X0.5869 Y0.3962 
G01 X0.5038 Y0.3131 
G01 X0.5038 Y0.1982 
G01 X0.5118 Y0.1902 
G01 X0.5118 Y0.1598 
G01 X0.4902 Y0.1382 
G01 X0.4598 Y0.1382 
G01 X0.4382 Y0.1598 
G00 Z0.0500 
G00 X0.4598 Y0.1118 
G01 Z-0.0025 F10.00 
G01 X0.4902 Y0.1118 F3.00  
G01 X0.5118 Y0.0902 
G01 X0.5118 Y0.0598 
G01 X0.4902 Y0.0382 
G01 X0.4598 Y0.0382 
G01 X0.4382 Y0.0598 
G01 X0.4382 Y0.0902 
G01 X0.4598 Y0.1118 
G00 Z0.0500 
G00 X0.5598 Y0.1118 
G01 Z-0.0025 F10.00 
G01 X0.5902 Y0.1118 F3.00  
G01 X0.6118 Y0.0902 
G01 X0.6118 Y0.0598 
G01 X0.5902 Y0.0382 
G01 X0.5598 Y0.0382 
G01 X0.5382 Y0.0598 
G01 X0.5382 Y0.0902 
G01 X0.5598 Y0.1118 
G00 Z0.0500 
G00 X0.5598 Y0.1382 
G01 Z-0.0025 F10.00 
G01 X0.5382 Y0.1598 F3.00  
G01 X0.5382 Y0.1902 
G01 X0.5462 Y0.1982 
G01 X0.5462 Y0.3028 
G01 X0.5473 Y0.3084 
G01 X0.5495 Y0.3136 
G01 X0.5526 Y0.3184 
G01 X0.6026 Y0.3684 
G01 X0.6066 Y0.3724 
G01 X0.6114 Y0.3755 
G01 X0.6166 Y0.3777 
G01 X0.6222 Y0.3788 
G01 X1.1131 Y0.3788 
G01 X1.1462 Y0.4119 
G01 X1.1462 Y0.6775 
G01 X1.0955 Y0.6902 
G01 X1.0456 Y0.6902 
G01 X1.0388 Y0.6915 
G01 X1.0325 Y0.6942 
G01 X1.0268 Y0.6980 
G01 X1.0220 Y0.7028 
G01 X1.0182 Y0.7085 
G01 X1.0155 Y0.7148 
G01 X1.0142 Y0.7216 
G01 X1.0142 Y0.7284 
G01 X1.0155 Y0.7352 
G01 X1.0182 Y0.7415 
G01 X1.0220 Y0.7472 
G01 X1.0268 Y0.7520 
G01 X1.0325 Y0.7558 
G01 X1.0388 Y0.7585 
G01 X1.0456 Y0.7598 
G01 X1.1044 Y0.7598 
G01 X1.1112 Y0.7585 
G01 X1.1175 Y0.7558 
G01 X1.1232 Y0.7520 
G01 X1.1280 Y0.7472 
G01 X1.1318 Y0.7415 
G01 X1.1323 Y0.7404 
G01 X1.1813 Y0.7281 
G01 X1.1834 Y0.7277 
G01 X1.1841 Y0.7274 
G01 X1.1847 Y0.7273 
G01 X1.1867 Y0.7263 
G01 X1.1886 Y0.7255 
G01 X1.1892 Y0.7251 
G01 X1.1899 Y0.7248 
G01 X1.1916 Y0.7236 
G01 X1.1934 Y0.7224 
G01 X1.1939 Y0.7219 
G01 X1.1944 Y0.7215 
G01 X1.1959 Y0.7199 
G01 X1.1974 Y0.7184 
G01 X1.1978 Y0.7178 
G01 X1.1982 Y0.7172 
G01 X1.1993 Y0.7154 
G01 X1.2005 Y0.7136 
G01 X1.2008 Y0.7130 
G01 X1.2012 Y0.7124 
G01 X1.2019 Y0.7104 
G01 X1.2027 Y0.7084 
G01 X1.2028 Y0.7077 
G01 X1.2031 Y0.7070 
G01 X1.2034 Y0.7049 
G01 X1.2038 Y0.7028 
G01 X1.2038 Y0.7021 
G01 X1.2039 Y0.7014 
G01 X1.2038 Y0.6993 
G01 X1.2038 Y0.3972 
G01 X1.2027 Y0.3916 
G01 X1.2005 Y0.3864 
G01 X1.1974 Y0.3816 
G01 X1.1934 Y0.3776 
G01 X1.1434 Y0.3276 
G01 X1.1386 Y0.3245 
G01 X1.1334 Y0.3223 
G01 X1.1278 Y0.3212 
G01 X0.6369 Y0.3212 
G01 X0.6038 Y0.2881 
G01 X0.6038 Y0.1982 
G01 X0.6118 Y0.1902 
G01 X0.6118 Y0.1598 
G01 X0.5902 Y0.1382 
G01 X0.5598 Y0.1382 
G00 Z0.0500 
G00 X0.6382 Y0.1598 
G01 Z-0.0025 F10.00 
G01 X0.6382 Y0.1902 F3.00  
G01 X0.6462 Y0.1982 
G01 X0.6462 Y0.2425 
G01 X0.6473 Y0.2480 
G01 X0.6495 Y0.2533 
G01 X0.6526 Y0.2580 
G01 X0.6566 Y0.2620 
G01 X0.6880 Y0.2934 
G01 X0.6920 Y0.2974 
G01 X0.6967 Y0.3005 
G01 X0.7020 Y0.3027 
G01 X0.7075 Y0.3038 
G01 X0.8919 Y0.3038 
G01 X0.8965 Y0.3084 
G01 X0.9020 Y0.3125 
G01 X0.9082 Y0.3156 
G01 X0.9147 Y0.3177 
G01 X0.9216 Y0.3188 
G01 X0.9284 Y0.3188 
G01 X0.9353 Y0.3177 
G01 X0.9418 Y0.3156 
G01 X0.9480 Y0.3125 
G01 X0.9535 Y0.3084 
G01 X0.9584 Y0.3035 
G01 X0.9625 Y0.2980 
G01 X0.9656 Y0.2918 
G01 X0.9677 Y0.2853 
G01 X0.9688 Y0.2784 
G01 X0.9688 Y0.2716 
G01 X0.9677 Y0.2647 
G01 X0.9656 Y0.2582 
G01 X0.9625 Y0.2520 
G01 X0.9584 Y0.2465 
G01 X0.9535 Y0.2416 
G01 X0.9480 Y0.2375 
G01 X0.9418 Y0.2344 
G01 X0.9353 Y0.2323 
G01 X0.9284 Y0.2312 
G01 X0.9216 Y0.2312 
G01 X0.9147 Y0.2323 
G01 X0.9082 Y0.2344 
G01 X0.9020 Y0.2375 
G01 X0.8965 Y0.2416 
G01 X0.8919 Y0.2462 
G01 X0.7223 Y0.2462 
G01 X0.7038 Y0.2277 
G01 X0.7038 Y0.1982 
G01 X0.7118 Y0.1902 
G01 X0.7118 Y0.1598 
G01 X0.6902 Y0.1382 
G01 X0.6598 Y0.1382 
G01 X0.6382 Y0.1598 
G00 Z0.0500 
G00 X0.6598 Y0.1118 
G01 Z-0.0025 F10.00 
G01 X0.6902 Y0.1118 F3.00  
G01 X0.7118 Y0.0902 
G01 X0.7118 Y0.0598 
G01 X0.6902 Y0.0382 
G01 X0.6598 Y0.0382 
G01 X0.6382 Y0.0598 
G01 X0.6382 Y0.0902 
G01 X0.6598 Y0.1118 
G00 Z0.0500 
G00 X0.7598 Y0.1118 
G01 Z-0.0025 F10.00 
G01 X0.7902 Y0.1118 F3.00  
G01 X0.8118 Y0.0902 
G01 X0.8118 Y0.0598 
G01 X0.7902 Y0.0382 
G01 X0.7598 Y0.0382 
G01 X0.7382 Y0.0598 
G01 X0.7382 Y0.0902 
G01 X0.7598 Y0.1118 
G00 Z0.0500 
G00 X0.7598 Y0.1382 
G01 Z-0.0025 F10.00 
G01 X0.7382 Y0.1598 F3.00  
G01 X0.7382 Y0.1902 
G01 X0.7598 Y0.2118 
G01 X0.7902 Y0.2118 
G01 X0.8118 Y0.1902 
G01 X0.8118 Y0.1598 
G01 X0.7902 Y0.1382 
G01 X0.7598 Y0.1382 
G00 Z0.0500 
G00 X0.8382 Y0.1598 
G01 Z-0.0025 F10.00 
G01 X0.8382 Y0.1902 F3.00  
G01 X0.8598 Y0.2118 
G01 X0.8902 Y0.2118 
G01 X0.9118 Y0.1902 
G01 X0.9118 Y0.1598 
G01 X0.8902 Y0.1382 
G01 X0.8598 Y0.1382 
G01 X0.8382 Y0.1598 
G00 Z0.0500 
G00 X0.8598 Y0.1118 
G01 Z-0.0025 F10.00 
G01 X0.8902 Y0.1118 F3.00  
G01 X0.9118 Y0.0902 
G01 X0.9118 Y0.0598 
G01 X0.8902 Y0.0382 
G01 X0.8598 Y0.0382 
G01 X0.8382 Y0.0598 
G01 X0.8382 Y0.0902 
G01 X0.8598 Y0.1118 
G00 Z0.0500 
G00 X0.9598 Y0.1118 
G01 Z-0.0025 F10.00 
G01 X0.9902 Y0.1118 F3.00  
G01 X1.0118 Y0.0902 
G01 X1.0118 Y0.0598 
G01 X0.9902 Y0.0382 
G01 X0.9598 Y0.0382 
G01 X0.9382 Y0.0598 
G01 X0.9382 Y0.0902 
G01 X0.9598 Y0.1118 
G00 Z0.0500 
G00 X0.9598 Y0.1382 
G01 Z-0.0025 F10.00 
G01 X0.9382 Y0.1598 F3.00  
G01 X0.9382 Y0.1902 
G01 X0.9598 Y0.2118 
G01 X0.9902 Y0.2118 
G01 X1.0118 Y0.1902 
G01 X1.0118 Y0.1598 
G01 X0.9902 Y0.1382 
G01 X0.9598 Y0.1382 
G00 Z0.0500 
G00 X1.0382 Y0.1598 
G01 Z-0.0025 F10.00 
G01 X1.0382 Y0.1902 F3.00  
G01 X1.0598 Y0.2118 
G01 X1.0902 Y0.2118 
G01 X1.1118 Y0.1902 
G01 X1.1118 Y0.1598 
G01 X1.0902 Y0.1382 
G01 X1.0598 Y0.1382 
G01 X1.0382 Y0.1598 
G00 Z0.0500 
G00 X1.0598 Y0.1118 
G01 Z-0.0025 F10.00 
G01 X1.0902 Y0.1118 F3.00  
G01 X1.1118 Y0.0902 
G01 X1.1118 Y0.0598 
G01 X1.0902 Y0.0382 
G01 X1.0598 Y0.0382 
G01 X1.0382 Y0.0598 
G01 X1.0382 Y0.0902 
G01 X1.0598 Y0.1118 
G00 Z0.0500 
G00 X1.1598 Y0.1118 
G01 Z-0.0025 F10.00 
G01 X1.1902 Y0.1118 F3.00  
G01 X1.2118 Y0.0902 
G01 X1.2118 Y0.0598 
G01 X1.1902 Y0.0382 
G01 X1.1598 Y0.0382 
G01 X1.1382 Y0.0598 
G01 X1.1382 Y0.0902 
G01 X1.1598 Y0.1118 
G00 Z0.0500 
G00 X1.1598 Y0.1382 
G01 Z-0.0025 F10.00 
G01 X1.1382 Y0.1598 F3.00  
G01 X1.1382 Y0.1902 
G01 X1.1598 Y0.2118 
G01 X1.1902 Y0.2118 
G01 X1.2118 Y0.1902 
G01 X1.2118 Y0.1598 
G01 X1.1902 Y0.1382 
G01 X1.1598 Y0.1382 
G00 Z0.0500 
G00 X1.2382 Y0.1598 
G01 Z-0.0025 F10.00 
G01 X1.2382 Y0.1902 F3.00  
G01 X1.2598 Y0.2118 
G01 X1.2902 Y0.2118 
G01 X1.3118 Y0.1902 
G01 X1.3118 Y0.1598 
G01 X1.2902 Y0.1382 
G01 X1.2598 Y0.1382 
G01 X1.2382 Y0.1598 
G00 Z0.0500 
G00 X1.2598 Y0.1118 
G01 Z-0.0025 F10.00 
G01 X1.2902 Y0.1118 F3.00  
G01 X1.3118 Y0.0902 
G01 X1.3118 Y0.0598 
G01 X1.2902 Y0.0382 
G01 X1.2598 Y0.0382 
G01 X1.2382 Y0.0598 
G01 X1.2382 Y0.0902 
G01 X1.2598 Y0.1118 
G00 Z0.0500 
G00 X1.3598 Y0.1118 
G01 Z-0.0025 F10.00 
G01 X1.3902 Y0.1118 F3.00  
G01 X1.4118 Y0.0902 
G01 X1.4118 Y0.0598 
G01 X1.3902 Y0.0382 
G01 X1.3598 Y0.0382 
G01 X1.3382 Y0.0598 
G01 X1.3382 Y0.0902 
G01 X1.3598 Y0.1118 
G00 Z0.0500 
G00 X1.3598 Y0.1382 
G01 Z-0.0025 F10.00 
G01 X1.3382 Y0.1598 F3.00  
G01 X1.3382 Y0.1902 
G01 X1.3598 Y0.2118 
G01 X1.3902 Y0.2118 
G01 X1.4118 Y0.1902 
G01 X1.4118 Y0.1598 
G01 X1.3902 Y0.1382 
G01 X1.3598 Y0.1382 
G00 Z0.0500 
G00 X1.4382 Y0.1598 
G01 Z-0.0025 F10.00 
G01 X1.4382 Y0.1902 F3.00  
G01 X1.4598 Y0.2118 
G01 X1.4902 Y0.2118 
G01 X1.5118 Y0.1902 
G01 X1.5118 Y0.1598 
G01 X1.4902 Y0.1382 
G01 X1.4598 Y0.1382 
G01 X1.4382 Y0.1598 
G00 Z0.0500 
G00 X1.4598 Y0.1118 
G01 Z-0.0025 F10.00 
G01 X1.4902 Y0.1118 F3.00  
G01 X1.5118 Y0.0902 
G01 X1.5118 Y0.0598 
G01 X1.4902 Y0.0382 
G01 X1.4598 Y0.0382 
G01 X1.4382 Y0.0598 
G01 X1.4382 Y0.0902 
G01 X1.4598 Y0.1118 
G00 Z0.0500 
G00 X1.5598 Y0.1118 
G01 Z-0.0025 F10.00 
G01 X1.5902 Y0.1118 F3.00  
G01 X1.6118 Y0.0902 
G01 X1.6118 Y0.0598 
G01 X1.5902 Y0.0382 
G01 X1.5598 Y0.0382 
G01 X1.5382 Y0.0598 
G01 X1.5382 Y0.0902 
G01 X1.5598 Y0.1118 
G00 Z0.0500 
G00 X1.5598 Y0.1382 
G01 Z-0.0025 F10.00 
G01 X1.5382 Y0.1598 F3.00  
G01 X1.5382 Y0.1902 
G01 X1.5462 Y0.1982 
G01 X1.5462 Y0.2131 
G01 X1.3691 Y0.3902 
G01 X1.3456 Y0.3902 
G01 X1.3388 Y0.3915 
G01 X1.3325 Y0.3942 
G01 X1.3295 Y0.3962 
G01 X1.3222 Y0.3962 
G01 X1.3166 Y0.3973 
G01 X1.3114 Y0.3995 
G01 X1.3066 Y0.4026 
G01 X1.2566 Y0.4526 
G01 X1.2526 Y0.4566 
G01 X1.2495 Y0.4614 
G01 X1.2473 Y0.4666 
G01 X1.2462 Y0.4722 
G01 X1.2462 Y0.7381 
G01 X1.1881 Y0.7962 
G01 X1.0369 Y0.7962 
G01 X1.0038 Y0.7631 
G01 X1.0038 Y0.6723 
G01 X1.0223 Y0.6538 
G01 X1.0295 Y0.6538 
G01 X1.0325 Y0.6558 
G01 X1.0388 Y0.6585 
G01 X1.0456 Y0.6598 
G01 X1.1044 Y0.6598 
G01 X1.1112 Y0.6585 
G01 X1.1175 Y0.6558 
G01 X1.1232 Y0.6520 
G01 X1.1280 Y0.6472 
G01 X1.1318 Y0.6415 
G01 X1.1345 Y0.6352 
G01 X1.1358 Y0.6284 
G01 X1.1358 Y0.6216 
G01 X1.1345 Y0.6148 
G01 X1.1318 Y0.6085 
G01 X1.1280 Y0.6028 
G01 X1.1232 Y0.5980 
G01 X1.1175 Y0.5942 
G01 X1.1112 Y0.5915 
G01 X1.1044 Y0.5902 
G01 X1.0456 Y0.5902 
G01 X1.0388 Y0.5915 
G01 X1.0325 Y0.5942 
G01 X1.0295 Y0.5962 
G01 X1.0075 Y0.5962 
G01 X1.0020 Y0.5973 
G01 X0.9967 Y0.5995 
G01 X0.9920 Y0.6026 
G01 X0.9880 Y0.6066 
G01 X0.9526 Y0.6420 
G01 X0.9495 Y0.6467 
G01 X0.9473 Y0.6520 
G01 X0.9462 Y0.6575 
G01 X0.9462 Y0.7631 
G01 X0.9131 Y0.7962 
G01 X0.4869 Y0.7962 
G01 X0.4788 Y0.7881 
G01 X0.4788 Y0.7818 
G01 X0.5152 Y0.7090 
G01 X0.5292 Y0.6950 
G01 X0.5292 Y0.7216 
G01 X0.5152 Y0.7356 
G01 X0.5152 Y0.7644 
G01 X0.5356 Y0.7848 
G01 X0.5644 Y0.7848 
G01 X0.5848 Y0.7644 
G01 X0.5848 Y0.7356 
G01 X0.5708 Y0.7216 
G01 X0.5708 Y0.6950 
G01 X0.5856 Y0.7098 
G01 X0.6144 Y0.7098 
G01 X0.6204 Y0.7038 
G01 X0.6381 Y0.7038 
G01 X0.6566 Y0.7224 
G01 X0.6612 Y0.7254 
G01 X0.6612 Y0.7338 
G01 X0.6627 Y0.7413 
G01 X0.6656 Y0.7484 
G01 X0.6699 Y0.7547 
G01 X0.6753 Y0.7601 
G01 X0.6816 Y0.7644 
G01 X0.6887 Y0.7673 
G01 X0.6962 Y0.7688 
G01 X0.7038 Y0.7688 
G01 X0.7113 Y0.7673 
G01 X0.7184 Y0.7644 
G01 X0.7247 Y0.7601 
G01 X0.7301 Y0.7547 
G01 X0.7344 Y0.7484 
G01 X0.7373 Y0.7413 
G01 X0.7388 Y0.7338 
G01 X0.7388 Y0.6662 
G01 X0.7373 Y0.6587 
G01 X0.7344 Y0.6516 
G01 X0.7301 Y0.6453 
G01 X0.7247 Y0.6399 
G01 X0.7184 Y0.6356 
G01 X0.7113 Y0.6327 
G01 X0.7038 Y0.6312 
G01 X0.6962 Y0.6312 
G01 X0.6887 Y0.6327 
G01 X0.6816 Y0.6356 
G01 X0.6788 Y0.6375 
G01 X0.6788 Y0.5204 
G01 X0.6848 Y0.5144 
G01 X0.6848 Y0.4856 
G01 X0.6644 Y0.4652 
G01 X0.6356 Y0.4652 
G01 X0.6152 Y0.4856 
G01 X0.6152 Y0.5144 
G01 X0.6212 Y0.5204 
G01 X0.6212 Y0.6462 
G01 X0.6204 Y0.6462 
G01 X0.6144 Y0.6402 
G01 X0.5856 Y0.6402 
G01 X0.5708 Y0.6550 
G01 X0.5708 Y0.5973 
G01 X0.5694 Y0.5920 
G01 X0.5666 Y0.5872 
G01 X0.5628 Y0.5834 
G01 X0.5378 Y0.5584 
G01 X0.5330 Y0.5556 
G01 X0.5277 Y0.5542 
G01 X0.4784 Y0.5542 
G01 X0.4644 Y0.5402 
G01 X0.4356 Y0.5402 
G01 X0.4152 Y0.5606 
G01 X0.4152 Y0.5894 
G01 X0.4356 Y0.6098 
G01 X0.4644 Y0.6098 
G01 X0.4784 Y0.5958 
G01 X0.5164 Y0.5958 
G01 X0.5292 Y0.6086 
G01 X0.5292 Y0.6550 
G01 X0.5144 Y0.6402 
G01 X0.4856 Y0.6402 
G01 X0.4652 Y0.6606 
G01 X0.4652 Y0.6802 
G01 X0.4322 Y0.7462 
G01 X0.4107 Y0.7462 
G01 X0.4099 Y0.7452 
G01 X0.4048 Y0.7401 
G01 X0.3990 Y0.7358 
G01 X0.3926 Y0.7326 
G01 X0.3857 Y0.7303 
G01 X0.3786 Y0.7292 
G01 X0.3714 Y0.7292 
G01 X0.3643 Y0.7303 
G01 X0.3574 Y0.7326 
G01 X0.3510 Y0.7358 
G01 X0.3452 Y0.7401 
G01 X0.3401 Y0.7452 
G01 X0.3358 Y0.7510 
G01 X0.3326 Y0.7574 
G01 X0.3303 Y0.7643 
G01 X0.3292 Y0.7714 
G01 X0.3292 Y0.7786 
G01 X0.3303 Y0.7857 
G01 X0.3326 Y0.7926 
G01 X0.3358 Y0.7990 
G01 X0.3401 Y0.8048 
G01 X0.3452 Y0.8099 
G01 X0.3510 Y0.8142 
G01 X0.3574 Y0.8174 
G01 X0.3643 Y0.8197 
G01 X0.3714 Y0.8208 
G01 X0.3786 Y0.8208 
G01 X0.3857 Y0.8197 
G01 X0.3926 Y0.8174 
G01 X0.3990 Y0.8142 
G01 X0.4048 Y0.8099 
G01 X0.4099 Y0.8048 
G01 X0.4107 Y0.8038 
G01 X0.4214 Y0.8038 
G01 X0.4223 Y0.8084 
G01 X0.4245 Y0.8136 
G01 X0.4276 Y0.8184 
G01 X0.4566 Y0.8474 
G01 X0.4614 Y0.8505 
G01 X0.4666 Y0.8527 
G01 X0.4722 Y0.8538 
G01 X0.9278 Y0.8538 
G01 X0.9334 Y0.8527 
G01 X0.9386 Y0.8505 
G01 X0.9434 Y0.8474 
G01 X0.9474 Y0.8434 
G01 X0.9750 Y0.8157 
G01 X1.0066 Y0.8474 
G01 X1.0114 Y0.8505 
G01 X1.0166 Y0.8527 
G01 X1.0222 Y0.8538 
G01 X1.2028 Y0.8538 
G01 X1.2084 Y0.8527 
G01 X1.2136 Y0.8505 
G01 X1.2184 Y0.8474 
G01 X1.2224 Y0.8434 
G01 X1.2974 Y0.7684 
G01 X1.3005 Y0.7636 
G01 X1.3027 Y0.7584 
G01 X1.3038 Y0.7528 
G01 X1.3038 Y0.4869 
G01 X1.3342 Y0.4565 
G01 X1.3388 Y0.4585 
G01 X1.3456 Y0.4598 
G01 X1.4044 Y0.4598 
G01 X1.4112 Y0.4585 
G01 X1.4175 Y0.4558 
G01 X1.4232 Y0.4520 
G01 X1.4280 Y0.4472 
G01 X1.4318 Y0.4415 
G01 X1.4345 Y0.4352 
G01 X1.4358 Y0.4284 
G01 X1.4358 Y0.4216 
G01 X1.4345 Y0.4148 
G01 X1.4319 Y0.4088 
G01 X1.5807 Y0.2600 
G01 X1.6410 Y0.2902 
G01 X1.6606 Y0.3098 
G01 X1.6894 Y0.3098 
G01 X1.6954 Y0.3038 
G01 X2.1462 Y0.3038 
G01 X2.1462 Y0.4631 
G01 X2.0781 Y0.5312 
G01 X2.0716 Y0.5312 
G01 X2.0647 Y0.5323 
G01 X2.0582 Y0.5344 
G01 X2.0520 Y0.5375 
G01 X2.0465 Y0.5416 
G01 X2.0432 Y0.5449 
G01 X2.0397 Y0.5414 
G01 X2.0341 Y0.5373 
G01 X2.0279 Y0.5342 
G01 X2.0214 Y0.5320 
G01 X2.0145 Y0.5310 
G01 X1.9371 Y0.5310 
G01 X1.9302 Y0.5320 
G01 X1.9236 Y0.5342 
G01 X1.9175 Y0.5373 
G01 X1.9118 Y0.5414 
G01 X1.9069 Y0.5463 
G01 X1.9029 Y0.5519 
G01 X1.8997 Y0.5581 
G01 X1.8976 Y0.5647 
G01 X1.8965 Y0.5715 
G01 X1.8965 Y0.5785 
G01 X1.8976 Y0.5853 
G01 X1.8997 Y0.5919 
G01 X1.9029 Y0.5981 
G01 X1.9069 Y0.6037 
G01 X1.9118 Y0.6086 
G01 X1.9175 Y0.6127 
G01 X1.9236 Y0.6158 
G01 X1.9302 Y0.6180 
G01 X1.9371 Y0.6190 
G01 X2.0145 Y0.6190 
G01 X2.0214 Y0.6180 
G01 X2.0279 Y0.6158 
G01 X2.0341 Y0.6127 
G01 X2.0397 Y0.6086 
G01 X2.0432 Y0.6051 
G01 X2.0465 Y0.6084 
G01 X2.0520 Y0.6125 
G01 X2.0582 Y0.6156 
G01 X2.0647 Y0.6177 
G01 X2.0716 Y0.6188 
G01 X2.0784 Y0.6188 
G01 X2.0853 Y0.6177 
G01 X2.0918 Y0.6156 
G01 X2.0980 Y0.6125 
G01 X2.1035 Y0.6084 
G01 X2.1084 Y0.6035 
G01 X2.1125 Y0.5980 
G01 X2.1156 Y0.5918 
G01 X2.1177 Y0.5853 
G01 X2.1188 Y0.5784 
G01 X2.1188 Y0.5719 
G01 X2.1934 Y0.4974 
G01 X2.1974 Y0.4934 
G01 X2.2005 Y0.4886 
G01 X2.2027 Y0.4834 
G01 X2.2038 Y0.4778 
G01 X2.2038 Y0.1222 
G01 X2.2027 Y0.1166 
G01 X2.2005 Y0.1114 
G01 X2.1974 Y0.1066 
G01 X2.1474 Y0.0566 
G01 X2.1434 Y0.0526 
G01 X2.1386 Y0.0495 
G01 X2.1334 Y0.0473 
G01 X2.1278 Y0.0462 
G01 X2.0982 Y0.0462 
G01 X2.0902 Y0.0382 
G01 X2.0598 Y0.0382 
G01 X2.0382 Y0.0598 
G01 X2.0382 Y0.0902 
G01 X2.0598 Y0.1118 
G01 X2.0902 Y0.1118 
G01 X2.0982 Y0.1038 
G01 X2.1131 Y0.1038 
G01 X2.1462 Y0.1369 
G01 X2.1462 Y0.2462 
G01 X1.8038 Y0.2462 
G01 X1.8038 Y0.1982 
G01 X1.8118 Y0.1902 
G01 X1.8118 Y0.1598 
G01 X1.7902 Y0.1382 
G01 X1.7598 Y0.1382 
G01 X1.7382 Y0.1598 
G01 X1.7382 Y0.1902 
G01 X1.7462 Y0.1982 
G01 X1.7462 Y0.2462 
G01 X1.6954 Y0.2462 
G01 X1.6894 Y0.2402 
G01 X1.6698 Y0.2402 
G01 X1.6038 Y0.2072 
G01 X1.6038 Y0.1982 
G01 X1.6118 Y0.1902 
G01 X1.6118 Y0.1598 
G01 X1.5902 Y0.1382 
G01 X1.5598 Y0.1382 
G00 Z0.0500 
G00 X1.6382 Y0.1598 
G01 Z-0.0025 F10.00 
G01 X1.6382 Y0.1902 F3.00  
G01 X1.6598 Y0.2118 
G01 X1.6902 Y0.2118 
G01 X1.7118 Y0.1902 
G01 X1.7118 Y0.1598 
G01 X1.6902 Y0.1382 
G01 X1.6598 Y0.1382 
G01 X1.6382 Y0.1598 
G00 Z0.0500 
G00 X1.6598 Y0.1118 
G01 Z-0.0025 F10.00 
G01 X1.6902 Y0.1118 F3.00  
G01 X1.7118 Y0.0902 
G01 X1.7118 Y0.0598 
G01 X1.6902 Y0.0382 
G01 X1.6598 Y0.0382 
G01 X1.6382 Y0.0598 
G01 X1.6382 Y0.0902 
G01 X1.6598 Y0.1118 
G00 Z0.0500 
G00 X1.7598 Y0.1118 
G01 Z-0.0025 F10.00 
G01 X1.7902 Y0.1118 F3.00  
G01 X1.8118 Y0.0902 
G01 X1.8118 Y0.0598 
G01 X1.7902 Y0.0382 
G01 X1.7598 Y0.0382 
G01 X1.7382 Y0.0598 
G01 X1.7382 Y0.0902 
G01 X1.7598 Y0.1118 
G00 Z0.0500 
G00 X1.8598 Y0.1118 
G01 Z-0.0025 F10.00 
G01 X1.8902 Y0.1118 F3.00  
G01 X1.9118 Y0.0902 
G01 X1.9118 Y0.0598 
G01 X1.8902 Y0.0382 
G01 X1.8598 Y0.0382 
G01 X1.8382 Y0.0598 
G01 X1.8382 Y0.0902 
G01 X1.8598 Y0.1118 
G00 Z0.0500 
G00 X1.8598 Y0.1382 
G01 Z-0.0025 F10.00 
G01 X1.8382 Y0.1598 F3.00  
G01 X1.8382 Y0.1902 
G01 X1.8598 Y0.2118 
G01 X1.8902 Y0.2118 
G01 X1.9118 Y0.1902 
G01 X1.9118 Y0.1598 
G01 X1.8902 Y0.1382 
G01 X1.8598 Y0.1382 
G00 Z0.0500 
G00 X1.9382 Y0.1598 
G01 Z-0.0025 F10.00 
G01 X1.9382 Y0.1902 F3.00  
G01 X1.9598 Y0.2118 
G01 X1.9902 Y0.2118 
G01 X2.0118 Y0.1902 
G01 X2.0118 Y0.1598 
G01 X1.9902 Y0.1382 
G01 X1.9598 Y0.1382 
G01 X1.9382 Y0.1598 
G00 Z0.0500 
G00 X1.9598 Y0.1118 
G01 Z-0.0025 F10.00 
G01 X1.9902 Y0.1118 F3.00  
G01 X2.0118 Y0.0902 
G01 X2.0118 Y0.0598 
G01 X1.9902 Y0.0382 
G01 X1.9598 Y0.0382 
G01 X1.9382 Y0.0598 
G01 X1.9382 Y0.0902 
G01 X1.9598 Y0.1118 
G00 Z0.0500 
G00 X2.0382 Y0.1598 
G01 Z-0.0025 F10.00 
G01 X2.0382 Y0.1902 F3.00  
G01 X2.0598 Y0.2118 
G01 X2.0902 Y0.2118 
G01 X2.1118 Y0.1902 
G01 X2.1118 Y0.1598 
G01 X2.0902 Y0.1382 
G01 X2.0598 Y0.1382 
G01 X2.0382 Y0.1598 
G00 Z0.0500 
G00 X2.0341 Y0.3405 
G01 Z-0.0025 F10.00 
G01 X2.0279 Y0.3373 F3.00  
G01 X2.0214 Y0.3352 
G01 X2.0145 Y0.3341 
G01 X1.9371 Y0.3341 
G01 X1.9302 Y0.3352 
G01 X1.9236 Y0.3373 
G01 X1.9175 Y0.3405 
G01 X1.9118 Y0.3446 
G01 X1.9090 Y0.3473 
G01 X1.9084 Y0.3465 
G01 X1.9035 Y0.3416 
G01 X1.8980 Y0.3375 
G01 X1.8918 Y0.3344 
G01 X1.8853 Y0.3323 
G01 X1.8784 Y0.3312 
G01 X1.8716 Y0.3312 
G01 X1.8647 Y0.3323 
G01 X1.8582 Y0.3344 
G01 X1.8520 Y0.3375 
G01 X1.8465 Y0.3416 
G01 X1.8419 Y0.3462 
G01 X1.5954 Y0.3462 
G01 X1.5894 Y0.3402 
G01 X1.5606 Y0.3402 
G01 X1.5402 Y0.3606 
G01 X1.5402 Y0.3894 
G01 X1.5462 Y0.3954 
G01 X1.5462 Y0.4106 
G01 X1.4734 Y0.4652 
G01 X1.4606 Y0.4652 
G01 X1.4490 Y0.4768 
G01 X1.3955 Y0.4902 
G01 X1.3456 Y0.4902 
G01 X1.3388 Y0.4915 
G01 X1.3325 Y0.4942 
G01 X1.3268 Y0.4980 
G01 X1.3220 Y0.5028 
G01 X1.3182 Y0.5085 
G01 X1.3155 Y0.5148 
G01 X1.3142 Y0.5216 
G01 X1.3142 Y0.5284 
G01 X1.3155 Y0.5352 
G01 X1.3182 Y0.5415 
G01 X1.3220 Y0.5472 
G01 X1.3268 Y0.5520 
G01 X1.3325 Y0.5558 
G01 X1.3388 Y0.5585 
G01 X1.3456 Y0.5598 
G01 X1.4044 Y0.5598 
G01 X1.4112 Y0.5585 
G01 X1.4175 Y0.5558 
G01 X1.4232 Y0.5520 
G01 X1.4280 Y0.5472 
G01 X1.4318 Y0.5415 
G01 X1.4323 Y0.5404 
G01 X1.4594 Y0.5336 
G01 X1.4606 Y0.5348 
G01 X1.4894 Y0.5348 
G01 X1.5098 Y0.5144 
G01 X1.5098 Y0.5099 
G01 X1.5917 Y0.4485 
G01 X1.5934 Y0.4474 
G01 X1.5939 Y0.4468 
G01 X1.5945 Y0.4463 
G01 X1.5959 Y0.4448 
G01 X1.5974 Y0.4434 
G01 X1.5978 Y0.4427 
G01 X1.5983 Y0.4421 
G01 X1.5994 Y0.4403 
G01 X1.6005 Y0.4386 
G01 X1.6008 Y0.4379 
G01 X1.6012 Y0.4372 
G01 X1.6019 Y0.4353 
G01 X1.6027 Y0.4334 
G01 X1.6028 Y0.4326 
G01 X1.6031 Y0.4319 
G01 X1.6034 Y0.4298 
G01 X1.6038 Y0.4278 
G01 X1.6038 Y0.4270 
G01 X1.6039 Y0.4263 
G01 X1.6038 Y0.4242 
G01 X1.6038 Y0.4038 
G01 X1.8419 Y0.4038 
G01 X1.8465 Y0.4084 
G01 X1.8520 Y0.4125 
G01 X1.8582 Y0.4156 
G01 X1.8647 Y0.4177 
G01 X1.8716 Y0.4188 
G01 X1.8784 Y0.4188 
G01 X1.8853 Y0.4177 
G01 X1.8918 Y0.4156 
G01 X1.8980 Y0.4125 
G01 X1.9035 Y0.4084 
G01 X1.9062 Y0.4058 
G01 X1.9069 Y0.4068 
G01 X1.9118 Y0.4117 
G01 X1.9175 Y0.4158 
G01 X1.9236 Y0.4190 
G01 X1.9302 Y0.4211 
G01 X1.9371 Y0.4222 
G01 X2.0145 Y0.4222 
G01 X2.0214 Y0.4211 
G01 X2.0279 Y0.4190 
G01 X2.0341 Y0.4158 
G01 X2.0397 Y0.4117 
G01 X2.0446 Y0.4068 
G01 X2.0487 Y0.4012 
G01 X2.0519 Y0.3951 
G01 X2.0540 Y0.3885 
G01 X2.0551 Y0.3816 
G01 X2.0551 Y0.3747 
G01 X2.0540 Y0.3678 
G01 X2.0519 Y0.3612 
G01 X2.0487 Y0.3551 
G01 X2.0446 Y0.3495 
G01 X2.0397 Y0.3446 
G01 X2.0341 Y0.3405 
G00 Z0.0500 
G00 X2.0341 Y0.7342 
G01 Z-0.0025 F10.00 
G01 X2.0279 Y0.7310 F3.00  
G01 X2.0214 Y0.7289 
G01 X2.0145 Y0.7278 
G01 X1.9371 Y0.7278 
G01 X1.9302 Y0.7289 
G01 X1.9236 Y0.7310 
G01 X1.9175 Y0.7342 
G01 X1.9118 Y0.7383 
G01 X1.9069 Y0.7432 
G01 X1.9062 Y0.7442 
G01 X1.9035 Y0.7416 
G01 X1.8980 Y0.7375 
G01 X1.8918 Y0.7344 
G01 X1.8853 Y0.7323 
G01 X1.8784 Y0.7312 
G01 X1.8719 Y0.7312 
G01 X1.7934 Y0.6526 
G01 X1.7886 Y0.6495 
G01 X1.7834 Y0.6473 
G01 X1.7778 Y0.6462 
G01 X1.6954 Y0.6462 
G01 X1.6894 Y0.6402 
G01 X1.6606 Y0.6402 
G01 X1.6402 Y0.6606 
G01 X1.6402 Y0.6691 
G01 X1.5795 Y0.7298 
G01 X1.5005 Y0.6114 
G01 X1.4990 Y0.6090 
G01 X1.4974 Y0.6067 
G01 X1.4954 Y0.6047 
G01 X1.4934 Y0.6026 
G01 X1.4911 Y0.6011 
G01 X1.4887 Y0.5995 
G01 X1.4861 Y0.5984 
G01 X1.4834 Y0.5973 
G01 X1.4807 Y0.5968 
G01 X1.4779 Y0.5962 
G01 X1.4750 Y0.5962 
G01 X1.4722 Y0.5962 
G01 X1.4205 Y0.5962 
G01 X1.4175 Y0.5942 
G01 X1.4112 Y0.5915 
G01 X1.4044 Y0.5902 
G01 X1.3456 Y0.5902 
G01 X1.3388 Y0.5915 
G01 X1.3325 Y0.5942 
G01 X1.3268 Y0.5980 
G01 X1.3220 Y0.6028 
G01 X1.3182 Y0.6085 
G01 X1.3155 Y0.6148 
G01 X1.3142 Y0.6216 
G01 X1.3142 Y0.6284 
G01 X1.3155 Y0.6352 
G01 X1.3182 Y0.6415 
G01 X1.3220 Y0.6472 
G01 X1.3268 Y0.6520 
G01 X1.3325 Y0.6558 
G01 X1.3388 Y0.6585 
G01 X1.3456 Y0.6598 
G01 X1.4044 Y0.6598 
G01 X1.4112 Y0.6585 
G01 X1.4175 Y0.6558 
G01 X1.4205 Y0.6538 
G01 X1.4596 Y0.6538 
G01 X1.5402 Y0.7747 
G01 X1.5402 Y0.7894 
G01 X1.5606 Y0.8098 
G01 X1.5894 Y0.8098 
G01 X1.6098 Y0.7894 
G01 X1.6098 Y0.7809 
G01 X1.6809 Y0.7098 
G01 X1.6894 Y0.7098 
G01 X1.6954 Y0.7038 
G01 X1.7631 Y0.7038 
G01 X1.8312 Y0.7719 
G01 X1.8312 Y0.7784 
G01 X1.8323 Y0.7853 
G01 X1.8344 Y0.7918 
G01 X1.8375 Y0.7980 
G01 X1.8416 Y0.8035 
G01 X1.8465 Y0.8084 
G01 X1.8520 Y0.8125 
G01 X1.8582 Y0.8156 
G01 X1.8647 Y0.8177 
G01 X1.8716 Y0.8188 
G01 X1.8784 Y0.8188 
G01 X1.8853 Y0.8177 
G01 X1.8918 Y0.8156 
G01 X1.8980 Y0.8125 
G01 X1.9035 Y0.8084 
G01 X1.9084 Y0.8035 
G01 X1.9090 Y0.8027 
G01 X1.9118 Y0.8054 
G01 X1.9175 Y0.8095 
G01 X1.9236 Y0.8127 
G01 X1.9302 Y0.8148 
G01 X1.9371 Y0.8159 
G01 X2.0145 Y0.8159 
G01 X2.0214 Y0.8148 
G01 X2.0279 Y0.8127 
G01 X2.0341 Y0.8095 
G01 X2.0397 Y0.8054 
G01 X2.0446 Y0.8005 
G01 X2.0487 Y0.7949 
G01 X2.0519 Y0.7888 
G01 X2.0540 Y0.7822 
G01 X2.0551 Y0.7753 
G01 X2.0551 Y0.7684 
G01 X2.0540 Y0.7615 
G01 X2.0519 Y0.7549 
G01 X2.0487 Y0.7488 
G01 X2.0446 Y0.7432 
G01 X2.0397 Y0.7383 
G01 X2.0341 Y0.7342 
G00 Z0.0500 
G00 X1.1280 Y0.5472 
G01 Z-0.0025 F10.00 
G01 X1.1318 Y0.5415 F3.00  
G01 X1.1345 Y0.5352 
G01 X1.1358 Y0.5284 
G01 X1.1358 Y0.5216 
G01 X1.1345 Y0.5148 
G01 X1.1318 Y0.5085 
G01 X1.1280 Y0.5028 
G01 X1.1232 Y0.4980 
G01 X1.1175 Y0.4942 
G01 X1.1112 Y0.4915 
G01 X1.1044 Y0.4902 
G01 X1.0456 Y0.4902 
G01 X1.0388 Y0.4915 
G01 X1.0325 Y0.4942 
G01 X1.0295 Y0.4962 
G01 X1.0119 Y0.4962 
G01 X0.9934 Y0.4776 
G01 X0.9886 Y0.4745 
G01 X0.9834 Y0.4723 
G01 X0.9778 Y0.4712 
G01 X0.7972 Y0.4712 
G01 X0.7916 Y0.4723 
G01 X0.7864 Y0.4745 
G01 X0.7816 Y0.4776 
G01 X0.7776 Y0.4816 
G01 X0.7526 Y0.5066 
G01 X0.7495 Y0.5114 
G01 X0.7473 Y0.5166 
G01 X0.7462 Y0.5222 
G01 X0.7462 Y0.6028 
G01 X0.7473 Y0.6084 
G01 X0.7495 Y0.6136 
G01 X0.7526 Y0.6184 
G01 X0.7566 Y0.6224 
G01 X0.7712 Y0.6369 
G01 X0.7712 Y0.6439 
G01 X0.7699 Y0.6453 
G01 X0.7656 Y0.6516 
G01 X0.7627 Y0.6587 
G01 X0.7612 Y0.6662 
G01 X0.7612 Y0.7338 
G01 X0.7627 Y0.7413 
G01 X0.7656 Y0.7484 
G01 X0.7699 Y0.7547 
G01 X0.7753 Y0.7601 
G01 X0.7816 Y0.7644 
G01 X0.7887 Y0.7673 
G01 X0.7962 Y0.7688 
G01 X0.8038 Y0.7688 
G01 X0.8113 Y0.7673 
G01 X0.8184 Y0.7644 
G01 X0.8247 Y0.7601 
G01 X0.8301 Y0.7547 
G01 X0.8344 Y0.7484 
G01 X0.8373 Y0.7413 
G01 X0.8388 Y0.7338 
G01 X0.8388 Y0.6662 
G01 X0.8373 Y0.6587 
G01 X0.8344 Y0.6516 
G01 X0.8301 Y0.6453 
G01 X0.8288 Y0.6439 
G01 X0.8288 Y0.6222 
G01 X0.8277 Y0.6166 
G01 X0.8255 Y0.6114 
G01 X0.8224 Y0.6066 
G01 X0.8038 Y0.5881 
G01 X0.8038 Y0.5369 
G01 X0.8119 Y0.5288 
G01 X0.9631 Y0.5288 
G01 X0.9776 Y0.5434 
G01 X0.9816 Y0.5474 
G01 X0.9864 Y0.5505 
G01 X0.9916 Y0.5527 
G01 X0.9972 Y0.5538 
G01 X1.0295 Y0.5538 
G01 X1.0325 Y0.5558 
G01 X1.0388 Y0.5585 
G01 X1.0456 Y0.5598 
G01 X1.1044 Y0.5598 
G01 X1.1112 Y0.5585 
G01 X1.1175 Y0.5558 
G01 X1.1232 Y0.5520 
G01 X1.1280 Y0.5472 
G00 Z0.0500 
G00 X0.9584 Y0.5465 
G01 Z-0.0025 F10.00 
G01 X0.9535 Y0.5416 F3.00  
G01 X0.9480 Y0.5375 
G01 X0.9418 Y0.5344 
G01 X0.9353 Y0.5323 
G01 X0.9284 Y0.5312 
G01 X0.9216 Y0.5312 
G01 X0.9147 Y0.5323 
G01 X0.9082 Y0.5344 
G01 X0.9020 Y0.5375 
G01 X0.8965 Y0.5416 
G01 X0.8919 Y0.5462 
G01 X0.8704 Y0.5462 
G01 X0.8644 Y0.5402 
G01 X0.8356 Y0.5402 
G01 X0.8152 Y0.5606 
G01 X0.8152 Y0.5894 
G01 X0.8356 Y0.6098 
G01 X0.8644 Y0.6098 
G01 X0.8704 Y0.6038 
G01 X0.8712 Y0.6038 
G01 X0.8712 Y0.6439 
G01 X0.8699 Y0.6453 
G01 X0.8656 Y0.6516 
G01 X0.8627 Y0.6587 
G01 X0.8612 Y0.6662 
G01 X0.8612 Y0.7338 
G01 X0.8627 Y0.7413 
G01 X0.8656 Y0.7484 
G01 X0.8699 Y0.7547 
G01 X0.8753 Y0.7601 
G01 X0.8816 Y0.7644 
G01 X0.8887 Y0.7673 
G01 X0.8962 Y0.7688 
G01 X0.9038 Y0.7688 
G01 X0.9113 Y0.7673 
G01 X0.9184 Y0.7644 
G01 X0.9247 Y0.7601 
G01 X0.9301 Y0.7547 
G01 X0.9344 Y0.7484 
G01 X0.9373 Y0.7413 
G01 X0.9388 Y0.7338 
G01 X0.9388 Y0.6662 
G01 X0.9373 Y0.6587 
G01 X0.9344 Y0.6516 
G01 X0.9301 Y0.6453 
G01 X0.9288 Y0.6439 
G01 X0.9288 Y0.6187 
G01 X0.9353 Y0.6177 
G01 X0.9418 Y0.6156 
G01 X0.9480 Y0.6125 
G01 X0.9535 Y0.6084 
G01 X0.9584 Y0.6035 
G01 X0.9625 Y0.5980 
G01 X0.9656 Y0.5918 
G01 X0.9677 Y0.5853 
G01 X0.9688 Y0.5784 
G01 X0.9688 Y0.5716 
G01 X0.9677 Y0.5647 
G01 X0.9656 Y0.5582 
G01 X0.9625 Y0.5520 
G01 X0.9584 Y0.5465 
G00 Z0.0500 
G00 X0.3048 Y0.7401 
G01 Z-0.0025 F10.00 
G01 X0.2990 Y0.7358 F3.00  
G01 X0.2926 Y0.7326 
G01 X0.2857 Y0.7303 
G01 X0.2786 Y0.7292 
G01 X0.2714 Y0.7292 
G01 X0.2643 Y0.7303 
G01 X0.2574 Y0.7326 
G01 X0.2510 Y0.7358 
G01 X0.2452 Y0.7401 
G01 X0.2401 Y0.7452 
G01 X0.2393 Y0.7462 
G01 X0.1954 Y0.7462 
G01 X0.1894 Y0.7402 
G01 X0.1606 Y0.7402 
G01 X0.1402 Y0.7606 
G01 X0.1402 Y0.7894 
G01 X0.1606 Y0.8098 
G01 X0.1894 Y0.8098 
G01 X0.1954 Y0.8038 
G01 X0.2393 Y0.8038 
G01 X0.2401 Y0.8048 
G01 X0.2452 Y0.8099 
G01 X0.2510 Y0.8142 
G01 X0.2574 Y0.8174 
G01 X0.2643 Y0.8197 
G01 X0.2714 Y0.8208 
G01 X0.2786 Y0.8208 
G01 X0.2857 Y0.8197 
G01 X0.2926 Y0.8174 
G01 X0.2990 Y0.8142 
G01 X0.3048 Y0.8099 
G01 X0.3099 Y0.8048 
G01 X0.3142 Y0.7990 
G01 X0.3174 Y0.7926 
G01 X0.3197 Y0.7857 
G01 X0.3208 Y0.7786 
G01 X0.3208 Y0.7714 
G01 X0.3197 Y0.7643 
G01 X0.3174 Y0.7574 
G01 X0.3142 Y0.7510 
G01 X0.3099 Y0.7452 
G01 X0.3048 Y0.7401 
G00 Z0.0500 
G82 X2.0750 Y0.5750 Z-0.0110 F3.00  R0.0500 P1.000000
G82 X0.9250 Y0.2750 
G82 X0.9250 Y0.5750 
G82 X1.8750 Y0.7750 
G82 X1.8750 Y0.3750 
G82 X1.0750 Y0.7250 
G82 X1.0750 Y0.6250 
G82 X1.0750 Y0.5250 
G82 X1.0750 Y0.4250 
G82 X1.3750 Y0.4250 
G82 X1.3750 Y0.5250 
G82 X1.3750 Y0.6250 
G82 X1.3750 Y0.7250 
G82 X0.2750 Y0.7750 
G82 X0.3750 Y0.7750 
G82 X0.8500 Y0.5750 
G82 X0.4500 Y0.5750 
G82 X0.6500 Y0.5000 
G82 X0.2500 Y0.5000 
G82 X1.5750 Y0.3750 
G82 X1.5750 Y0.7750 
G82 X1.4750 Y0.9000 
G82 X1.4750 Y0.5000 
G82 X1.6750 Y0.6750 
G82 X1.6750 Y0.2750 
G82 X0.1750 Y0.7750 
G82 X0.1750 Y0.3750 
G82 X1.9758 Y0.3781 
G82 X1.9758 Y0.5750 
G82 X1.9758 Y0.7719 
G82 X0.1750 Y0.0750 
G82 X0.1750 Y0.1750 
G82 X0.2750 Y0.0750 
G82 X0.2750 Y0.1750 
G82 X0.3750 Y0.0750 
G82 X0.3750 Y0.1750 
G82 X0.4750 Y0.0750 
G82 X0.4750 Y0.1750 
G82 X0.5750 Y0.0750 
G82 X0.5750 Y0.1750 
G82 X0.6750 Y0.0750 
G82 X0.6750 Y0.1750 
G82 X0.7750 Y0.0750 
G82 X0.7750 Y0.1750 
G82 X0.8750 Y0.0750 
G82 X0.8750 Y0.1750 
G82 X0.9750 Y0.0750 
G82 X0.9750 Y0.1750 
G82 X1.0750 Y0.0750 
G82 X1.0750 Y0.1750 
G82 X1.1750 Y0.0750 
G82 X1.1750 Y0.1750 
G82 X1.2750 Y0.0750 
G82 X1.2750 Y0.1750 
G82 X1.3750 Y0.0750 
G82 X1.3750 Y0.1750 
G82 X1.4750 Y0.0750 
G82 X1.4750 Y0.1750 
G82 X1.5750 Y0.0750 
G82 X1.5750 Y0.1750 
G82 X1.6750 Y0.0750 
G82 X1.6750 Y0.1750 
G82 X1.7750 Y0.0750 
G82 X1.7750 Y0.1750 
G82 X1.8750 Y0.0750 
G82 X1.8750 Y0.1750 
G82 X1.9750 Y0.0750 
G82 X1.9750 Y0.1750 
G82 X2.0750 Y0.0750 
G82 X2.0750 Y0.1750 
G82 X0.7000 Y0.7000 
G82 X0.8000 Y0.7000 
G82 X0.9000 Y0.7000 
G82 X0.6000 Y0.6750 
G82 X0.5500 Y0.7500 
G82 X0.5000 Y0.6750 
G00 Z0.5000 
M05
M02
