(.../pcb-gcode-3.6.0.4/pcb-gcode.ulp)
(Copyright 2005 - 2012 by John Johnson)
(See readme.txt for licensing terms.)
(This file generated from the board:)
(.../reader-and-latch-client-V2016-7-5.brd)
(Current profile is .../pcb-gcode-3.6.0.4/profiles/Pololu_PCB_mill.pp  )
(This file generated 7/6/2016 7:02 PM)
(Settings from pcb-machine.h)
(  Tool Size)
(0.0070 )
(Z Axis Settings)
(  High     Up        Down     Drill)
(0.1500 	0.1000 	-0.0060 	-0.0800 )
(spindle on time = 0.1000)
(milling depth = -0.0090)
(text depth = -0.0050)
(tool change at 0.0000 0.0000 0.1500 )
(feed rate xy = F10.00 )
(feed rate z  = F10.00 )
(Settings from pcb-defaults.h)
(isolate min = 0.0010)
(isolate max = 0.0120)
(isolate step = 0.0070)
(Generated top outlines, bottom outlines, bottom drill, )
(Unit of measure: inch)
( Tool|       Size       |  Min Sub |  Max Sub |   Count )
( T01  0.800mm 0.0315in 0.0000in 0.0000in )
( T02  0.813mm 0.0320in 0.0000in 0.0000in )
( T03  0.914mm 0.0360in 0.0000in 0.0000in )
( T04  1.000mm 0.0394in 0.0000in 0.0000in )
( T05  1.016mm 0.0400in 0.0000in 0.0000in )
( T06  1.118mm 0.0440in 0.0000in 0.0000in )
( T07  1.194mm 0.0470in 0.0000in 0.0000in )
(Inch Mode)
G20
(Absolute Coordinates)
G90
M05
G00 Z0.1500 
G00 X0.0000 Y0.0000 
M06 T01  ; 0.0315 
G01 Z0.0000 F10.00 
M06 T01  ; 0.0315 
G00 Z0.1000 
M03 S1
G04 P0.100000
G00 Z0.100000
G00 X-0.1500 Y0.2000 
G01 Z-0.0800 F10.00 
G01 Z0.100000
(R0.1000  P0.100000)
(G00 Z0.100000)
G00 X-0.1500 Y2.9500 
G01 Z-0.080000
G01 Z0.100000
(G00 Z0.100000)
G00 X-1.5500 Y1.5500 
G01 Z-0.080000
G01 Z0.100000
(G00 Z0.100000)
G00 X-3.1500 Y0.2000 
G01 Z-0.080000
G01 Z0.100000
(G00 Z0.100000)
G00 X-3.1500 Y2.9500 
G01 Z-0.080000
G01 Z0.100000
M05
G00 Z0.1500 
M06 T02  ; 0.0320 
G01 Z0.0000 F10.00 
M06 T02  ; 0.0320 
G00 Z0.1000 
M03 S1
G04 P0.100000
G00 Z0.100000
G00 X-1.3500 Y2.3250 
G01 Z-0.0800 F10.00 
G01 Z0.100000
(R0.1000  P0.100000)
(G00 Z0.100000)
G00 X-1.3500 Y2.5250 
G01 Z-0.080000
G01 Z0.100000
(G00 Z0.100000)
G00 X-1.4500 Y2.2250 
G01 Z-0.080000
G01 Z0.100000
(G00 Z0.100000)
G00 X-1.4500 Y2.3250 
G01 Z-0.080000
G01 Z0.100000
(G00 Z0.100000)
G00 X-1.4500 Y2.4250 
G01 Z-0.080000
G01 Z0.100000
(G00 Z0.100000)
G00 X-1.4500 Y2.5250 
G01 Z-0.080000
G01 Z0.100000
(G00 Z0.100000)
G00 X-1.6500 Y2.1250 
G01 Z-0.080000
G01 Z0.100000
(G00 Z0.100000)
G00 X-1.7500 Y2.2250 
G01 Z-0.080000
G01 Z0.100000
(G00 Z0.100000)
G00 X-1.7500 Y2.3250 
G01 Z-0.080000
G01 Z0.100000
(G00 Z0.100000)
G00 X-1.7500 Y2.4250 
G01 Z-0.080000
G01 Z0.100000
(G00 Z0.100000)
G00 X-1.7500 Y2.5250 
G01 Z-0.080000
G01 Z0.100000
(G00 Z0.100000)
G00 X-2.0500 Y2.1250 
G01 Z-0.080000
G01 Z0.100000
(G00 Z0.100000)
G00 X-2.2000 Y1.9750 
G01 Z-0.080000
G01 Z0.100000
(G00 Z0.100000)
G00 X-2.2000 Y2.0750 
G01 Z-0.080000
G01 Z0.100000
(G00 Z0.100000)
G00 X-2.2250 Y2.4500 
G01 Z-0.080000
G01 Z0.100000
(G00 Z0.100000)
G00 X-2.2250 Y2.6500 
G01 Z-0.080000
G01 Z0.100000
(G00 Z0.100000)
G00 X-2.2750 Y1.4250 
G01 Z-0.080000
G01 Z0.100000
(G00 Z0.100000)
G00 X-2.2750 Y0.9750 
G01 Z-0.080000
G01 Z0.100000
(G00 Z0.100000)
G00 X-2.3000 Y1.6500 
G01 Z-0.080000
G01 Z0.100000
(G00 Z0.100000)
G00 X-2.3000 Y1.7500 
G01 Z-0.080000
G01 Z0.100000
(G00 Z0.100000)
G00 X-2.3000 Y1.8500 
G01 Z-0.080000
G01 Z0.100000
(G00 Z0.100000)
G00 X-2.3250 Y1.3000 
G01 Z-0.080000
G01 Z0.100000
(G00 Z0.100000)
G00 X-2.3250 Y0.6750 
G01 Z-0.080000
G01 Z0.100000
(G00 Z0.100000)
G00 X-2.3250 Y0.7500 
G01 Z-0.080000
G01 Z0.100000
(G00 Z0.100000)
G00 X-2.3250 Y0.8500 
G01 Z-0.080000
G01 Z0.100000
(G00 Z0.100000)
G00 X-2.3250 Y1.1000 
G01 Z-0.080000
G01 Z0.100000
(G00 Z0.100000)
G00 X-2.3250 Y1.2000 
G01 Z-0.080000
G01 Z0.100000
(G00 Z0.100000)
G00 X-2.3750 Y1.4250 
G01 Z-0.080000
G01 Z0.100000
(G00 Z0.100000)
G00 X-2.3750 Y0.9750 
G01 Z-0.080000
G01 Z0.100000
(G00 Z0.100000)
G00 X-2.4750 Y1.4250 
G01 Z-0.080000
G01 Z0.100000
(G00 Z0.100000)
G00 X-2.4750 Y0.9750 
G01 Z-0.080000
G01 Z0.100000
(G00 Z0.100000)
G00 X-2.6000 Y1.9750 
G01 Z-0.080000
G01 Z0.100000
(G00 Z0.100000)
G00 X-2.6000 Y2.0750 
G01 Z-0.080000
G01 Z0.100000
(G00 Z0.100000)
G00 X-2.7250 Y1.3000 
G01 Z-0.080000
G01 Z0.100000
(G00 Z0.100000)
G00 X-2.7250 Y0.6750 
G01 Z-0.080000
G01 Z0.100000
(G00 Z0.100000)
G00 X-2.7250 Y0.7500 
G01 Z-0.080000
G01 Z0.100000
(G00 Z0.100000)
G00 X-2.7250 Y0.8500 
G01 Z-0.080000
G01 Z0.100000
(G00 Z0.100000)
G00 X-2.7250 Y1.1000 
G01 Z-0.080000
G01 Z0.100000
(G00 Z0.100000)
G00 X-2.7250 Y1.2000 
G01 Z-0.080000
G01 Z0.100000
(G00 Z0.100000)
G00 X-2.9250 Y2.4500 
G01 Z-0.080000
G01 Z0.100000
(G00 Z0.100000)
G00 X-2.9250 Y2.6500 
G01 Z-0.080000
G01 Z0.100000
(G00 Z0.100000)
G00 X-0.5250 Y1.5500 
G01 Z-0.080000
G01 Z0.100000
(G00 Z0.100000)
G00 X-0.5250 Y1.1500 
G01 Z-0.080000
G01 Z0.100000
(G00 Z0.100000)
G00 X-0.5500 Y1.8500 
G01 Z-0.080000
G01 Z0.100000
(G00 Z0.100000)
G00 X-0.5500 Y2.2500 
G01 Z-0.080000
G01 Z0.100000
(G00 Z0.100000)
G00 X-0.6250 Y1.4750 
G01 Z-0.080000
G01 Z0.100000
(G00 Z0.100000)
G00 X-0.6250 Y1.8750 
G01 Z-0.080000
G01 Z0.100000
(G00 Z0.100000)
G00 X-0.6500 Y2.2500 
G01 Z-0.080000
G01 Z0.100000
(G00 Z0.100000)
G00 X-0.7500 Y1.4000 
G01 Z-0.080000
G01 Z0.100000
(G00 Z0.100000)
G00 X-0.7500 Y1.5000 
G01 Z-0.080000
G01 Z0.100000
(G00 Z0.100000)
G00 X-0.7500 Y1.6000 
G01 Z-0.080000
G01 Z0.100000
(G00 Z0.100000)
G00 X-0.7500 Y1.7000 
G01 Z-0.080000
G01 Z0.100000
(G00 Z0.100000)
G00 X-0.7500 Y0.5000 
G01 Z-0.080000
G01 Z0.100000
(G00 Z0.100000)
G00 X-0.7500 Y0.6000 
G01 Z-0.080000
G01 Z0.100000
(G00 Z0.100000)
G00 X-0.7500 Y0.7000 
G01 Z-0.080000
G01 Z0.100000
(G00 Z0.100000)
G00 X-0.7500 Y0.8000 
G01 Z-0.080000
G01 Z0.100000
(G00 Z0.100000)
G00 X-0.7500 Y0.9000 
G01 Z-0.080000
G01 Z0.100000
(G00 Z0.100000)
G00 X-0.7500 Y1.0000 
G01 Z-0.080000
G01 Z0.100000
(G00 Z0.100000)
G00 X-0.7500 Y1.1000 
G01 Z-0.080000
G01 Z0.100000
(G00 Z0.100000)
G00 X-0.7500 Y1.2000 
G01 Z-0.080000
G01 Z0.100000
(G00 Z0.100000)
G00 X-1.0500 Y1.4000 
G01 Z-0.080000
G01 Z0.100000
(G00 Z0.100000)
G00 X-1.0500 Y1.5000 
G01 Z-0.080000
G01 Z0.100000
(G00 Z0.100000)
G00 X-1.0500 Y1.6000 
G01 Z-0.080000
G01 Z0.100000
(G00 Z0.100000)
G00 X-1.0500 Y1.7000 
G01 Z-0.080000
G01 Z0.100000
(G00 Z0.100000)
G00 X-1.0500 Y2.1500 
G01 Z-0.080000
G01 Z0.100000
(G00 Z0.100000)
G00 X-1.0500 Y2.2500 
G01 Z-0.080000
G01 Z0.100000
(G00 Z0.100000)
G00 X-1.0500 Y0.5000 
G01 Z-0.080000
G01 Z0.100000
(G00 Z0.100000)
G00 X-1.0500 Y0.6000 
G01 Z-0.080000
G01 Z0.100000
(G00 Z0.100000)
G00 X-1.0500 Y0.7000 
G01 Z-0.080000
G01 Z0.100000
(G00 Z0.100000)
G00 X-1.0500 Y0.8000 
G01 Z-0.080000
G01 Z0.100000
(G00 Z0.100000)
G00 X-1.0500 Y0.9000 
G01 Z-0.080000
G01 Z0.100000
(G00 Z0.100000)
G00 X-1.0500 Y1.0000 
G01 Z-0.080000
G01 Z0.100000
(G00 Z0.100000)
G00 X-1.0500 Y1.1000 
G01 Z-0.080000
G01 Z0.100000
(G00 Z0.100000)
G00 X-1.0500 Y1.2000 
G01 Z-0.080000
G01 Z0.100000
(G00 Z0.100000)
G00 X-1.1500 Y2.1500 
G01 Z-0.080000
G01 Z0.100000
(G00 Z0.100000)
G00 X-1.1500 Y2.3250 
G01 Z-0.080000
G01 Z0.100000
(G00 Z0.100000)
G00 X-1.1500 Y2.5250 
G01 Z-0.080000
G01 Z0.100000
M05
G00 Z0.1500 
M06 T03  ; 0.0360 
G01 Z0.0000 F10.00 
M06 T03  ; 0.0360 
G00 Z0.1000 
M03 S1
G04 P0.100000
G00 Z0.100000
G00 X-1.4000 Y1.2500 
G01 Z-0.0800 F10.00 
G01 Z0.100000
(R0.1000  P0.100000)
(G00 Z0.100000)
G00 X-1.4000 Y1.3500 
G01 Z-0.080000
G01 Z0.100000
(G00 Z0.100000)
G00 X-1.4000 Y1.4500 
G01 Z-0.080000
G01 Z0.100000
(G00 Z0.100000)
G00 X-1.4000 Y1.5500 
G01 Z-0.080000
G01 Z0.100000
(G00 Z0.100000)
G00 X-1.4000 Y1.6500 
G01 Z-0.080000
G01 Z0.100000
(G00 Z0.100000)
G00 X-1.4000 Y1.7500 
G01 Z-0.080000
G01 Z0.100000
(G00 Z0.100000)
G00 X-1.4000 Y1.8500 
G01 Z-0.080000
G01 Z0.100000
(G00 Z0.100000)
G00 X-1.4000 Y1.9500 
G01 Z-0.080000
G01 Z0.100000
(G00 Z0.100000)
G00 X-1.4000 Y0.5500 
G01 Z-0.080000
G01 Z0.100000
(G00 Z0.100000)
G00 X-1.4000 Y0.6500 
G01 Z-0.080000
G01 Z0.100000
(G00 Z0.100000)
G00 X-1.4000 Y0.7500 
G01 Z-0.080000
G01 Z0.100000
(G00 Z0.100000)
G00 X-1.4000 Y0.8500 
G01 Z-0.080000
G01 Z0.100000
(G00 Z0.100000)
G00 X-1.4000 Y0.9500 
G01 Z-0.080000
G01 Z0.100000
(G00 Z0.100000)
G00 X-1.4000 Y1.0500 
G01 Z-0.080000
G01 Z0.100000
(G00 Z0.100000)
G00 X-1.4000 Y1.1500 
G01 Z-0.080000
G01 Z0.100000
(G00 Z0.100000)
G00 X-2.0000 Y1.2500 
G01 Z-0.080000
G01 Z0.100000
(G00 Z0.100000)
G00 X-2.0000 Y1.3500 
G01 Z-0.080000
G01 Z0.100000
(G00 Z0.100000)
G00 X-2.0000 Y1.4500 
G01 Z-0.080000
G01 Z0.100000
(G00 Z0.100000)
G00 X-2.0000 Y1.5500 
G01 Z-0.080000
G01 Z0.100000
(G00 Z0.100000)
G00 X-2.0000 Y1.6500 
G01 Z-0.080000
G01 Z0.100000
(G00 Z0.100000)
G00 X-2.0000 Y1.7500 
G01 Z-0.080000
G01 Z0.100000
(G00 Z0.100000)
G00 X-2.0000 Y1.8500 
G01 Z-0.080000
G01 Z0.100000
(G00 Z0.100000)
G00 X-2.0000 Y1.9500 
G01 Z-0.080000
G01 Z0.100000
(G00 Z0.100000)
G00 X-2.0000 Y0.5500 
G01 Z-0.080000
G01 Z0.100000
(G00 Z0.100000)
G00 X-2.0000 Y0.6500 
G01 Z-0.080000
G01 Z0.100000
(G00 Z0.100000)
G00 X-2.0000 Y0.7500 
G01 Z-0.080000
G01 Z0.100000
(G00 Z0.100000)
G00 X-2.0000 Y0.8500 
G01 Z-0.080000
G01 Z0.100000
(G00 Z0.100000)
G00 X-2.0000 Y0.9500 
G01 Z-0.080000
G01 Z0.100000
(G00 Z0.100000)
G00 X-2.0000 Y1.0500 
G01 Z-0.080000
G01 Z0.100000
(G00 Z0.100000)
G00 X-2.0000 Y1.1500 
G01 Z-0.080000
G01 Z0.100000
M05
G00 Z0.1500 
M06 T04  ; 0.0394 
G01 Z0.0000 F10.00 
M06 T04  ; 0.0394 
G00 Z0.1000 
M03 S1
G04 P0.100000
G00 Z0.100000
G00 X-1.2500 Y1.7500 
G01 Z-0.0800 F10.00 
G01 Z0.100000
(R0.1000  P0.100000)
(G00 Z0.100000)
G00 X-1.2500 Y1.8500 
G01 Z-0.080000
G01 Z0.100000
M05
G00 Z0.1500 
M06 T05  ; 0.0400 
G01 Z0.0000 F10.00 
M06 T05  ; 0.0400 
G00 Z0.1000 
M03 S1
G04 P0.100000
G00 Z0.100000
G00 X-1.2500 Y1.3000 
G01 Z-0.0800 F10.00 
G01 Z0.100000
(R0.1000  P0.100000)
(G00 Z0.100000)
G00 X-1.2500 Y1.1000 
G01 Z-0.080000
G01 Z0.100000
(G00 Z0.100000)
G00 X-1.2500 Y1.2000 
G01 Z-0.080000
G01 Z0.100000
(G00 Z0.100000)
G00 X-2.0200 Y2.7625 
G01 Z-0.080000
G01 Z0.100000
(G00 Z0.100000)
G00 X-2.2250 Y0.4250 
G01 Z-0.080000
G01 Z0.100000
(G00 Z0.100000)
G00 X-2.3250 Y0.4250 
G01 Z-0.080000
G01 Z0.100000
(G00 Z0.100000)
G00 X-2.4250 Y0.4250 
G01 Z-0.080000
G01 Z0.100000
(G00 Z0.100000)
G00 X-2.4750 Y2.3250 
G01 Z-0.080000
G01 Z0.100000
(G00 Z0.100000)
G00 X-2.5250 Y1.6500 
G01 Z-0.080000
G01 Z0.100000
(G00 Z0.100000)
G00 X-2.5250 Y1.7500 
G01 Z-0.080000
G01 Z0.100000
(G00 Z0.100000)
G00 X-2.5250 Y1.8500 
G01 Z-0.080000
G01 Z0.100000
(G00 Z0.100000)
G00 X-2.5750 Y2.3250 
G01 Z-0.080000
G01 Z0.100000
(G00 Z0.100000)
G00 X-2.6750 Y2.3250 
G01 Z-0.080000
G01 Z0.100000
(G00 Z0.100000)
G00 X-2.7750 Y0.4250 
G01 Z-0.080000
G01 Z0.100000
(G00 Z0.100000)
G00 X-2.8750 Y0.4250 
G01 Z-0.080000
G01 Z0.100000
(G00 Z0.100000)
G00 X-2.9750 Y0.4250 
G01 Z-0.080000
G01 Z0.100000
(G00 Z0.100000)
G00 X-0.3000 Y1.3500 
G01 Z-0.080000
G01 Z0.100000
(G00 Z0.100000)
G00 X-0.3000 Y1.4500 
G01 Z-0.080000
G01 Z0.100000
(G00 Z0.100000)
G00 X-0.3000 Y1.5500 
G01 Z-0.080000
G01 Z0.100000
(G00 Z0.100000)
G00 X-0.3000 Y0.4500 
G01 Z-0.080000
G01 Z0.100000
(G00 Z0.100000)
G00 X-0.3000 Y0.5500 
G01 Z-0.080000
G01 Z0.100000
(G00 Z0.100000)
G00 X-0.3000 Y0.6500 
G01 Z-0.080000
G01 Z0.100000
(G00 Z0.100000)
G00 X-0.3000 Y0.7500 
G01 Z-0.080000
G01 Z0.100000
(G00 Z0.100000)
G00 X-0.3000 Y0.8500 
G01 Z-0.080000
G01 Z0.100000
(G00 Z0.100000)
G00 X-0.3000 Y0.9500 
G01 Z-0.080000
G01 Z0.100000
(G00 Z0.100000)
G00 X-0.3000 Y1.0500 
G01 Z-0.080000
G01 Z0.100000
(G00 Z0.100000)
G00 X-0.3000 Y1.1500 
G01 Z-0.080000
G01 Z0.100000
(G00 Z0.100000)
G00 X-1.1300 Y2.7625 
G01 Z-0.080000
G01 Z0.100000
M05
G00 Z0.1500 
M06 T06  ; 0.0440 
G01 Z0.0000 F10.00 
M06 T06  ; 0.0440 
G00 Z0.1000 
M03 S1
G04 P0.100000
G00 Z0.100000
G00 X-2.7250 Y1.7000 
G01 Z-0.0800 F10.00 
G01 Z0.100000
(R0.1000  P0.100000)
(G00 Z0.100000)
G00 X-2.7250 Y2.1000 
G01 Z-0.080000
G01 Z0.100000
M05
G00 Z0.1500 
M06 T07  ; 0.0470 
G01 Z0.0000 F10.00 
M06 T07  ; 0.0470 
G00 Z0.1000 
M03 S1
G04 P0.100000
G00 Z0.100000
G00 X-2.4766 Y2.7750 
G01 Z-0.0800 F10.00 
G01 Z0.100000
(R0.1000  P0.100000)
(G00 Z0.100000)
G00 X-0.2492 Y1.8531 
G01 Z-0.080000
G01 Z0.100000
(G00 Z0.100000)
G00 X-0.2492 Y2.0500 
G01 Z-0.080000
G01 Z0.100000
(G00 Z0.100000)
G00 X-0.2492 Y2.2469 
G01 Z-0.080000
G01 Z0.100000
(G00 Z0.100000)
G00 X-2.6734 Y2.7750 
G01 Z-0.080000
G01 Z0.100000
(G00 Z0.100000)
G00 X-2.9500 Y1.3766 
G01 Z-0.080000
G01 Z0.100000
(G00 Z0.100000)
G00 X-2.9500 Y1.5734 
G01 Z-0.080000
G01 Z0.100000
(G00 Z0.100000)
G00 X-2.9500 Y1.8766 
G01 Z-0.080000
G01 Z0.100000
(G00 Z0.100000)
G00 X-2.9500 Y2.0734 
G01 Z-0.080000
G01 Z0.100000
(G00 Z0.100000)
G00 X-2.9500 Y0.8766 
G01 Z-0.080000
G01 Z0.100000
(G00 Z0.100000)
G00 X-2.9500 Y1.0734 
G01 Z-0.080000
G01 Z0.100000
(G00 Z0.100000)
G00 X-0.5766 Y2.6000 
G01 Z-0.080000
G01 Z0.100000
(G00 Z0.100000)
G00 X-0.7734 Y2.6000 
G01 Z-0.080000
G01 Z0.100000
T01 
G00 Z0.1500 
M05
M02
