(.../pcb-gcode-3.6.0.4/pcb-gcode.ulp)
(Copyright 2005 - 2012 by John Johnson)
(See readme.txt for licensing terms.)
(This file generated from the board:)
(.../reader-and-latch-client-V2016-7-5.brd)
(Current profile is .../pcb-gcode-3.6.0.4/profiles/Pololu_PCB_mill.pp  )
(This file generated 7/6/2016 7:02 PM)
(Settings from pcb-machine.h)
(  Tool Size)
(0.0070 )
(Z Axis Settings)
(  High     Up        Down     Drill)
(0.1500 	0.1000 	-0.0060 	-0.0800 )
(spindle on time = 0.1000)
(milling depth = -0.0090)
(text depth = -0.0050)
(tool change at 0.0000 0.0000 0.1500 )
(feed rate xy = F10.00 )
(feed rate z  = F10.00 )
(Settings from pcb-defaults.h)
(isolate min = 0.0010)
(isolate max = 0.0120)
(isolate step = 0.0070)
(Generated top outlines, bottom outlines, bottom drill, )
(Unit of measure: inch)
(Inch Mode)
G20
(Absolute Coordinates)
G90
G00 X0.0000 Y0.0000 
M03 S1
G04 P0.100000
G00 Z0.1000 
G00 X-2.7142 Y2.7371 
G01 Z-0.0060 F10.00 
G01 X-2.7135 Y2.7318 F10.00 
G01 X-2.7121 Y2.7266 
G01 X-2.7101 Y2.7217 
G01 X-2.7074 Y2.7171 
G01 X-2.7041 Y2.7128 
G01 X-2.7004 Y2.7090 
G01 X-2.6995 Y2.7084 
G01 X-2.6995 Y2.7096 
G01 X-2.7043 Y2.7144 
G01 X-2.7087 Y2.7209 
G01 X-2.7116 Y2.7282 
G01 X-2.7132 Y2.7358 
G01 X-2.7132 Y2.7505 
G01 X-2.7142 Y2.7505 
G01 X-2.7142 Y2.7371 
G00 Z0.1000 
G00 X-2.6327 Y2.8129 
G01 Z-0.0060 F10.00 
G01 X-2.6334 Y2.8182 F10.00 
G01 X-2.6348 Y2.8234 
G01 X-2.6368 Y2.8283 
G01 X-2.6395 Y2.8329 
G01 X-2.6427 Y2.8372 
G01 X-2.6465 Y2.8410 
G01 X-2.6489 Y2.8428 
G01 X-2.6489 Y2.8417 
G01 X-2.6481 Y2.8411 
G01 X-2.6425 Y2.8356 
G01 X-2.6382 Y2.8291 
G01 X-2.6352 Y2.8218 
G01 X-2.6337 Y2.8142 
G01 X-2.6337 Y2.7995 
G01 X-2.6327 Y2.7995 
G01 X-2.6327 Y2.8129 
G00 Z0.1000 
G00 X-2.6395 Y2.7171 
G01 Z-0.0060 F10.00 
G01 X-2.6368 Y2.7217 F10.00 
G01 X-2.6348 Y2.7266 
G01 X-2.6334 Y2.7318 
G01 X-2.6327 Y2.7371 
G01 X-2.6327 Y2.7505 
G01 X-2.6337 Y2.7505 
G01 X-2.6337 Y2.7358 
G01 X-2.6352 Y2.7282 
G01 X-2.6382 Y2.7209 
G01 X-2.6425 Y2.7144 
G01 X-2.6481 Y2.7089 
G01 X-2.6489 Y2.7083 
G01 X-2.6489 Y2.7072 
G01 X-2.6465 Y2.7090 
G01 X-2.6427 Y2.7128 
G01 X-2.6395 Y2.7171 
G00 Z0.1000 
G00 X-2.7121 Y2.8234 
G01 Z-0.0060 F10.00 
G01 X-2.7135 Y2.8182 F10.00 
G01 X-2.7142 Y2.8129 
G01 X-2.7142 Y2.7995 
G01 X-2.7132 Y2.7995 
G01 X-2.7132 Y2.8142 
G01 X-2.7116 Y2.8218 
G01 X-2.7101 Y2.8255 
G01 X-2.7112 Y2.8255 
G01 X-2.7121 Y2.8234 
G00 Z0.1000 
G00 X-2.9879 Y1.1142 
G01 Z-0.0060 F10.00 
G01 X-2.9932 Y1.1135 F10.00 
G01 X-2.9984 Y1.1121 
G01 X-3.0033 Y1.1101 
G01 X-3.0079 Y1.1074 
G01 X-3.0122 Y1.1041 
G01 X-3.0160 Y1.1004 
G01 X-3.0178 Y1.0979 
G01 X-3.0167 Y1.0979 
G01 X-3.0161 Y1.0988 
G01 X-3.0106 Y1.1043 
G01 X-3.0041 Y1.1087 
G01 X-2.9968 Y1.1116 
G01 X-2.9892 Y1.1132 
G01 X-2.9745 Y1.1132 
G01 X-2.9745 Y1.1142 
G01 X-2.9879 Y1.1142 
G00 Z0.1000 
G00 X-2.9255 Y1.0337 
G01 Z-0.0060 F10.00 
G01 X-2.9255 Y1.0327 F10.00 
G01 X-2.9183 Y1.0327 
G01 X-2.9206 Y1.0337 
G01 X-2.9255 Y1.0337 
G00 Z0.1000 
G00 X-3.0079 Y1.0395 
G01 Z-0.0060 F10.00 
G01 X-3.0033 Y1.0368 F10.00 
G01 X-2.9984 Y1.0348 
G01 X-2.9932 Y1.0334 
G01 X-2.9879 Y1.0327 
G01 X-2.9745 Y1.0327 
G01 X-2.9745 Y1.0337 
G01 X-2.9892 Y1.0337 
G01 X-2.9968 Y1.0352 
G01 X-3.0041 Y1.0382 
G01 X-3.0106 Y1.0425 
G01 X-3.0161 Y1.0481 
G01 X-3.0167 Y1.0489 
G01 X-3.0178 Y1.0489 
G01 X-3.0160 Y1.0465 
G01 X-3.0122 Y1.0427 
G01 X-3.0079 Y1.0395 
G00 Z0.1000 
G00 X-3.0460 Y1.3887 
G01 Z-0.0060 F10.00 
G01 X-3.0460 Y1.3645 F10.00 
G01 X-3.0368 Y1.3422 
G01 X-3.0197 Y1.3251 
G01 X-2.9973 Y1.3158 
G01 X-2.9752 Y1.3158 
G01 X-2.9732 Y1.3159 
G01 X-2.9728 Y1.3158 
G01 X-2.9723 Y1.3158 
G01 X-2.9704 Y1.3154 
G01 X-2.9685 Y1.3151 
G01 X-2.9680 Y1.3150 
G01 X-2.9676 Y1.3149 
G01 X-2.9658 Y1.3141 
G01 X-2.9639 Y1.3135 
G01 X-2.9635 Y1.3132 
G01 X-2.9631 Y1.3130 
G01 X-2.9615 Y1.3119 
G01 X-2.9598 Y1.3109 
G01 X-2.9595 Y1.3106 
G01 X-2.9591 Y1.3104 
G01 X-2.9577 Y1.3090 
G01 X-2.9563 Y1.3076 
G01 X-2.9560 Y1.3073 
G01 X-2.9557 Y1.3069 
G01 X-2.9546 Y1.3053 
G01 X-2.8665 Y1.1834 
G01 X-2.8660 Y1.1830 
G01 X-2.8651 Y1.1815 
G01 X-2.8640 Y1.1801 
G01 X-2.8637 Y1.1795 
G01 X-2.8634 Y1.1789 
G01 X-2.8627 Y1.1773 
G01 X-2.8623 Y1.1763 
G01 X-2.8601 Y1.1740 
G01 X-2.8588 Y1.1728 
G01 X-2.8584 Y1.1723 
G01 X-2.8579 Y1.1718 
G01 X-2.8570 Y1.1703 
G01 X-2.8551 Y1.1677 
G01 X-2.8542 Y1.1671 
G01 X-2.8527 Y1.1662 
G01 X-2.8522 Y1.1657 
G01 X-2.8517 Y1.1653 
G01 X-2.8505 Y1.1641 
G01 X-2.8497 Y1.1634 
G01 X-2.8467 Y1.1621 
G01 X-2.8451 Y1.1615 
G01 X-2.8445 Y1.1611 
G01 X-2.8439 Y1.1609 
G01 X-2.8425 Y1.1599 
G01 X-2.8397 Y1.1582 
G01 X-2.8387 Y1.1579 
G01 X-2.8369 Y1.1577 
G01 X-2.8363 Y1.1574 
G01 X-2.8357 Y1.1573 
G01 X-2.8341 Y1.1566 
G01 X-2.8331 Y1.1562 
G01 X-2.8298 Y1.1562 
G01 X-2.8281 Y1.1562 
G01 X-2.8274 Y1.1561 
G01 X-2.8268 Y1.1561 
G01 X-2.8250 Y1.1558 
G01 X-2.8218 Y1.1552 
G01 X-2.8208 Y1.1554 
G01 X-2.8191 Y1.1558 
G01 X-2.8184 Y1.1559 
G01 X-2.8178 Y1.1560 
G01 X-2.8160 Y1.1560 
G01 X-2.8143 Y1.1560 
G01 X-2.8136 Y1.1559 
G01 X-2.8008 Y1.1557 
G01 X-2.7986 Y1.1557 
G01 X-2.7984 Y1.1557 
G01 X-2.7982 Y1.1557 
G01 X-2.7960 Y1.1552 
G01 X-2.7939 Y1.1548 
G01 X-2.7937 Y1.1547 
G01 X-2.7935 Y1.1546 
G01 X-2.7914 Y1.1538 
G01 X-2.7894 Y1.1529 
G01 X-2.7892 Y1.1528 
G01 X-2.7890 Y1.1527 
G01 X-2.7872 Y1.1515 
G01 X-2.7854 Y1.1502 
G01 X-2.7852 Y1.1501 
G01 X-2.7851 Y1.1500 
G01 X-2.7835 Y1.1484 
G01 X-2.7820 Y1.1468 
G01 X-2.7819 Y1.1467 
G01 X-2.7817 Y1.1465 
G01 X-2.7805 Y1.1447 
G01 X-2.7793 Y1.1428 
G01 X-2.7792 Y1.1426 
G01 X-2.7791 Y1.1425 
G01 X-2.7783 Y1.1404 
G01 X-2.7774 Y1.1384 
G01 X-2.7774 Y1.1382 
G01 X-2.7773 Y1.1380 
G01 X-2.7769 Y1.1358 
G01 X-2.7765 Y1.1336 
G01 X-2.7765 Y1.1334 
G01 X-2.7765 Y1.1332 
G01 X-2.7765 Y1.1310 
G01 X-2.7765 Y1.0787 
G01 X-2.7463 Y1.0485 
G01 X-2.7037 Y1.0485 
G01 X-2.6735 Y1.0787 
G01 X-2.6735 Y1.1213 
G01 X-2.6740 Y1.1219 
G01 X-2.6767 Y1.1259 
G01 X-2.6770 Y1.1266 
G01 X-2.6786 Y1.1303 
G01 X-2.6795 Y1.1351 
G01 X-2.6795 Y1.1649 
G01 X-2.6786 Y1.1697 
G01 X-2.6771 Y1.1733 
G01 X-2.6767 Y1.1741 
G01 X-2.6740 Y1.1781 
G01 X-2.6735 Y1.1787 
G01 X-2.6735 Y1.2213 
G01 X-2.6973 Y1.2451 
G01 X-2.7001 Y1.2480 
G01 X-2.7007 Y1.2485 
G01 X-2.7034 Y1.2525 
G01 X-2.7052 Y1.2570 
G01 X-2.7062 Y1.2617 
G01 X-2.7062 Y1.2666 
G01 X-2.7061 Y1.2668 
G01 X-2.7052 Y1.2713 
G01 X-2.7035 Y1.2755 
G01 X-2.7064 Y1.2755 
G01 X-2.7124 Y1.2695 
G01 X-2.7376 Y1.2695 
G01 X-2.7436 Y1.2755 
G01 X-2.7510 Y1.2755 
G01 X-2.7505 Y1.2732 
G01 X-2.7505 Y1.2730 
G01 X-2.7505 Y1.2728 
G01 X-2.7505 Y1.2706 
G01 X-2.7505 Y1.2684 
G01 X-2.7505 Y1.2682 
G01 X-2.7505 Y1.2680 
G01 X-2.7510 Y1.2658 
G01 X-2.7514 Y1.2637 
G01 X-2.7515 Y1.2635 
G01 X-2.7516 Y1.2633 
G01 X-2.7524 Y1.2613 
G01 X-2.7533 Y1.2592 
G01 X-2.7534 Y1.2590 
G01 X-2.7535 Y1.2589 
G01 X-2.7547 Y1.2570 
G01 X-2.7560 Y1.2552 
G01 X-2.7561 Y1.2551 
G01 X-2.7562 Y1.2549 
G01 X-2.7578 Y1.2533 
G01 X-2.7594 Y1.2518 
G01 X-2.7596 Y1.2517 
G01 X-2.7597 Y1.2515 
G01 X-2.7616 Y1.2503 
G01 X-2.7634 Y1.2491 
G01 X-2.7636 Y1.2490 
G01 X-2.7637 Y1.2489 
G01 X-2.7658 Y1.2481 
G01 X-2.7679 Y1.2473 
G01 X-2.7681 Y1.2472 
G01 X-2.7682 Y1.2471 
G01 X-2.7704 Y1.2467 
G01 X-2.7726 Y1.2463 
G01 X-2.7728 Y1.2463 
G01 X-2.7730 Y1.2463 
G01 X-2.7752 Y1.2463 
G01 X-2.7774 Y1.2463 
G01 X-2.7776 Y1.2463 
G01 X-2.7870 Y1.2465 
G01 X-2.7888 Y1.2464 
G01 X-2.7894 Y1.2465 
G01 X-2.7901 Y1.2465 
G01 X-2.7918 Y1.2469 
G01 X-2.7935 Y1.2472 
G01 X-2.7941 Y1.2474 
G01 X-2.7948 Y1.2476 
G01 X-2.7964 Y1.2483 
G01 X-2.7980 Y1.2489 
G01 X-2.7986 Y1.2492 
G01 X-2.7992 Y1.2495 
G01 X-2.8007 Y1.2505 
G01 X-2.8022 Y1.2514 
G01 X-2.8026 Y1.2519 
G01 X-2.8032 Y1.2522 
G01 X-2.8044 Y1.2535 
G01 X-2.8057 Y1.2547 
G01 X-2.8061 Y1.2552 
G01 X-2.8065 Y1.2557 
G01 X-2.8075 Y1.2572 
G01 X-2.8562 Y1.3245 
G01 X-2.8565 Y1.3248 
G01 X-2.8576 Y1.3264 
G01 X-2.8587 Y1.3280 
G01 X-2.8589 Y1.3284 
G01 X-2.8592 Y1.3288 
G01 X-2.8599 Y1.3306 
G01 X-2.8607 Y1.3324 
G01 X-2.8608 Y1.3328 
G01 X-2.8610 Y1.3333 
G01 X-2.8614 Y1.3352 
G01 X-2.8618 Y1.3371 
G01 X-2.8619 Y1.3376 
G01 X-2.8620 Y1.3380 
G01 X-2.8620 Y1.3400 
G01 X-2.8620 Y1.3419 
G01 X-2.8620 Y1.3424 
G01 X-2.8620 Y1.3428 
G01 X-2.8616 Y1.3447 
G01 X-2.8613 Y1.3467 
G01 X-2.8611 Y1.3471 
G01 X-2.8610 Y1.3476 
G01 X-2.8603 Y1.3494 
G01 X-2.8596 Y1.3512 
G01 X-2.8593 Y1.3516 
G01 X-2.8540 Y1.3645 
G01 X-2.8540 Y1.3887 
G01 X-2.8632 Y1.4110 
G01 X-2.8803 Y1.4281 
G01 X-2.9027 Y1.4373 
G01 X-2.9973 Y1.4373 
G01 X-3.0197 Y1.4281 
G01 X-3.0368 Y1.4110 
G01 X-3.0460 Y1.3887 
G00 Z0.1000 
G00 X-2.9892 Y1.4163 
G01 Z-0.0060 F10.00 
G01 X-2.9108 Y1.4163 F10.00 
G01 X-2.9032 Y1.4148 
G01 X-2.8959 Y1.4118 
G01 X-2.8894 Y1.4075 
G01 X-2.8839 Y1.4019 
G01 X-2.8795 Y1.3954 
G01 X-2.8765 Y1.3882 
G01 X-2.8750 Y1.3805 
G01 X-2.8750 Y1.3727 
G01 X-2.8765 Y1.3650 
G01 X-2.8795 Y1.3577 
G01 X-2.8839 Y1.3512 
G01 X-2.8894 Y1.3457 
G01 X-2.8948 Y1.3421 
G01 X-2.8108 Y1.2259 
G01 X-2.7433 Y1.2248 
G01 X-2.7376 Y1.2305 
G01 X-2.7124 Y1.2305 
G01 X-2.6945 Y1.2126 
G01 X-2.6945 Y1.1874 
G01 X-2.7005 Y1.1814 
G01 X-2.7005 Y1.1186 
G01 X-2.6945 Y1.1126 
G01 X-2.6945 Y1.0874 
G01 X-2.7124 Y1.0695 
G01 X-2.7376 Y1.0695 
G01 X-2.7555 Y1.0874 
G01 X-2.7555 Y1.1126 
G01 X-2.7495 Y1.1186 
G01 X-2.7495 Y1.1759 
G01 X-2.8232 Y1.1771 
G01 X-2.8249 Y1.1770 
G01 X-2.8256 Y1.1771 
G01 X-2.8262 Y1.1771 
G01 X-2.8280 Y1.1775 
G01 X-2.8297 Y1.1778 
G01 X-2.8303 Y1.1780 
G01 X-2.8309 Y1.1781 
G01 X-2.8326 Y1.1788 
G01 X-2.8342 Y1.1794 
G01 X-2.8348 Y1.1798 
G01 X-2.8354 Y1.1801 
G01 X-2.8368 Y1.1811 
G01 X-2.8383 Y1.1820 
G01 X-2.8388 Y1.1824 
G01 X-2.8393 Y1.1828 
G01 X-2.8406 Y1.1841 
G01 X-2.8419 Y1.1853 
G01 X-2.8422 Y1.1858 
G01 X-2.8427 Y1.1863 
G01 X-2.8437 Y1.1877 
G01 X-2.9515 Y1.3368 
G01 X-2.9892 Y1.3368 
G01 X-2.9968 Y1.3384 
G01 X-3.0041 Y1.3413 
G01 X-3.0106 Y1.3457 
G01 X-3.0161 Y1.3512 
G01 X-3.0205 Y1.3577 
G01 X-3.0235 Y1.3650 
G01 X-3.0250 Y1.3727 
G01 X-3.0250 Y1.3805 
G01 X-3.0235 Y1.3882 
G01 X-3.0205 Y1.3954 
G01 X-3.0161 Y1.4019 
G01 X-3.0106 Y1.4075 
G01 X-3.0041 Y1.4118 
G01 X-2.9968 Y1.4148 
G01 X-2.9892 Y1.4163 
G00 Z0.1000 
G00 X-2.8840 Y1.1004 
G01 Z-0.0060 F10.00 
G01 X-2.8878 Y1.1041 F10.00 
G01 X-2.8921 Y1.1074 
G01 X-2.8967 Y1.1101 
G01 X-2.9016 Y1.1121 
G01 X-2.9068 Y1.1135 
G01 X-2.9121 Y1.1142 
G01 X-2.9255 Y1.1142 
G01 X-2.9255 Y1.1132 
G01 X-2.9108 Y1.1132 
G01 X-2.9032 Y1.1116 
G01 X-2.8959 Y1.1087 
G01 X-2.8894 Y1.1043 
G01 X-2.8839 Y1.0988 
G01 X-2.8833 Y1.0979 
G01 X-2.8822 Y1.0979 
G01 X-2.8840 Y1.1004 
G00 Z0.1000 
G00 X-2.8986 Y2.6255 
G01 Z-0.0060 F10.00 
G01 X-2.9005 Y2.6236 F10.00 
G01 X-2.9005 Y2.6222 
G01 X-2.8972 Y2.6255 
G01 X-2.8986 Y2.6255 
G00 Z0.1000 
G00 X-2.9528 Y2.6745 
G01 Z-0.0060 F10.00 
G01 X-2.9514 Y2.6745 F10.00 
G01 X-2.9495 Y2.6764 
G01 X-2.9495 Y2.6778 
G01 X-2.9528 Y2.6745 
G00 Z0.1000 
G00 X-2.9495 Y2.6222 
G01 Z-0.0060 F10.00 
G01 X-2.9495 Y2.6236 F10.00 
G01 X-2.9514 Y2.6255 
G01 X-2.9528 Y2.6255 
G01 X-2.9495 Y2.6222 
G00 Z0.1000 
G00 X-0.1790 Y2.9066 
G01 Z-0.0060 F10.00 
G01 X-0.1602 Y2.8988 F10.00 
G01 X-0.1398 Y2.8988 
G01 X-0.1210 Y2.9066 
G01 X-0.1066 Y2.9210 
G01 X-0.0988 Y2.9398 
G01 X-0.0988 Y2.9602 
G01 X-0.1066 Y2.9790 
G01 X-0.1210 Y2.9934 
G01 X-0.1398 Y3.0012 
G01 X-0.1602 Y3.0012 
G01 X-0.1790 Y2.9934 
G01 X-0.1934 Y2.9790 
G01 X-0.2012 Y2.9602 
G01 X-0.2012 Y2.9398 
G01 X-0.1934 Y2.9210 
G01 X-0.1790 Y2.9066 
G00 Z0.1000 
G00 X-2.9879 Y2.1142 
G01 Z-0.0060 F10.00 
G01 X-2.9932 Y2.1135 F10.00 
G01 X-2.9984 Y2.1121 
G01 X-3.0033 Y2.1101 
G01 X-3.0079 Y2.1074 
G01 X-3.0122 Y2.1041 
G01 X-3.0160 Y2.1004 
G01 X-3.0178 Y2.0979 
G01 X-3.0167 Y2.0979 
G01 X-3.0161 Y2.0988 
G01 X-3.0106 Y2.1043 
G01 X-3.0041 Y2.1087 
G01 X-2.9968 Y2.1116 
G01 X-2.9892 Y2.1132 
G01 X-2.9745 Y2.1132 
G01 X-2.9745 Y2.1142 
G01 X-2.9879 Y2.1142 
G00 Z0.1000 
G00 X-2.9121 Y2.0327 
G01 Z-0.0060 F10.00 
G01 X-2.9068 Y2.0334 F10.00 
G01 X-2.9016 Y2.0348 
G01 X-2.8967 Y2.0368 
G01 X-2.8921 Y2.0395 
G01 X-2.8878 Y2.0427 
G01 X-2.8840 Y2.0465 
G01 X-2.8822 Y2.0489 
G01 X-2.8833 Y2.0489 
G01 X-2.8839 Y2.0481 
G01 X-2.8894 Y2.0425 
G01 X-2.8959 Y2.0382 
G01 X-2.9032 Y2.0352 
G01 X-2.9108 Y2.0337 
G01 X-2.9255 Y2.0337 
G01 X-2.9255 Y2.0327 
G01 X-2.9121 Y2.0327 
G00 Z0.1000 
G00 X-3.0079 Y2.0395 
G01 Z-0.0060 F10.00 
G01 X-3.0033 Y2.0368 F10.00 
G01 X-2.9984 Y2.0348 
G01 X-2.9932 Y2.0334 
G01 X-2.9879 Y2.0327 
G01 X-2.9745 Y2.0327 
G01 X-2.9745 Y2.0337 
G01 X-2.9892 Y2.0337 
G01 X-2.9968 Y2.0352 
G01 X-3.0041 Y2.0382 
G01 X-3.0106 Y2.0425 
G01 X-3.0161 Y2.0481 
G01 X-3.0167 Y2.0489 
G01 X-3.0178 Y2.0489 
G01 X-3.0160 Y2.0465 
G01 X-3.0122 Y2.0427 
G01 X-3.0079 Y2.0395 
G00 Z0.1000 
G00 X-2.8840 Y2.1004 
G01 Z-0.0060 F10.00 
G01 X-2.8878 Y2.1041 F10.00 
G01 X-2.8921 Y2.1074 
G01 X-2.8967 Y2.1101 
G01 X-2.9016 Y2.1121 
G01 X-2.9068 Y2.1135 
G01 X-2.9121 Y2.1142 
G01 X-2.9255 Y2.1142 
G01 X-2.9255 Y2.1132 
G01 X-2.9108 Y2.1132 
G01 X-2.9032 Y2.1116 
G01 X-2.8959 Y2.1087 
G01 X-2.8894 Y2.1043 
G01 X-2.8839 Y2.0988 
G01 X-2.8838 Y2.0986 
G01 X-2.8827 Y2.0986 
G01 X-2.8840 Y2.1004 
G00 Z0.1000 
G00 X-3.1602 Y2.8988 
G01 Z-0.0060 F10.00 
G01 X-3.1398 Y2.8988 F10.00 
G01 X-3.1210 Y2.9066 
G01 X-3.1066 Y2.9210 
G01 X-3.0988 Y2.9398 
G01 X-3.0988 Y2.9602 
G01 X-3.1066 Y2.9790 
G01 X-3.1210 Y2.9934 
G01 X-3.1398 Y3.0012 
G01 X-3.1602 Y3.0012 
G01 X-3.1790 Y2.9934 
G01 X-3.1934 Y2.9790 
G01 X-3.2012 Y2.9602 
G01 X-3.2012 Y2.9398 
G01 X-3.1934 Y2.9210 
G01 X-3.1790 Y2.9066 
G01 X-3.1602 Y2.8988 
G00 Z0.1000 
G00 X-3.0988 Y0.2102 
G01 Z-0.0060 F10.00 
G01 X-3.1066 Y0.2290 F10.00 
G01 X-3.1210 Y0.2434 
G01 X-3.1398 Y0.2512 
G01 X-3.1602 Y0.2512 
G01 X-3.1790 Y0.2434 
G01 X-3.1934 Y0.2290 
G01 X-3.2012 Y0.2102 
G01 X-3.2012 Y0.1898 
G01 X-3.1934 Y0.1710 
G01 X-3.1790 Y0.1566 
G01 X-3.1602 Y0.1488 
G01 X-3.1398 Y0.1488 
G01 X-3.1210 Y0.1566 
G01 X-3.1066 Y0.1710 
G01 X-3.0988 Y0.1898 
G01 X-3.0988 Y0.2102 
G00 Z0.1000 
G00 X-2.5065 Y0.9465 
G01 Z-0.0060 F10.00 
G01 X-2.5057 Y0.9416 F10.00 
G01 X-2.5042 Y0.9369 
G01 X-2.5019 Y0.9325 
G01 X-2.4995 Y0.9291 
G01 X-2.4995 Y0.9308 
G01 X-2.5020 Y0.9346 
G01 X-2.5043 Y0.9401 
G01 X-2.5055 Y0.9460 
G01 X-2.5055 Y0.9505 
G01 X-2.5065 Y0.9505 
G01 X-2.5065 Y0.9465 
G00 Z0.1000 
G00 X-2.5019 Y1.0175 
G01 Z-0.0060 F10.00 
G01 X-2.5042 Y1.0131 F10.00 
G01 X-2.5057 Y1.0084 
G01 X-2.5065 Y1.0035 
G01 X-2.5065 Y0.9995 
G01 X-2.5055 Y0.9995 
G01 X-2.5055 Y1.0040 
G01 X-2.5043 Y1.0099 
G01 X-2.5020 Y1.0154 
G01 X-2.4995 Y1.0192 
G01 X-2.4995 Y1.0209 
G01 X-2.5019 Y1.0175 
G00 Z0.1000 
G00 X-0.1833 Y2.0769 
G01 Z-0.0060 F10.00 
G01 X-0.1870 Y2.0807 F10.00 
G01 X-0.1913 Y2.0840 
G01 X-0.1959 Y2.0866 
G01 X-0.2008 Y2.0887 
G01 X-0.2060 Y2.0901 
G01 X-0.2113 Y2.0907 
G01 X-0.2247 Y2.0907 
G01 X-0.2247 Y2.0897 
G01 X-0.2100 Y2.0897 
G01 X-0.2024 Y2.0882 
G01 X-0.1951 Y2.0852 
G01 X-0.1886 Y2.0809 
G01 X-0.1831 Y2.0753 
G01 X-0.1825 Y2.0745 
G01 X-0.1814 Y2.0745 
G01 X-0.1833 Y2.0769 
G00 Z0.1000 
G00 X-0.3328 Y1.5855 
G01 Z-0.0060 F10.00 
G01 X-0.3383 Y1.5846 F10.00 
G01 X-0.3436 Y1.5829 
G01 X-0.3486 Y1.5804 
G01 X-0.3531 Y1.5771 
G01 X-0.3557 Y1.5745 
G01 X-0.3543 Y1.5745 
G01 X-0.3520 Y1.5768 
G01 X-0.3463 Y1.5806 
G01 X-0.3401 Y1.5832 
G01 X-0.3334 Y1.5845 
G01 X-0.3245 Y1.5845 
G01 X-0.3245 Y1.5855 
G01 X-0.3328 Y1.5855 
G00 Z0.1000 
G00 X-0.2469 Y1.5771 
G01 Z-0.0060 F10.00 
G01 X-0.2514 Y1.5804 F10.00 
G01 X-0.2564 Y1.5829 
G01 X-0.2617 Y1.5846 
G01 X-0.2672 Y1.5855 
G01 X-0.2755 Y1.5855 
G01 X-0.2755 Y1.5845 
G01 X-0.2666 Y1.5845 
G01 X-0.2599 Y1.5832 
G01 X-0.2537 Y1.5806 
G01 X-0.2480 Y1.5768 
G01 X-0.2457 Y1.5745 
G01 X-0.2443 Y1.5745 
G01 X-0.2469 Y1.5771 
G00 Z0.1000 
G00 X-0.2113 Y2.0092 
G01 Z-0.0060 F10.00 
G01 X-0.2060 Y2.0099 F10.00 
G01 X-0.2008 Y2.0113 
G01 X-0.1959 Y2.0134 
G01 X-0.1913 Y2.0160 
G01 X-0.1870 Y2.0193 
G01 X-0.1833 Y2.0231 
G01 X-0.1814 Y2.0255 
G01 X-0.1825 Y2.0255 
G01 X-0.1831 Y2.0247 
G01 X-0.1886 Y2.0191 
G01 X-0.1951 Y2.0148 
G01 X-0.2024 Y2.0118 
G01 X-0.2100 Y2.0103 
G01 X-0.2247 Y2.0103 
G01 X-0.2247 Y2.0092 
G01 X-0.2113 Y2.0092 
G00 Z0.1000 
G00 X-2.5055 Y1.3960 
G01 Z-0.0060 F10.00 
G01 X-2.5055 Y1.4005 F10.00 
G01 X-2.5065 Y1.4005 
G01 X-2.5065 Y1.3965 
G01 X-2.5057 Y1.3916 
G01 X-2.5042 Y1.3869 
G01 X-2.5019 Y1.3825 
G01 X-2.4995 Y1.3791 
G01 X-2.4995 Y1.3808 
G01 X-2.5020 Y1.3846 
G01 X-2.5043 Y1.3901 
G01 X-2.5055 Y1.3960 
G00 Z0.1000 
G00 X-2.5055 Y1.4540 
G01 Z-0.0060 F10.00 
G01 X-2.5043 Y1.4599 F10.00 
G01 X-2.5020 Y1.4654 
G01 X-2.4995 Y1.4692 
G01 X-2.4995 Y1.4709 
G01 X-2.5019 Y1.4675 
G01 X-2.5042 Y1.4631 
G01 X-2.5057 Y1.4584 
G01 X-2.5065 Y1.4535 
G01 X-2.5065 Y1.4495 
G01 X-2.5055 Y1.4495 
G01 X-2.5055 Y1.4540 
G00 Z0.1000 
G00 X-2.6005 Y2.3810 
G01 Z-0.0060 F10.00 
G01 X-2.6023 Y2.3802 F10.00 
G01 X-2.6028 Y2.3801 
G01 X-2.6032 Y2.3799 
G01 X-2.6051 Y2.3795 
G01 X-2.6070 Y2.3791 
G01 X-2.6075 Y2.3791 
G01 X-2.6079 Y2.3790 
G01 X-2.6099 Y2.3790 
G01 X-2.6118 Y2.3789 
G01 X-2.6123 Y2.3790 
G01 X-2.6128 Y2.3790 
G01 X-2.6147 Y2.3794 
G01 X-2.6166 Y2.3797 
G01 X-2.6170 Y2.3798 
G01 X-2.6175 Y2.3799 
G01 X-2.6193 Y2.3807 
G01 X-2.6211 Y2.3813 
G01 X-2.6215 Y2.3816 
G01 X-2.6220 Y2.3818 
G01 X-2.6236 Y2.3828 
G01 X-2.6252 Y2.3839 
G01 X-2.6256 Y2.3842 
G01 X-2.6260 Y2.3845 
G01 X-2.6273 Y2.3858 
G01 X-2.6287 Y2.3871 
G01 X-2.6290 Y2.3875 
G01 X-2.6436 Y2.4021 
G01 X-2.6640 Y2.4105 
G01 X-2.6860 Y2.4105 
G01 X-2.7061 Y2.4022 
G01 X-2.7069 Y2.4017 
G01 X-2.7084 Y2.4013 
G01 X-2.7098 Y2.4007 
G01 X-2.7106 Y2.4005 
G01 X-2.7115 Y2.4002 
G01 X-2.7130 Y2.4000 
G01 X-2.7145 Y2.3997 
G01 X-2.7154 Y2.3997 
G01 X-2.7163 Y2.3996 
G01 X-2.7178 Y2.3997 
G01 X-2.7193 Y2.3997 
G01 X-2.7202 Y2.3999 
G01 X-2.7211 Y2.4000 
G01 X-2.7226 Y2.4004 
G01 X-2.7241 Y2.4007 
G01 X-2.7249 Y2.4010 
G01 X-2.7257 Y2.4012 
G01 X-2.7271 Y2.4019 
G01 X-2.7285 Y2.4025 
G01 X-2.7293 Y2.4030 
G01 X-2.8612 Y2.4690 
G01 X-2.8626 Y2.4696 
G01 X-2.8633 Y2.4700 
G01 X-2.8641 Y2.4704 
G01 X-2.8653 Y2.4714 
G01 X-2.8666 Y2.4722 
G01 X-2.8672 Y2.4729 
G01 X-2.8679 Y2.4734 
G01 X-2.8689 Y2.4746 
G01 X-2.9014 Y2.5070 
G01 X-2.9486 Y2.5070 
G01 X-2.9820 Y2.4736 
G01 X-2.9820 Y2.4264 
G01 X-2.9486 Y2.3930 
G01 X-2.9201 Y2.3930 
G01 X-2.9192 Y2.3931 
G01 X-2.9177 Y2.3930 
G01 X-2.9161 Y2.3930 
G01 X-2.9153 Y2.3928 
G01 X-2.9144 Y2.3928 
G01 X-2.9129 Y2.3924 
G01 X-2.9114 Y2.3921 
G01 X-2.9106 Y2.3917 
G01 X-2.9097 Y2.3915 
G01 X-2.9083 Y2.3908 
G01 X-2.9069 Y2.3902 
G01 X-2.9062 Y2.3897 
G01 X-2.7448 Y2.3090 
G01 X-2.7434 Y2.3084 
G01 X-2.7427 Y2.3080 
G01 X-2.7419 Y2.3076 
G01 X-2.7407 Y2.3066 
G01 X-2.7394 Y2.3058 
G01 X-2.7388 Y2.3051 
G01 X-2.7381 Y2.3046 
G01 X-2.7371 Y2.3034 
G01 X-2.7360 Y2.3024 
G01 X-2.7355 Y2.3016 
G01 X-2.7349 Y2.3010 
G01 X-2.7341 Y2.2996 
G01 X-2.7333 Y2.2983 
G01 X-2.7330 Y2.2975 
G01 X-2.7325 Y2.2968 
G01 X-2.7320 Y2.2953 
G01 X-2.7314 Y2.2939 
G01 X-2.7313 Y2.2930 
G01 X-2.7310 Y2.2922 
G01 X-2.7308 Y2.2907 
G01 X-2.7305 Y2.2892 
G01 X-2.7305 Y2.2883 
G01 X-2.7304 Y2.2874 
G01 X-2.7305 Y2.2859 
G01 X-2.7305 Y2.2840 
G01 X-2.7221 Y2.2636 
G01 X-2.7064 Y2.2479 
G01 X-2.6860 Y2.2395 
G01 X-2.6640 Y2.2395 
G01 X-2.6436 Y2.2479 
G01 X-2.6290 Y2.2625 
G01 X-2.6287 Y2.2629 
G01 X-2.6273 Y2.2642 
G01 X-2.6260 Y2.2655 
G01 X-2.6256 Y2.2658 
G01 X-2.6252 Y2.2661 
G01 X-2.6236 Y2.2672 
G01 X-2.6220 Y2.2682 
G01 X-2.6215 Y2.2684 
G01 X-2.6211 Y2.2687 
G01 X-2.6193 Y2.2693 
G01 X-2.6175 Y2.2701 
G01 X-2.6170 Y2.2702 
G01 X-2.6166 Y2.2703 
G01 X-2.6147 Y2.2706 
G01 X-2.6128 Y2.2710 
G01 X-2.6123 Y2.2710 
G01 X-2.6118 Y2.2711 
G01 X-2.6099 Y2.2710 
G01 X-2.6079 Y2.2710 
G01 X-2.6075 Y2.2709 
G01 X-2.6070 Y2.2709 
G01 X-2.6051 Y2.2705 
G01 X-2.6032 Y2.2701 
G01 X-2.6028 Y2.2699 
G01 X-2.6023 Y2.2698 
G01 X-2.6005 Y2.2690 
G01 X-2.5995 Y2.2685 
G01 X-2.5995 Y2.2707 
G01 X-2.6018 Y2.2730 
G01 X-2.6056 Y2.2787 
G01 X-2.6082 Y2.2849 
G01 X-2.6095 Y2.2916 
G01 X-2.6095 Y2.3584 
G01 X-2.6082 Y2.3651 
G01 X-2.6056 Y2.3713 
G01 X-2.6018 Y2.3770 
G01 X-2.5995 Y2.3793 
G01 X-2.5995 Y2.3815 
G01 X-2.6005 Y2.3810 
G00 Z0.1000 
G00 X-2.9610 Y2.4351 
G01 Z-0.0060 F10.00 
G01 X-2.9610 Y2.4649 F10.00 
G01 X-2.9399 Y2.4860 
G01 X-2.9101 Y2.4860 
G01 X-2.8890 Y2.4649 
G01 X-2.8890 Y2.4594 
G01 X-2.7068 Y2.3683 
G01 X-2.7056 Y2.3713 
G01 X-2.7018 Y2.3770 
G01 X-2.6970 Y2.3818 
G01 X-2.6913 Y2.3856 
G01 X-2.6851 Y2.3882 
G01 X-2.6784 Y2.3895 
G01 X-2.6716 Y2.3895 
G01 X-2.6649 Y2.3882 
G01 X-2.6587 Y2.3856 
G01 X-2.6530 Y2.3818 
G01 X-2.6482 Y2.3770 
G01 X-2.6444 Y2.3713 
G01 X-2.6418 Y2.3651 
G01 X-2.6405 Y2.3584 
G01 X-2.6405 Y2.2916 
G01 X-2.6418 Y2.2849 
G01 X-2.6444 Y2.2787 
G01 X-2.6482 Y2.2730 
G01 X-2.6530 Y2.2682 
G01 X-2.6587 Y2.2644 
G01 X-2.6649 Y2.2618 
G01 X-2.6716 Y2.2605 
G01 X-2.6784 Y2.2605 
G01 X-2.6851 Y2.2618 
G01 X-2.6913 Y2.2644 
G01 X-2.6970 Y2.2682 
G01 X-2.7018 Y2.2730 
G01 X-2.7056 Y2.2787 
G01 X-2.7082 Y2.2849 
G01 X-2.7095 Y2.2916 
G01 X-2.7095 Y2.3149 
G01 X-2.9093 Y2.4148 
G01 X-2.9101 Y2.4140 
G01 X-2.9399 Y2.4140 
G01 X-2.9610 Y2.4351 
G00 Z0.1000 
G00 X-2.7501 Y2.1294 
G01 Z-0.0060 F10.00 
G01 X-2.7544 Y2.1251 F10.00 
G01 X-2.7548 Y2.1245 
G01 X-2.7535 Y2.1245 
G01 X-2.7495 Y2.1285 
G01 X-2.7495 Y2.1298 
G01 X-2.7501 Y2.1294 
G00 Z0.1000 
G00 X-2.2715 Y1.6185 
G01 Z-0.0060 F10.00 
G01 X-2.2666 Y1.6193 F10.00 
G01 X-2.2619 Y1.6208 
G01 X-2.2575 Y1.6231 
G01 X-2.2541 Y1.6255 
G01 X-2.2558 Y1.6255 
G01 X-2.2596 Y1.6230 
G01 X-2.2651 Y1.6207 
G01 X-2.2710 Y1.6195 
G01 X-2.2755 Y1.6195 
G01 X-2.2755 Y1.6185 
G01 X-2.2715 Y1.6185 
G00 Z0.1000 
G00 X-0.7215 Y0.4685 
G01 Z-0.0060 F10.00 
G01 X-0.7166 Y0.4693 F10.00 
G01 X-0.7119 Y0.4708 
G01 X-0.7075 Y0.4731 
G01 X-0.7041 Y0.4755 
G01 X-0.7058 Y0.4755 
G01 X-0.7096 Y0.4730 
G01 X-0.7151 Y0.4707 
G01 X-0.7210 Y0.4695 
G01 X-0.7255 Y0.4695 
G01 X-0.7255 Y0.4685 
G01 X-0.7215 Y0.4685 
G00 Z0.1000 
G00 X-0.7925 Y0.4731 
G01 Z-0.0060 F10.00 
G01 X-0.7881 Y0.4708 F10.00 
G01 X-0.7834 Y0.4693 
G01 X-0.7785 Y0.4685 
G01 X-0.7745 Y0.4685 
G01 X-0.7745 Y0.4695 
G01 X-0.7790 Y0.4695 
G01 X-0.7849 Y0.4707 
G01 X-0.7904 Y0.4730 
G01 X-0.7942 Y0.4755 
G01 X-0.7959 Y0.4755 
G01 X-0.7925 Y0.4731 
G00 Z0.1000 
G00 X-0.7210 Y1.6695 
G01 Z-0.0060 F10.00 
G01 X-0.7790 Y1.6695 F10.00 
G01 X-0.7849 Y1.6707 
G01 X-0.7904 Y1.6730 
G01 X-0.7954 Y1.6763 
G01 X-0.7997 Y1.6806 
G01 X-0.8030 Y1.6856 
G01 X-0.8053 Y1.6911 
G01 X-0.8065 Y1.6970 
G01 X-0.8065 Y1.7030 
G01 X-0.8053 Y1.7089 
G01 X-0.8030 Y1.7144 
G01 X-0.7997 Y1.7194 
G01 X-0.7954 Y1.7237 
G01 X-0.7904 Y1.7270 
G01 X-0.7849 Y1.7293 
G01 X-0.7790 Y1.7305 
G01 X-0.7745 Y1.7305 
G01 X-0.7745 Y1.7315 
G01 X-0.7824 Y1.7315 
G01 X-0.7871 Y1.7324 
G01 X-0.7916 Y1.7343 
G01 X-0.7956 Y1.7370 
G01 X-0.7990 Y1.7404 
G01 X-0.8017 Y1.7444 
G01 X-0.8036 Y1.7489 
G01 X-0.8043 Y1.7527 
G01 X-0.8045 Y1.7536 
G01 X-0.8045 Y1.8734 
G01 X-0.8036 Y1.8782 
G01 X-0.8017 Y1.8826 
G01 X-0.7990 Y1.8866 
G01 X-0.7956 Y1.8900 
G01 X-0.5260 Y2.1597 
G01 X-0.5114 Y2.1742 
G01 X-0.5045 Y2.1909 
G01 X-0.5045 Y2.2149 
G01 X-0.5036 Y2.2197 
G01 X-0.5017 Y2.2241 
G01 X-0.4995 Y2.2274 
G01 X-0.4995 Y2.2524 
G01 X-0.4986 Y2.2571 
G01 X-0.4985 Y2.2573 
G01 X-0.4985 Y2.2713 
G01 X-0.5277 Y2.3005 
G01 X-0.5723 Y2.3005 
G01 X-0.5844 Y2.2884 
G01 X-0.5884 Y2.2858 
G01 X-0.5929 Y2.2839 
G01 X-0.5976 Y2.2830 
G01 X-0.6024 Y2.2830 
G01 X-0.6033 Y2.2832 
G01 X-0.6071 Y2.2839 
G01 X-0.6098 Y2.2850 
G01 X-0.6116 Y2.2858 
G01 X-0.6132 Y2.2868 
G01 X-0.6156 Y2.2884 
G01 X-0.6190 Y2.2919 
G01 X-0.6277 Y2.3005 
G01 X-0.6723 Y2.3005 
G01 X-0.7015 Y2.2713 
G01 X-0.7015 Y2.2287 
G01 X-0.6710 Y2.1982 
G01 X-0.6678 Y2.1976 
G01 X-0.6634 Y2.1957 
G01 X-0.6594 Y2.1930 
G01 X-0.6560 Y2.1896 
G01 X-0.6533 Y2.1856 
G01 X-0.6514 Y2.1811 
G01 X-0.6505 Y2.1764 
G01 X-0.6505 Y2.1716 
G01 X-0.6514 Y2.1669 
G01 X-0.6533 Y2.1624 
G01 X-0.6560 Y2.1584 
G01 X-0.6594 Y2.1550 
G01 X-0.8886 Y1.9258 
G01 X-0.8955 Y1.9091 
G01 X-0.8955 Y1.4159 
G01 X-0.8886 Y1.3992 
G01 X-0.8508 Y1.3614 
G01 X-0.8341 Y1.3545 
G01 X-0.8032 Y1.3545 
G01 X-0.7985 Y1.3536 
G01 X-0.7940 Y1.3517 
G01 X-0.7862 Y1.3485 
G01 X-0.7138 Y1.3485 
G01 X-0.7060 Y1.3517 
G01 X-0.7020 Y1.3534 
G01 X-0.7015 Y1.3536 
G01 X-0.6968 Y1.3545 
G01 X-0.4766 Y1.3545 
G01 X-0.4718 Y1.3536 
G01 X-0.4674 Y1.3517 
G01 X-0.4634 Y1.3490 
G01 X-0.4600 Y1.3456 
G01 X-0.4258 Y1.3114 
G01 X-0.4091 Y1.3045 
G01 X-0.3676 Y1.3045 
G01 X-0.3629 Y1.3036 
G01 X-0.3584 Y1.3017 
G01 X-0.3410 Y1.2945 
G01 X-0.2590 Y1.2945 
G01 X-0.2386 Y1.3029 
G01 X-0.2229 Y1.3186 
G01 X-0.2145 Y1.3390 
G01 X-0.2145 Y1.3610 
G01 X-0.2229 Y1.3814 
G01 X-0.2258 Y1.3843 
G01 X-0.2269 Y1.3859 
G01 X-0.2286 Y1.3884 
G01 X-0.2304 Y1.3929 
G01 X-0.2308 Y1.3947 
G01 X-0.2314 Y1.3976 
G01 X-0.2314 Y1.4024 
G01 X-0.2304 Y1.4071 
G01 X-0.2289 Y1.4108 
G01 X-0.2286 Y1.4116 
G01 X-0.2259 Y1.4156 
G01 X-0.2229 Y1.4186 
G01 X-0.2145 Y1.4390 
G01 X-0.2145 Y1.4610 
G01 X-0.2229 Y1.4814 
G01 X-0.2375 Y1.4960 
G01 X-0.2379 Y1.4963 
G01 X-0.2392 Y1.4977 
G01 X-0.2405 Y1.4990 
G01 X-0.2408 Y1.4994 
G01 X-0.2411 Y1.4998 
G01 X-0.2422 Y1.5014 
G01 X-0.2432 Y1.5030 
G01 X-0.2434 Y1.5035 
G01 X-0.2437 Y1.5039 
G01 X-0.2443 Y1.5057 
G01 X-0.2451 Y1.5075 
G01 X-0.2452 Y1.5080 
G01 X-0.2453 Y1.5084 
G01 X-0.2456 Y1.5103 
G01 X-0.2460 Y1.5122 
G01 X-0.2460 Y1.5127 
G01 X-0.2461 Y1.5132 
G01 X-0.2460 Y1.5151 
G01 X-0.2460 Y1.5171 
G01 X-0.2459 Y1.5175 
G01 X-0.2459 Y1.5180 
G01 X-0.2455 Y1.5199 
G01 X-0.2451 Y1.5218 
G01 X-0.2449 Y1.5222 
G01 X-0.2448 Y1.5227 
G01 X-0.2440 Y1.5245 
G01 X-0.2435 Y1.5255 
G01 X-0.2457 Y1.5255 
G01 X-0.2480 Y1.5232 
G01 X-0.2537 Y1.5194 
G01 X-0.2599 Y1.5168 
G01 X-0.2666 Y1.5155 
G01 X-0.3334 Y1.5155 
G01 X-0.3401 Y1.5168 
G01 X-0.3463 Y1.5194 
G01 X-0.3520 Y1.5232 
G01 X-0.3543 Y1.5255 
G01 X-0.3565 Y1.5255 
G01 X-0.3560 Y1.5245 
G01 X-0.3552 Y1.5227 
G01 X-0.3551 Y1.5222 
G01 X-0.3549 Y1.5218 
G01 X-0.3545 Y1.5199 
G01 X-0.3541 Y1.5180 
G01 X-0.3541 Y1.5175 
G01 X-0.3540 Y1.5171 
G01 X-0.3540 Y1.5151 
G01 X-0.3539 Y1.5132 
G01 X-0.3540 Y1.5127 
G01 X-0.3540 Y1.5122 
G01 X-0.3544 Y1.5103 
G01 X-0.3547 Y1.5084 
G01 X-0.3548 Y1.5080 
G01 X-0.3549 Y1.5075 
G01 X-0.3557 Y1.5057 
G01 X-0.3563 Y1.5039 
G01 X-0.3566 Y1.5035 
G01 X-0.3568 Y1.5030 
G01 X-0.3578 Y1.5014 
G01 X-0.3589 Y1.4998 
G01 X-0.3592 Y1.4994 
G01 X-0.3595 Y1.4990 
G01 X-0.3608 Y1.4977 
G01 X-0.3621 Y1.4963 
G01 X-0.3625 Y1.4960 
G01 X-0.3771 Y1.4814 
G01 X-0.3855 Y1.4610 
G01 X-0.3855 Y1.4590 
G01 X-0.3855 Y1.4566 
G01 X-0.3860 Y1.4540 
G01 X-0.3864 Y1.4518 
G01 X-0.3873 Y1.4498 
G01 X-0.3883 Y1.4474 
G01 X-0.3896 Y1.4455 
G01 X-0.3910 Y1.4434 
G01 X-0.3929 Y1.4415 
G01 X-0.3944 Y1.4400 
G01 X-0.3967 Y1.4384 
G01 X-0.3984 Y1.4373 
G01 X-0.4010 Y1.4362 
G01 X-0.4029 Y1.4354 
G01 X-0.4053 Y1.4350 
G01 X-0.4076 Y1.4345 
G01 X-0.4100 Y1.4345 
G01 X-0.4124 Y1.4345 
G01 X-0.4149 Y1.4350 
G01 X-0.4171 Y1.4354 
G01 X-0.4192 Y1.4363 
G01 X-0.4216 Y1.4373 
G01 X-0.4224 Y1.4378 
G01 X-0.4409 Y1.4455 
G01 X-0.5514 Y1.4455 
G01 X-0.5561 Y1.4464 
G01 X-0.5606 Y1.4483 
G01 X-0.5646 Y1.4510 
G01 X-0.5680 Y1.4544 
G01 X-0.5707 Y1.4584 
G01 X-0.5726 Y1.4629 
G01 X-0.5735 Y1.4676 
G01 X-0.5735 Y1.4764 
G01 X-0.5726 Y1.4811 
G01 X-0.5707 Y1.4856 
G01 X-0.5680 Y1.4896 
G01 X-0.5646 Y1.4930 
G01 X-0.5606 Y1.4957 
G01 X-0.5561 Y1.4976 
G01 X-0.5514 Y1.4985 
G01 X-0.5037 Y1.4985 
G01 X-0.4735 Y1.5287 
G01 X-0.4735 Y1.5713 
G01 X-0.4740 Y1.5719 
G01 X-0.4767 Y1.5759 
G01 X-0.4770 Y1.5766 
G01 X-0.4786 Y1.5803 
G01 X-0.4795 Y1.5851 
G01 X-0.4795 Y1.5984 
G01 X-0.4786 Y1.6032 
G01 X-0.4767 Y1.6076 
G01 X-0.4740 Y1.6116 
G01 X-0.4713 Y1.6144 
G01 X-0.3021 Y1.7835 
G01 X-0.3015 Y1.7842 
G01 X-0.2987 Y1.7869 
G01 X-0.2947 Y1.7896 
G01 X-0.2903 Y1.7915 
G01 X-0.2855 Y1.7924 
G01 X-0.2019 Y1.7924 
G01 X-0.1796 Y1.8016 
G01 X-0.1625 Y1.8187 
G01 X-0.1532 Y1.8411 
G01 X-0.1532 Y1.8652 
G01 X-0.1625 Y1.8876 
G01 X-0.1796 Y1.9047 
G01 X-0.2019 Y1.9139 
G01 X-0.2965 Y1.9139 
G01 X-0.3189 Y1.9047 
G01 X-0.3360 Y1.8876 
G01 X-0.3415 Y1.8742 
G01 X-0.3442 Y1.8702 
G01 X-0.3476 Y1.8667 
G01 X-0.5394 Y1.6750 
G01 X-0.5434 Y1.6723 
G01 X-0.5479 Y1.6704 
G01 X-0.5526 Y1.6695 
G01 X-0.5574 Y1.6695 
G01 X-0.5621 Y1.6704 
G01 X-0.5666 Y1.6723 
G01 X-0.5706 Y1.6750 
G01 X-0.5740 Y1.6784 
G01 X-0.5767 Y1.6824 
G01 X-0.5786 Y1.6868 
G01 X-0.5795 Y1.6916 
G01 X-0.5795 Y1.7764 
G01 X-0.5786 Y1.7811 
G01 X-0.5767 Y1.7856 
G01 X-0.5740 Y1.7896 
G01 X-0.5706 Y1.7930 
G01 X-0.5666 Y1.7957 
G01 X-0.5621 Y1.7976 
G01 X-0.5574 Y1.7985 
G01 X-0.5287 Y1.7985 
G01 X-0.4985 Y1.8287 
G01 X-0.4985 Y1.8794 
G01 X-0.4976 Y1.8842 
G01 X-0.4957 Y1.8886 
G01 X-0.4930 Y1.8926 
G01 X-0.4896 Y1.8960 
G01 X-0.3614 Y2.0242 
G01 X-0.3608 Y2.0257 
G01 X-0.3604 Y2.0264 
G01 X-0.3600 Y2.0271 
G01 X-0.3590 Y2.0284 
G01 X-0.3581 Y2.0297 
G01 X-0.3576 Y2.0303 
G01 X-0.3571 Y2.0310 
G01 X-0.3558 Y2.0320 
G01 X-0.3547 Y2.0332 
G01 X-0.3540 Y2.0336 
G01 X-0.3534 Y2.0341 
G01 X-0.3520 Y2.0349 
G01 X-0.3507 Y2.0358 
G01 X-0.3500 Y2.0361 
G01 X-0.3493 Y2.0365 
G01 X-0.3477 Y2.0371 
G01 X-0.3462 Y2.0377 
G01 X-0.3454 Y2.0378 
G01 X-0.3447 Y2.0381 
G01 X-0.3431 Y2.0383 
G01 X-0.3415 Y2.0386 
G01 X-0.3407 Y2.0386 
G01 X-0.3399 Y2.0387 
G01 X-0.3383 Y2.0386 
G01 X-0.3367 Y2.0386 
G01 X-0.3359 Y2.0385 
G01 X-0.3351 Y2.0384 
G01 X-0.3335 Y2.0380 
G01 X-0.3319 Y2.0377 
G01 X-0.3312 Y2.0374 
G01 X-0.3304 Y2.0372 
G01 X-0.3290 Y2.0365 
G01 X-0.3275 Y2.0358 
G01 X-0.3268 Y2.0354 
G01 X-0.3261 Y2.0350 
G01 X-0.3248 Y2.0340 
G01 X-0.3235 Y2.0332 
G01 X-0.3229 Y2.0326 
G01 X-0.3223 Y2.0321 
G01 X-0.3212 Y2.0309 
G01 X-0.3201 Y2.0297 
G01 X-0.3196 Y2.0291 
G01 X-0.3191 Y2.0285 
G01 X-0.3184 Y2.0273 
G01 X-0.3152 Y2.0231 
G01 X-0.3114 Y2.0193 
G01 X-0.3072 Y2.0160 
G01 X-0.3025 Y2.0134 
G01 X-0.2976 Y2.0113 
G01 X-0.2924 Y2.0099 
G01 X-0.2871 Y2.0092 
G01 X-0.2737 Y2.0092 
G01 X-0.2737 Y2.0103 
G01 X-0.2884 Y2.0103 
G01 X-0.2961 Y2.0118 
G01 X-0.3033 Y2.0148 
G01 X-0.3098 Y2.0191 
G01 X-0.3153 Y2.0247 
G01 X-0.3197 Y2.0312 
G01 X-0.3227 Y2.0384 
G01 X-0.3242 Y2.0461 
G01 X-0.3242 Y2.0539 
G01 X-0.3227 Y2.0616 
G01 X-0.3197 Y2.0688 
G01 X-0.3153 Y2.0753 
G01 X-0.3098 Y2.0809 
G01 X-0.3033 Y2.0852 
G01 X-0.2961 Y2.0882 
G01 X-0.2884 Y2.0897 
G01 X-0.2737 Y2.0897 
G01 X-0.2737 Y2.0907 
G01 X-0.2871 Y2.0907 
G01 X-0.2924 Y2.0901 
G01 X-0.2976 Y2.0887 
G01 X-0.3025 Y2.0866 
G01 X-0.3072 Y2.0840 
G01 X-0.3114 Y2.0807 
G01 X-0.3124 Y2.0797 
G01 X-0.3144 Y2.0777 
G01 X-0.3156 Y2.0769 
G01 X-0.3184 Y2.0750 
G01 X-0.3199 Y2.0744 
G01 X-0.3229 Y2.0732 
G01 X-0.3236 Y2.0730 
G01 X-0.3276 Y2.0722 
G01 X-0.3324 Y2.0722 
G01 X-0.3347 Y2.0727 
G01 X-0.3371 Y2.0732 
G01 X-0.3374 Y2.0733 
G01 X-0.3416 Y2.0750 
G01 X-0.3436 Y2.0763 
G01 X-0.3456 Y2.0777 
G01 X-0.3473 Y2.0794 
G01 X-0.3490 Y2.0811 
G01 X-0.3499 Y2.0824 
G01 X-0.3517 Y2.0851 
G01 X-0.3523 Y2.0866 
G01 X-0.3536 Y2.0896 
G01 X-0.3537 Y2.0904 
G01 X-0.3545 Y2.0943 
G01 X-0.3545 Y2.1484 
G01 X-0.3536 Y2.1532 
G01 X-0.3517 Y2.1576 
G01 X-0.3490 Y2.1616 
G01 X-0.3456 Y2.1650 
G01 X-0.3262 Y2.1844 
G01 X-0.3222 Y2.1871 
G01 X-0.3177 Y2.1890 
G01 X-0.3130 Y2.1899 
G01 X-0.3082 Y2.1899 
G01 X-0.3035 Y2.1890 
G01 X-0.2990 Y2.1871 
G01 X-0.2965 Y2.1861 
G01 X-0.2019 Y2.1861 
G01 X-0.1796 Y2.1953 
G01 X-0.1625 Y2.2124 
G01 X-0.1532 Y2.2348 
G01 X-0.1532 Y2.2589 
G01 X-0.1625 Y2.2813 
G01 X-0.1796 Y2.2984 
G01 X-0.2019 Y2.3076 
G01 X-0.2965 Y2.3076 
G01 X-0.3189 Y2.2984 
G01 X-0.3194 Y2.2978 
G01 X-0.3234 Y2.2951 
G01 X-0.3279 Y2.2933 
G01 X-0.3326 Y2.2924 
G01 X-0.3372 Y2.2924 
G01 X-0.3539 Y2.2854 
G01 X-0.4240 Y2.2153 
G01 X-0.4386 Y2.2008 
G01 X-0.4455 Y2.1841 
G01 X-0.4455 Y2.0766 
G01 X-0.4464 Y2.0718 
G01 X-0.4483 Y2.0674 
G01 X-0.4510 Y2.0634 
G01 X-0.4544 Y2.0600 
G01 X-0.5740 Y1.9403 
G01 X-0.5824 Y1.9320 
G01 X-0.5864 Y1.9293 
G01 X-0.5908 Y1.9274 
G01 X-0.5956 Y1.9265 
G01 X-0.6463 Y1.9265 
G01 X-0.6765 Y1.8963 
G01 X-0.6765 Y1.8537 
G01 X-0.6760 Y1.8531 
G01 X-0.6733 Y1.8491 
G01 X-0.6730 Y1.8484 
G01 X-0.6714 Y1.8447 
G01 X-0.6705 Y1.8399 
G01 X-0.6705 Y1.7495 
G01 X-0.6704 Y1.7486 
G01 X-0.6705 Y1.7471 
G01 X-0.6705 Y1.7457 
G01 X-0.6707 Y1.7447 
G01 X-0.6708 Y1.7437 
G01 X-0.6712 Y1.7423 
G01 X-0.6714 Y1.7409 
G01 X-0.6718 Y1.7400 
G01 X-0.6721 Y1.7391 
G01 X-0.6727 Y1.7378 
G01 X-0.6733 Y1.7365 
G01 X-0.6738 Y1.7357 
G01 X-0.6743 Y1.7348 
G01 X-0.6752 Y1.7337 
G01 X-0.6760 Y1.7325 
G01 X-0.6767 Y1.7318 
G01 X-0.6773 Y1.7310 
G01 X-0.6784 Y1.7301 
G01 X-0.6794 Y1.7290 
G01 X-0.6802 Y1.7285 
G01 X-0.6809 Y1.7279 
G01 X-0.6822 Y1.7272 
G01 X-0.6834 Y1.7264 
G01 X-0.6843 Y1.7260 
G01 X-0.6851 Y1.7255 
G01 X-0.6865 Y1.7251 
G01 X-0.6879 Y1.7245 
G01 X-0.6888 Y1.7243 
G01 X-0.6897 Y1.7240 
G01 X-0.6912 Y1.7239 
G01 X-0.6926 Y1.7236 
G01 X-0.6936 Y1.7236 
G01 X-0.6945 Y1.7235 
G01 X-0.6960 Y1.7236 
G01 X-0.6974 Y1.7236 
G01 X-0.6984 Y1.7238 
G01 X-0.6993 Y1.7238 
G01 X-0.7007 Y1.7242 
G01 X-0.7021 Y1.7245 
G01 X-0.7030 Y1.7249 
G01 X-0.7040 Y1.7251 
G01 X-0.7053 Y1.7258 
G01 X-0.7066 Y1.7264 
G01 X-0.7074 Y1.7269 
G01 X-0.7119 Y1.7292 
G01 X-0.7166 Y1.7307 
G01 X-0.7215 Y1.7315 
G01 X-0.7255 Y1.7315 
G01 X-0.7255 Y1.7305 
G01 X-0.7210 Y1.7305 
G01 X-0.7151 Y1.7293 
G01 X-0.7096 Y1.7270 
G01 X-0.7046 Y1.7237 
G01 X-0.7003 Y1.7194 
G01 X-0.6970 Y1.7144 
G01 X-0.6947 Y1.7089 
G01 X-0.6935 Y1.7030 
G01 X-0.6935 Y1.6970 
G01 X-0.6947 Y1.6911 
G01 X-0.6970 Y1.6856 
G01 X-0.7003 Y1.6806 
G01 X-0.7046 Y1.6763 
G01 X-0.7096 Y1.6730 
G01 X-0.7151 Y1.6707 
G01 X-0.7210 Y1.6695 
G00 Z0.1000 
G00 X-0.7210 Y1.4695 
G01 Z-0.0060 F10.00 
G01 X-0.7790 Y1.4695 F10.00 
G01 X-0.7849 Y1.4707 
G01 X-0.7904 Y1.4730 
G01 X-0.7954 Y1.4763 
G01 X-0.7997 Y1.4806 
G01 X-0.8030 Y1.4856 
G01 X-0.8053 Y1.4911 
G01 X-0.8065 Y1.4970 
G01 X-0.8065 Y1.5030 
G01 X-0.8053 Y1.5089 
G01 X-0.8030 Y1.5144 
G01 X-0.7997 Y1.5194 
G01 X-0.7954 Y1.5237 
G01 X-0.7904 Y1.5270 
G01 X-0.7849 Y1.5293 
G01 X-0.7790 Y1.5305 
G01 X-0.7210 Y1.5305 
G01 X-0.7151 Y1.5293 
G01 X-0.7096 Y1.5270 
G01 X-0.7058 Y1.5245 
G01 X-0.6351 Y1.5245 
G01 X-0.5906 Y1.5690 
G01 X-0.5866 Y1.5717 
G01 X-0.5821 Y1.5736 
G01 X-0.5774 Y1.5745 
G01 X-0.5495 Y1.5745 
G01 X-0.5495 Y1.6274 
G01 X-0.5486 Y1.6321 
G01 X-0.5467 Y1.6366 
G01 X-0.5440 Y1.6406 
G01 X-0.5406 Y1.6440 
G01 X-0.3234 Y1.8613 
G01 X-0.3227 Y1.8647 
G01 X-0.3197 Y1.8720 
G01 X-0.3153 Y1.8785 
G01 X-0.3098 Y1.8840 
G01 X-0.3033 Y1.8884 
G01 X-0.2961 Y1.8914 
G01 X-0.2884 Y1.8929 
G01 X-0.2100 Y1.8929 
G01 X-0.2024 Y1.8914 
G01 X-0.1951 Y1.8884 
G01 X-0.1886 Y1.8840 
G01 X-0.1831 Y1.8785 
G01 X-0.1787 Y1.8720 
G01 X-0.1757 Y1.8647 
G01 X-0.1742 Y1.8571 
G01 X-0.1742 Y1.8492 
G01 X-0.1757 Y1.8416 
G01 X-0.1787 Y1.8343 
G01 X-0.1831 Y1.8278 
G01 X-0.1886 Y1.8223 
G01 X-0.1951 Y1.8179 
G01 X-0.2024 Y1.8149 
G01 X-0.2100 Y1.8134 
G01 X-0.2884 Y1.8134 
G01 X-0.2961 Y1.8149 
G01 X-0.2991 Y1.8162 
G01 X-0.5005 Y1.6149 
G01 X-0.5005 Y1.5686 
G01 X-0.4945 Y1.5626 
G01 X-0.4945 Y1.5374 
G01 X-0.5124 Y1.5195 
G01 X-0.5376 Y1.5195 
G01 X-0.5436 Y1.5255 
G01 X-0.5649 Y1.5255 
G01 X-0.5986 Y1.4917 
G01 X-0.5945 Y1.4876 
G01 X-0.5945 Y1.4624 
G01 X-0.6124 Y1.4445 
G01 X-0.6376 Y1.4445 
G01 X-0.6555 Y1.4624 
G01 X-0.6555 Y1.4755 
G01 X-0.7058 Y1.4755 
G01 X-0.7096 Y1.4730 
G01 X-0.7151 Y1.4707 
G01 X-0.7210 Y1.4695 
G00 Z0.1000 
G00 X-0.3334 Y1.4845 
G01 Z-0.0060 F10.00 
G01 X-0.2666 Y1.4845 F10.00 
G01 X-0.2599 Y1.4832 
G01 X-0.2537 Y1.4806 
G01 X-0.2480 Y1.4768 
G01 X-0.2432 Y1.4720 
G01 X-0.2394 Y1.4663 
G01 X-0.2368 Y1.4601 
G01 X-0.2355 Y1.4534 
G01 X-0.2355 Y1.4466 
G01 X-0.2368 Y1.4399 
G01 X-0.2394 Y1.4337 
G01 X-0.2432 Y1.4280 
G01 X-0.2480 Y1.4232 
G01 X-0.2537 Y1.4194 
G01 X-0.2599 Y1.4168 
G01 X-0.2666 Y1.4155 
G01 X-0.3334 Y1.4155 
G01 X-0.3401 Y1.4168 
G01 X-0.3463 Y1.4194 
G01 X-0.3520 Y1.4232 
G01 X-0.3568 Y1.4280 
G01 X-0.3606 Y1.4337 
G01 X-0.3632 Y1.4399 
G01 X-0.3645 Y1.4466 
G01 X-0.3645 Y1.4534 
G01 X-0.3632 Y1.4601 
G01 X-0.3606 Y1.4663 
G01 X-0.3568 Y1.4720 
G01 X-0.3520 Y1.4768 
G01 X-0.3463 Y1.4806 
G01 X-0.3401 Y1.4832 
G01 X-0.3334 Y1.4845 
G00 Z0.1000 
G00 X-0.5805 Y2.2374 
G01 Z-0.0060 F10.00 
G01 X-0.5805 Y2.2626 F10.00 
G01 X-0.5626 Y2.2805 
G01 X-0.5374 Y2.2805 
G01 X-0.5195 Y2.2626 
G01 X-0.5195 Y2.2374 
G01 X-0.5255 Y2.2314 
G01 X-0.5255 Y2.1976 
G01 X-0.5264 Y2.1929 
G01 X-0.5283 Y2.1884 
G01 X-0.5310 Y2.1844 
G01 X-0.5344 Y2.1810 
G01 X-0.8255 Y1.8899 
G01 X-0.8255 Y1.4351 
G01 X-0.8149 Y1.4245 
G01 X-0.7942 Y1.4245 
G01 X-0.7904 Y1.4270 
G01 X-0.7849 Y1.4293 
G01 X-0.7790 Y1.4305 
G01 X-0.7210 Y1.4305 
G01 X-0.7151 Y1.4293 
G01 X-0.7096 Y1.4270 
G01 X-0.7058 Y1.4245 
G01 X-0.4476 Y1.4245 
G01 X-0.4429 Y1.4236 
G01 X-0.4384 Y1.4217 
G01 X-0.4344 Y1.4190 
G01 X-0.4310 Y1.4156 
G01 X-0.3899 Y1.3745 
G01 X-0.3543 Y1.3745 
G01 X-0.3520 Y1.3768 
G01 X-0.3463 Y1.3806 
G01 X-0.3401 Y1.3832 
G01 X-0.3334 Y1.3845 
G01 X-0.2666 Y1.3845 
G01 X-0.2599 Y1.3832 
G01 X-0.2537 Y1.3806 
G01 X-0.2480 Y1.3768 
G01 X-0.2432 Y1.3720 
G01 X-0.2394 Y1.3663 
G01 X-0.2368 Y1.3601 
G01 X-0.2355 Y1.3534 
G01 X-0.2355 Y1.3466 
G01 X-0.2368 Y1.3399 
G01 X-0.2394 Y1.3337 
G01 X-0.2432 Y1.3280 
G01 X-0.2480 Y1.3232 
G01 X-0.2537 Y1.3194 
G01 X-0.2599 Y1.3168 
G01 X-0.2666 Y1.3155 
G01 X-0.3334 Y1.3155 
G01 X-0.3401 Y1.3168 
G01 X-0.3463 Y1.3194 
G01 X-0.3520 Y1.3232 
G01 X-0.3543 Y1.3255 
G01 X-0.4024 Y1.3255 
G01 X-0.4071 Y1.3264 
G01 X-0.4116 Y1.3283 
G01 X-0.4156 Y1.3310 
G01 X-0.4601 Y1.3755 
G01 X-0.7058 Y1.3755 
G01 X-0.7096 Y1.3730 
G01 X-0.7151 Y1.3707 
G01 X-0.7210 Y1.3695 
G01 X-0.7790 Y1.3695 
G01 X-0.7849 Y1.3707 
G01 X-0.7904 Y1.3730 
G01 X-0.7942 Y1.3755 
G01 X-0.8274 Y1.3755 
G01 X-0.8321 Y1.3764 
G01 X-0.8366 Y1.3783 
G01 X-0.8406 Y1.3810 
G01 X-0.8440 Y1.3844 
G01 X-0.8656 Y1.4060 
G01 X-0.8690 Y1.4094 
G01 X-0.8717 Y1.4134 
G01 X-0.8736 Y1.4179 
G01 X-0.8745 Y1.4226 
G01 X-0.8745 Y1.9024 
G01 X-0.8736 Y1.9071 
G01 X-0.8717 Y1.9116 
G01 X-0.8690 Y1.9156 
G01 X-0.5745 Y2.2101 
G01 X-0.5745 Y2.2314 
G01 X-0.5805 Y2.2374 
G00 Z0.1000 
G00 X-0.6805 Y2.2374 
G01 Z-0.0060 F10.00 
G01 X-0.6805 Y2.2626 F10.00 
G01 X-0.6626 Y2.2805 
G01 X-0.6374 Y2.2805 
G01 X-0.6195 Y2.2626 
G01 X-0.6195 Y2.2374 
G01 X-0.6374 Y2.2195 
G01 X-0.6626 Y2.2195 
G01 X-0.6805 Y2.2374 
G00 Z0.1000 
G00 X-0.2884 Y2.2866 
G01 Z-0.0060 F10.00 
G01 X-0.2100 Y2.2866 F10.00 
G01 X-0.2024 Y2.2851 
G01 X-0.1951 Y2.2821 
G01 X-0.1886 Y2.2777 
G01 X-0.1831 Y2.2722 
G01 X-0.1787 Y2.2657 
G01 X-0.1757 Y2.2584 
G01 X-0.1742 Y2.2508 
G01 X-0.1742 Y2.2429 
G01 X-0.1757 Y2.2353 
G01 X-0.1787 Y2.2280 
G01 X-0.1831 Y2.2215 
G01 X-0.1886 Y2.2160 
G01 X-0.1951 Y2.2116 
G01 X-0.2024 Y2.2086 
G01 X-0.2100 Y2.2071 
G01 X-0.2884 Y2.2071 
G01 X-0.2961 Y2.2086 
G01 X-0.3033 Y2.2116 
G01 X-0.3098 Y2.2160 
G01 X-0.3153 Y2.2215 
G01 X-0.3159 Y2.2224 
G01 X-0.3180 Y2.2224 
G01 X-0.3755 Y2.1649 
G01 X-0.3755 Y2.0476 
G01 X-0.3764 Y2.0429 
G01 X-0.3783 Y2.0384 
G01 X-0.3810 Y2.0344 
G01 X-0.5255 Y1.8899 
G01 X-0.5255 Y1.8686 
G01 X-0.5195 Y1.8626 
G01 X-0.5195 Y1.8374 
G01 X-0.5374 Y1.8195 
G01 X-0.5626 Y1.8195 
G01 X-0.5760 Y1.8328 
G01 X-0.6005 Y1.8410 
G01 X-0.6005 Y1.6476 
G01 X-0.6014 Y1.6429 
G01 X-0.6033 Y1.6384 
G01 X-0.6060 Y1.6344 
G01 X-0.6094 Y1.6310 
G01 X-0.6594 Y1.5810 
G01 X-0.6634 Y1.5783 
G01 X-0.6679 Y1.5764 
G01 X-0.6726 Y1.5755 
G01 X-0.7058 Y1.5755 
G01 X-0.7096 Y1.5730 
G01 X-0.7151 Y1.5707 
G01 X-0.7210 Y1.5695 
G01 X-0.7790 Y1.5695 
G01 X-0.7849 Y1.5707 
G01 X-0.7904 Y1.5730 
G01 X-0.7954 Y1.5763 
G01 X-0.7997 Y1.5806 
G01 X-0.8030 Y1.5856 
G01 X-0.8053 Y1.5911 
G01 X-0.8065 Y1.5970 
G01 X-0.8065 Y1.6030 
G01 X-0.8053 Y1.6089 
G01 X-0.8030 Y1.6144 
G01 X-0.7997 Y1.6194 
G01 X-0.7954 Y1.6237 
G01 X-0.7904 Y1.6270 
G01 X-0.7849 Y1.6293 
G01 X-0.7790 Y1.6305 
G01 X-0.7210 Y1.6305 
G01 X-0.7151 Y1.6293 
G01 X-0.7096 Y1.6270 
G01 X-0.7058 Y1.6245 
G01 X-0.6851 Y1.6245 
G01 X-0.6495 Y1.6601 
G01 X-0.6495 Y1.8564 
G01 X-0.6555 Y1.8624 
G01 X-0.6555 Y1.8876 
G01 X-0.6376 Y1.9055 
G01 X-0.6124 Y1.9055 
G01 X-0.5990 Y1.8922 
G01 X-0.5745 Y1.8840 
G01 X-0.5745 Y1.9024 
G01 X-0.5736 Y1.9071 
G01 X-0.5717 Y1.9116 
G01 X-0.5690 Y1.9156 
G01 X-0.5656 Y1.9190 
G01 X-0.4245 Y2.0601 
G01 X-0.4245 Y2.1774 
G01 X-0.4236 Y2.1821 
G01 X-0.4217 Y2.1866 
G01 X-0.4190 Y2.1906 
G01 X-0.4156 Y2.1940 
G01 X-0.3438 Y2.2659 
G01 X-0.3398 Y2.2686 
G01 X-0.3353 Y2.2704 
G01 X-0.3306 Y2.2714 
G01 X-0.3159 Y2.2714 
G01 X-0.3153 Y2.2722 
G01 X-0.3098 Y2.2777 
G01 X-0.3033 Y2.2821 
G01 X-0.2961 Y2.2851 
G01 X-0.2884 Y2.2866 
G00 Z0.1000 
G00 X-1.1969 Y1.3271 
G01 Z-0.0060 F10.00 
G01 X-1.2014 Y1.3304 F10.00 
G01 X-1.2064 Y1.3329 
G01 X-1.2117 Y1.3346 
G01 X-1.2172 Y1.3355 
G01 X-1.2255 Y1.3355 
G01 X-1.2255 Y1.3345 
G01 X-1.2166 Y1.3345 
G01 X-1.2099 Y1.3332 
G01 X-1.2037 Y1.3306 
G01 X-1.1980 Y1.3268 
G01 X-1.1957 Y1.3245 
G01 X-1.1943 Y1.3245 
G01 X-1.1969 Y1.3271 
G00 Z0.1000 
G00 X-2.2005 Y2.6778 
G01 Z-0.0060 F10.00 
G01 X-2.2005 Y2.6764 F10.00 
G01 X-2.1986 Y2.6745 
G01 X-2.1972 Y2.6745 
G01 X-2.2005 Y2.6778 
G00 Z0.1000 
G00 X-2.2005 Y2.6236 
G01 Z-0.0060 F10.00 
G01 X-2.2005 Y2.6222 F10.00 
G01 X-2.1972 Y2.6255 
G01 X-2.1986 Y2.6255 
G01 X-2.2005 Y2.6236 
G00 Z0.1000 
G00 X-1.1335 Y2.6870 
G01 Z-0.0060 F10.00 
G01 X-1.1332 Y2.6871 F10.00 
G01 X-1.1311 Y2.6870 
G01 X-1.1289 Y2.6870 
G01 X-1.1287 Y2.6869 
G01 X-1.1284 Y2.6869 
G01 X-1.1263 Y2.6865 
G01 X-1.1242 Y2.6861 
G01 X-1.1239 Y2.6859 
G01 X-1.1237 Y2.6859 
G01 X-1.1217 Y2.6850 
G01 X-1.1197 Y2.6842 
G01 X-1.1195 Y2.6840 
G01 X-1.1192 Y2.6839 
G01 X-1.1175 Y2.6827 
G01 X-1.1157 Y2.6815 
G01 X-1.1155 Y2.6813 
G01 X-1.1153 Y2.6812 
G01 X-1.1138 Y2.6796 
G01 X-1.1123 Y2.6781 
G01 X-1.1122 Y2.6779 
G01 X-1.0171 Y2.5783 
G01 X-1.0156 Y2.5768 
G01 X-1.0155 Y2.5765 
G01 X-1.0153 Y2.5763 
G01 X-1.0146 Y2.5753 
G01 X-1.0093 Y2.5699 
G01 X-1.0090 Y2.5697 
G01 X-1.0076 Y2.5682 
G01 X-1.0061 Y2.5667 
G01 X-1.0059 Y2.5665 
G01 X-1.0013 Y2.5616 
G01 X-0.9951 Y2.5591 
G01 X-0.9949 Y2.5590 
G01 X-0.9929 Y2.5582 
G01 X-0.9909 Y2.5574 
G01 X-0.9907 Y2.5572 
G01 X-0.9846 Y2.5545 
G01 X-0.9779 Y2.5545 
G01 X-0.9777 Y2.5546 
G01 X-0.9755 Y2.5545 
G01 X-0.9734 Y2.5545 
G01 X-0.9731 Y2.5544 
G01 X-0.9655 Y2.5543 
G01 X-0.9643 Y2.5545 
G01 X-0.9641 Y2.5545 
G01 X-0.9638 Y2.5545 
G01 X-0.9616 Y2.5545 
G01 X-0.8489 Y2.5545 
G01 X-0.8442 Y2.5536 
G01 X-0.8397 Y2.5517 
G01 X-0.8357 Y2.5490 
G01 X-0.8323 Y2.5457 
G01 X-0.8296 Y2.5416 
G01 X-0.8249 Y2.5303 
G01 X-0.8078 Y2.5132 
G01 X-0.7855 Y2.5040 
G01 X-0.7613 Y2.5040 
G01 X-0.7390 Y2.5132 
G01 X-0.7219 Y2.5303 
G01 X-0.7127 Y2.5527 
G01 X-0.7127 Y2.6473 
G01 X-0.7219 Y2.6697 
G01 X-0.7390 Y2.6868 
G01 X-0.7613 Y2.6960 
G01 X-0.7855 Y2.6960 
G01 X-0.8078 Y2.6868 
G01 X-0.8249 Y2.6697 
G01 X-0.8296 Y2.6584 
G01 X-0.8323 Y2.6544 
G01 X-0.8341 Y2.6525 
G01 X-0.8357 Y2.6510 
G01 X-0.8397 Y2.6483 
G01 X-0.8442 Y2.6464 
G01 X-0.8489 Y2.6455 
G01 X-0.9429 Y2.6455 
G01 X-0.9432 Y2.6454 
G01 X-0.9453 Y2.6455 
G01 X-0.9474 Y2.6455 
G01 X-0.9477 Y2.6456 
G01 X-0.9480 Y2.6456 
G01 X-0.9501 Y2.6460 
G01 X-0.9522 Y2.6464 
G01 X-0.9524 Y2.6466 
G01 X-0.9527 Y2.6466 
G01 X-0.9547 Y2.6475 
G01 X-0.9566 Y2.6483 
G01 X-0.9569 Y2.6485 
G01 X-0.9571 Y2.6486 
G01 X-0.9589 Y2.6498 
G01 X-0.9606 Y2.6510 
G01 X-0.9609 Y2.6512 
G01 X-0.9611 Y2.6513 
G01 X-0.9626 Y2.6529 
G01 X-0.9641 Y2.6544 
G01 X-0.9642 Y2.6546 
G01 X-1.0475 Y2.7420 
G01 X-1.0490 Y2.7435 
G01 X-1.0492 Y2.7437 
G01 X-1.0494 Y2.7439 
G01 X-1.0505 Y2.7457 
G01 X-1.0517 Y2.7475 
G01 X-1.0518 Y2.7477 
G01 X-1.0520 Y2.7480 
G01 X-1.0527 Y2.7500 
G01 X-1.0536 Y2.7519 
G01 X-1.0536 Y2.7522 
G01 X-1.0537 Y2.7525 
G01 X-1.0541 Y2.7546 
G01 X-1.0545 Y2.7567 
G01 X-1.0545 Y2.7570 
G01 X-1.0546 Y2.7572 
G01 X-1.0545 Y2.7594 
G01 X-1.0545 Y2.7938 
G01 X-1.0862 Y2.8255 
G01 X-1.1738 Y2.8255 
G01 X-1.2055 Y2.7938 
G01 X-1.2055 Y2.7312 
G01 X-1.1613 Y2.6870 
G01 X-1.1335 Y2.6870 
G00 Z0.1000 
G00 X-1.1845 Y2.7399 
G01 Z-0.0060 F10.00 
G01 X-1.1845 Y2.7851 F10.00 
G01 X-1.1526 Y2.8170 
G01 X-1.1074 Y2.8170 
G01 X-1.0755 Y2.7851 
G01 X-1.0755 Y2.7409 
G01 X-0.9645 Y2.6245 
G01 X-0.8132 Y2.6245 
G01 X-0.8132 Y2.6392 
G01 X-0.8116 Y2.6468 
G01 X-0.8087 Y2.6541 
G01 X-0.8043 Y2.6606 
G01 X-0.7988 Y2.6661 
G01 X-0.7923 Y2.6705 
G01 X-0.7850 Y2.6735 
G01 X-0.7773 Y2.6750 
G01 X-0.7695 Y2.6750 
G01 X-0.7618 Y2.6735 
G01 X-0.7546 Y2.6705 
G01 X-0.7481 Y2.6661 
G01 X-0.7425 Y2.6606 
G01 X-0.7382 Y2.6541 
G01 X-0.7352 Y2.6468 
G01 X-0.7337 Y2.6392 
G01 X-0.7337 Y2.5608 
G01 X-0.7352 Y2.5532 
G01 X-0.7382 Y2.5459 
G01 X-0.7425 Y2.5394 
G01 X-0.7481 Y2.5339 
G01 X-0.7546 Y2.5295 
G01 X-0.7618 Y2.5265 
G01 X-0.7695 Y2.5250 
G01 X-0.7773 Y2.5250 
G01 X-0.7850 Y2.5265 
G01 X-0.7923 Y2.5295 
G01 X-0.7988 Y2.5339 
G01 X-0.8043 Y2.5394 
G01 X-0.8087 Y2.5459 
G01 X-0.8116 Y2.5532 
G01 X-0.8132 Y2.5608 
G01 X-0.8132 Y2.5755 
G01 X-0.9729 Y2.5755 
G01 X-0.9732 Y2.5754 
G01 X-0.9753 Y2.5755 
G01 X-0.9774 Y2.5755 
G01 X-0.9777 Y2.5756 
G01 X-0.9780 Y2.5756 
G01 X-0.9801 Y2.5760 
G01 X-0.9821 Y2.5764 
G01 X-0.9824 Y2.5766 
G01 X-0.9827 Y2.5766 
G01 X-0.9846 Y2.5775 
G01 X-0.9866 Y2.5783 
G01 X-0.9868 Y2.5785 
G01 X-0.9871 Y2.5786 
G01 X-0.9889 Y2.5798 
G01 X-0.9906 Y2.5810 
G01 X-0.9908 Y2.5812 
G01 X-0.9911 Y2.5813 
G01 X-0.9925 Y2.5829 
G01 X-0.9940 Y2.5844 
G01 X-0.9942 Y2.5846 
G01 X-1.1119 Y2.7080 
G01 X-1.1526 Y2.7080 
G01 X-1.1845 Y2.7399 
G00 Z0.1000 
G00 X-2.2528 Y2.6745 
G01 Z-0.0060 F10.00 
G01 X-2.2514 Y2.6745 F10.00 
G01 X-2.2495 Y2.6764 
G01 X-2.2495 Y2.6778 
G01 X-2.2528 Y2.6745 
G00 Z0.1000 
G00 X-2.2495 Y2.6222 
G01 Z-0.0060 F10.00 
G01 X-2.2495 Y2.6236 F10.00 
G01 X-2.2514 Y2.6255 
G01 X-2.2528 Y2.6255 
G01 X-2.2495 Y2.6222 
G00 Z0.1000 
G00 X-1.4644 Y2.2520 
G01 Z-0.0060 F10.00 
G01 X-1.4589 Y2.2543 F10.00 
G01 X-1.4530 Y2.2555 
G01 X-1.4470 Y2.2555 
G01 X-1.4411 Y2.2543 
G01 X-1.4356 Y2.2520 
G01 X-1.4318 Y2.2495 
G01 X-1.4265 Y2.2495 
G01 X-1.4265 Y2.2497 
G01 X-1.4270 Y2.2516 
G01 X-1.4270 Y2.2521 
G01 X-1.4271 Y2.2526 
G01 X-1.4271 Y2.2545 
G01 X-1.4272 Y2.2564 
G01 X-1.4271 Y2.2569 
G01 X-1.4271 Y2.2574 
G01 X-1.4267 Y2.2593 
G01 X-1.4264 Y2.2612 
G01 X-1.4262 Y2.2617 
G01 X-1.4261 Y2.2621 
G01 X-1.4254 Y2.2639 
G01 X-1.4247 Y2.2657 
G01 X-1.4245 Y2.2662 
G01 X-1.4243 Y2.2666 
G01 X-1.4232 Y2.2682 
G01 X-1.4222 Y2.2699 
G01 X-1.4219 Y2.2702 
G01 X-1.4216 Y2.2706 
G01 X-1.4202 Y2.2720 
G01 X-1.4189 Y2.2734 
G01 X-1.4185 Y2.2737 
G01 X-1.4182 Y2.2740 
G01 X-1.4166 Y2.2751 
G01 X-1.4150 Y2.2762 
G01 X-1.4146 Y2.2764 
G01 X-1.4142 Y2.2767 
G01 X-1.4124 Y2.2775 
G01 X-1.4106 Y2.2783 
G01 X-1.4102 Y2.2784 
G01 X-1.4097 Y2.2786 
G01 X-1.4078 Y2.2789 
G01 X-1.4060 Y2.2794 
G01 X-1.4055 Y2.2794 
G01 X-1.4050 Y2.2795 
G01 X-1.4031 Y2.2795 
G01 X-1.4011 Y2.2796 
G01 X-1.4006 Y2.2795 
G01 X-1.3928 Y2.2795 
G01 X-1.3881 Y2.2786 
G01 X-1.3837 Y2.2767 
G01 X-1.3796 Y2.2740 
G01 X-1.3762 Y2.2706 
G01 X-1.3736 Y2.2680 
G01 X-1.3264 Y2.2680 
G01 X-1.3193 Y2.2751 
G01 X-1.3188 Y2.2756 
G01 X-1.3159 Y2.2785 
G01 X-1.3138 Y2.2799 
G01 X-1.3119 Y2.2812 
G01 X-1.2992 Y2.2864 
G01 X-1.2366 Y2.3490 
G01 X-1.2326 Y2.3517 
G01 X-1.2282 Y2.3536 
G01 X-1.2234 Y2.3545 
G01 X-1.2091 Y2.3545 
G01 X-1.2044 Y2.3536 
G01 X-1.1999 Y2.3517 
G01 X-1.1966 Y2.3495 
G01 X-1.1764 Y2.3495 
G01 X-1.1649 Y2.3610 
G01 X-1.1351 Y2.3610 
G01 X-1.1236 Y2.3495 
G01 X-1.1034 Y2.3495 
G01 X-1.1029 Y2.3499 
G01 X-1.1001 Y2.3517 
G01 X-1.0986 Y2.3523 
G01 X-1.0956 Y2.3536 
G01 X-1.0949 Y2.3537 
G01 X-1.0909 Y2.3545 
G01 X-0.6781 Y2.3545 
G01 X-0.6777 Y2.3546 
G01 X-0.6757 Y2.3545 
G01 X-0.6737 Y2.3545 
G01 X-0.6733 Y2.3544 
G01 X-0.6359 Y2.3532 
G01 X-0.6335 Y2.3532 
G01 X-0.6312 Y2.3531 
G01 X-0.6310 Y2.3531 
G01 X-0.6288 Y2.3525 
G01 X-0.6268 Y2.3521 
G01 X-0.6245 Y2.3524 
G01 X-0.6222 Y2.3528 
G01 X-0.6220 Y2.3528 
G01 X-0.6197 Y2.3527 
G01 X-0.6174 Y2.3527 
G01 X-0.6155 Y2.3534 
G01 X-0.6134 Y2.3542 
G01 X-0.6132 Y2.3542 
G01 X-0.6109 Y2.3546 
G01 X-0.6089 Y2.3549 
G01 X-0.6070 Y2.3561 
G01 X-0.6050 Y2.3573 
G01 X-0.6048 Y2.3574 
G01 X-0.6026 Y2.3582 
G01 X-0.6005 Y2.3590 
G01 X-0.5990 Y2.3604 
G01 X-0.5973 Y2.3620 
G01 X-0.5972 Y2.3621 
G01 X-0.5952 Y2.3633 
G01 X-0.5935 Y2.3644 
G01 X-0.5921 Y2.3662 
G01 X-0.5908 Y2.3681 
G01 X-0.5907 Y2.3683 
G01 X-0.5890 Y2.3698 
G01 X-0.5873 Y2.3714 
G01 X-0.5864 Y2.3732 
G01 X-0.5855 Y2.3754 
G01 X-0.5854 Y2.3755 
G01 X-0.5840 Y2.3774 
G01 X-0.5829 Y2.3790 
G01 X-0.5823 Y2.3813 
G01 X-0.5818 Y2.3835 
G01 X-0.5817 Y2.3837 
G01 X-0.5808 Y2.3858 
G01 X-0.5798 Y2.3879 
G01 X-0.5797 Y2.3899 
G01 X-0.5797 Y2.3922 
G01 X-0.5796 Y2.3924 
G01 X-0.5791 Y2.3947 
G01 X-0.5786 Y2.3969 
G01 X-0.5546 Y2.4968 
G01 X-0.5542 Y2.4986 
G01 X-0.5540 Y2.4991 
G01 X-0.5539 Y2.4996 
G01 X-0.5531 Y2.5013 
G01 X-0.5524 Y2.5031 
G01 X-0.5521 Y2.5035 
G01 X-0.5519 Y2.5040 
G01 X-0.5508 Y2.5055 
G01 X-0.5497 Y2.5071 
G01 X-0.5493 Y2.5075 
G01 X-0.5490 Y2.5079 
G01 X-0.5476 Y2.5092 
G01 X-0.5463 Y2.5105 
G01 X-0.5459 Y2.5108 
G01 X-0.5455 Y2.5111 
G01 X-0.5439 Y2.5121 
G01 X-0.5423 Y2.5132 
G01 X-0.5251 Y2.5303 
G01 X-0.5158 Y2.5527 
G01 X-0.5158 Y2.6473 
G01 X-0.5251 Y2.6697 
G01 X-0.5422 Y2.6868 
G01 X-0.5645 Y2.6960 
G01 X-0.5887 Y2.6960 
G01 X-0.6110 Y2.6868 
G01 X-0.6281 Y2.6697 
G01 X-0.6373 Y2.6473 
G01 X-0.6373 Y2.5515 
G01 X-0.6372 Y2.5510 
G01 X-0.6369 Y2.5491 
G01 X-0.6369 Y2.5486 
G01 X-0.6368 Y2.5481 
G01 X-0.6369 Y2.5462 
G01 X-0.6369 Y2.5443 
G01 X-0.6370 Y2.5438 
G01 X-0.6370 Y2.5433 
G01 X-0.6374 Y2.5414 
G01 X-0.6378 Y2.5396 
G01 X-0.6380 Y2.5391 
G01 X-0.6559 Y2.4646 
G01 X-0.6564 Y2.4623 
G01 X-0.6565 Y2.4621 
G01 X-0.6575 Y2.4600 
G01 X-0.6584 Y2.4579 
G01 X-0.6585 Y2.4577 
G01 X-0.6599 Y2.4559 
G01 X-0.6612 Y2.4540 
G01 X-0.6614 Y2.4538 
G01 X-0.6631 Y2.4523 
G01 X-0.6647 Y2.4507 
G01 X-0.6649 Y2.4506 
G01 X-0.6669 Y2.4493 
G01 X-0.6688 Y2.4481 
G01 X-0.6690 Y2.4480 
G01 X-0.6712 Y2.4472 
G01 X-0.6734 Y2.4464 
G01 X-0.6735 Y2.4464 
G01 X-0.6758 Y2.4460 
G01 X-0.6781 Y2.4456 
G01 X-0.6783 Y2.4456 
G01 X-0.6806 Y2.4457 
G01 X-0.6839 Y2.4458 
G01 X-0.6854 Y2.4455 
G01 X-0.6858 Y2.4455 
G01 X-0.6861 Y2.4454 
G01 X-0.6882 Y2.4455 
G01 X-1.1204 Y2.4455 
G01 X-1.1249 Y2.4464 
G01 X-1.1252 Y2.4464 
G01 X-1.1296 Y2.4483 
G01 X-1.1336 Y2.4510 
G01 X-1.1371 Y2.4544 
G01 X-1.1386 Y2.4568 
G01 X-1.1397 Y2.4584 
G01 X-1.1416 Y2.4629 
G01 X-1.1425 Y2.4676 
G01 X-1.1425 Y2.4724 
G01 X-1.1416 Y2.4769 
G01 X-1.1416 Y2.4771 
G01 X-1.1397 Y2.4816 
G01 X-1.1371 Y2.4856 
G01 X-1.1336 Y2.4890 
G01 X-1.1222 Y2.5005 
G01 X-1.1236 Y2.5005 
G01 X-1.1351 Y2.4890 
G01 X-1.1649 Y2.4890 
G01 X-1.1764 Y2.5005 
G01 X-1.1778 Y2.5005 
G01 X-1.1629 Y2.4856 
G01 X-1.1603 Y2.4816 
G01 X-1.1584 Y2.4771 
G01 X-1.1575 Y2.4724 
G01 X-1.1575 Y2.4676 
G01 X-1.1575 Y2.4673 
G01 X-1.1584 Y2.4629 
G01 X-1.1603 Y2.4584 
G01 X-1.1613 Y2.4568 
G01 X-1.1629 Y2.4544 
G01 X-1.1664 Y2.4510 
G01 X-1.1704 Y2.4483 
G01 X-1.1748 Y2.4464 
G01 X-1.1796 Y2.4455 
G01 X-1.2591 Y2.4455 
G01 X-1.2758 Y2.4386 
G01 X-1.2937 Y2.4206 
G01 X-1.3269 Y2.3875 
G01 X-1.3309 Y2.3848 
G01 X-1.3353 Y2.3829 
G01 X-1.3401 Y2.3820 
G01 X-1.3778 Y2.3820 
G01 X-1.3809 Y2.3826 
G01 X-1.3825 Y2.3829 
G01 X-1.3836 Y2.3834 
G01 X-1.3870 Y2.3848 
G01 X-1.3910 Y2.3875 
G01 X-1.3944 Y2.3908 
G01 X-1.3960 Y2.3932 
G01 X-1.3971 Y2.3949 
G01 X-1.3977 Y2.3964 
G01 X-1.3990 Y2.3994 
G01 X-1.3991 Y2.4003 
G01 X-1.3999 Y2.4041 
G01 X-1.3999 Y2.4089 
G01 X-1.3993 Y2.4120 
G01 X-1.3990 Y2.4136 
G01 X-1.3985 Y2.4147 
G01 X-1.3985 Y2.4352 
G01 X-1.3990 Y2.4364 
G01 X-1.3993 Y2.4379 
G01 X-1.3999 Y2.4411 
G01 X-1.3999 Y2.4459 
G01 X-1.3992 Y2.4496 
G01 X-1.3990 Y2.4506 
G01 X-1.3978 Y2.4535 
G01 X-1.3971 Y2.4551 
G01 X-1.3961 Y2.4567 
G01 X-1.3944 Y2.4591 
G01 X-1.3910 Y2.4625 
G01 X-1.3870 Y2.4652 
G01 X-1.3837 Y2.4666 
G01 X-1.3825 Y2.4671 
G01 X-1.3810 Y2.4674 
G01 X-1.3778 Y2.4680 
G01 X-1.3264 Y2.4680 
G01 X-1.2930 Y2.5014 
G01 X-1.2930 Y2.5486 
G01 X-1.3264 Y2.5820 
G01 X-1.3747 Y2.5820 
G01 X-1.3754 Y2.5816 
G01 X-1.3766 Y2.5811 
G01 X-1.3777 Y2.5805 
G01 X-1.3788 Y2.5802 
G01 X-1.3798 Y2.5797 
G01 X-1.3811 Y2.5795 
G01 X-1.3823 Y2.5791 
G01 X-1.3834 Y2.5790 
G01 X-1.3846 Y2.5788 
G01 X-1.3858 Y2.5788 
G01 X-1.3871 Y2.5787 
G01 X-1.3882 Y2.5788 
G01 X-1.3894 Y2.5788 
G01 X-1.3906 Y2.5790 
G01 X-1.3919 Y2.5792 
G01 X-1.3930 Y2.5795 
G01 X-1.3941 Y2.5797 
G01 X-1.3953 Y2.5802 
G01 X-1.3965 Y2.5806 
G01 X-1.3975 Y2.5811 
G01 X-1.3986 Y2.5816 
G01 X-1.3996 Y2.5823 
G01 X-1.4008 Y2.5829 
G01 X-1.4016 Y2.5836 
G01 X-1.4026 Y2.5842 
G01 X-1.4035 Y2.5852 
G01 X-1.4045 Y2.5860 
G01 X-1.4052 Y2.5869 
G01 X-1.4060 Y2.5877 
G01 X-1.4067 Y2.5887 
G01 X-1.4075 Y2.5897 
G01 X-1.4081 Y2.5907 
G01 X-1.4087 Y2.5917 
G01 X-1.4092 Y2.5929 
G01 X-1.4098 Y2.5940 
G01 X-1.4101 Y2.5951 
G01 X-1.4105 Y2.5961 
G01 X-1.4108 Y2.5974 
G01 X-1.4111 Y2.5986 
G01 X-1.4113 Y2.5997 
G01 X-1.4115 Y2.6009 
G01 X-1.4115 Y2.6021 
G01 X-1.4168 Y2.6591 
G01 X-1.4170 Y2.6603 
G01 X-1.4170 Y2.6615 
G01 X-1.4171 Y2.6628 
G01 X-1.4170 Y2.6639 
G01 X-1.4170 Y2.6685 
G01 X-1.4173 Y2.6693 
G01 X-1.4176 Y2.6705 
G01 X-1.4180 Y2.6718 
G01 X-1.4180 Y2.6726 
G01 X-1.4201 Y2.6767 
G01 X-1.4208 Y2.6776 
G01 X-1.4213 Y2.6788 
G01 X-1.4219 Y2.6799 
G01 X-1.4222 Y2.6810 
G01 X-1.4239 Y2.6852 
G01 X-1.4246 Y2.6858 
G01 X-1.4253 Y2.6869 
G01 X-1.4261 Y2.6879 
G01 X-1.4265 Y2.6887 
G01 X-1.4300 Y2.6916 
G01 X-1.4309 Y2.6922 
G01 X-1.4318 Y2.6931 
G01 X-1.4328 Y2.6939 
G01 X-1.4335 Y2.6948 
G01 X-1.5253 Y2.7865 
G01 X-1.5398 Y2.8011 
G01 X-1.5565 Y2.8080 
G01 X-1.9510 Y2.8080 
G01 X-1.9557 Y2.8089 
G01 X-1.9602 Y2.8108 
G01 X-1.9642 Y2.8135 
G01 X-1.9676 Y2.8169 
G01 X-1.9762 Y2.8255 
G01 X-2.0638 Y2.8255 
G01 X-2.0955 Y2.7938 
G01 X-2.0955 Y2.7312 
G01 X-2.0695 Y2.7052 
G01 X-2.0667 Y2.7024 
G01 X-2.0661 Y2.7018 
G01 X-2.0651 Y2.7003 
G01 X-2.0634 Y2.6978 
G01 X-2.0616 Y2.6934 
G01 X-2.0612 Y2.6915 
G01 X-2.0606 Y2.6886 
G01 X-2.0606 Y2.6838 
G01 X-2.0616 Y2.6791 
G01 X-2.0634 Y2.6746 
G01 X-2.0650 Y2.6722 
G01 X-2.0661 Y2.6706 
G01 X-2.0695 Y2.6672 
G01 X-2.0711 Y2.6661 
G01 X-2.0735 Y2.6645 
G01 X-2.0757 Y2.6636 
G01 X-2.0759 Y2.6635 
G01 X-2.0769 Y2.6625 
G01 X-2.0777 Y2.6619 
G01 X-2.0785 Y2.6612 
G01 X-2.0797 Y2.6606 
G01 X-2.0799 Y2.6605 
G01 X-2.0825 Y2.6573 
G01 X-2.0832 Y2.6561 
G01 X-2.0840 Y2.6554 
G01 X-2.0846 Y2.6546 
G01 X-2.0857 Y2.6537 
G01 X-2.0885 Y2.6508 
G01 X-2.0886 Y2.6506 
G01 X-2.0892 Y2.6494 
G01 X-2.0897 Y2.6485 
G01 X-2.0902 Y2.6475 
G01 X-2.0911 Y2.6465 
G01 X-2.0918 Y2.6454 
G01 X-2.0926 Y2.6446 
G01 X-2.1781 Y2.5377 
G01 X-2.1789 Y2.5366 
G01 X-2.1796 Y2.5358 
G01 X-2.1802 Y2.5350 
G01 X-2.1813 Y2.5341 
G01 X-2.1823 Y2.5332 
G01 X-2.1831 Y2.5326 
G01 X-2.1839 Y2.5319 
G01 X-2.1851 Y2.5313 
G01 X-2.2154 Y2.5111 
G01 X-2.2173 Y2.5098 
G01 X-2.2196 Y2.5089 
G01 X-2.2218 Y2.5079 
G01 X-2.2242 Y2.5075 
G01 X-2.2265 Y2.5070 
G01 X-2.2289 Y2.5070 
G01 X-2.2486 Y2.5070 
G01 X-2.2546 Y2.5010 
G01 X-2.2587 Y2.4983 
G01 X-2.2631 Y2.4964 
G01 X-2.2678 Y2.4955 
G01 X-2.3924 Y2.4955 
G01 X-2.3971 Y2.4964 
G01 X-2.4016 Y2.4983 
G01 X-2.4056 Y2.5010 
G01 X-2.4090 Y2.5044 
G01 X-2.4117 Y2.5084 
G01 X-2.4136 Y2.5129 
G01 X-2.4145 Y2.5176 
G01 X-2.4145 Y2.5850 
G01 X-2.4145 Y2.5873 
G01 X-2.4145 Y2.5874 
G01 X-2.4145 Y2.5875 
G01 X-2.4144 Y2.5881 
G01 X-2.4145 Y2.5994 
G01 X-2.4145 Y2.5995 
G01 X-2.4145 Y2.6018 
G01 X-2.4145 Y2.6041 
G01 X-2.4145 Y2.6043 
G01 X-2.4145 Y2.6156 
G01 X-2.4146 Y2.6162 
G01 X-2.4146 Y2.6163 
G01 X-2.4147 Y2.6164 
G01 X-2.4147 Y2.6187 
G01 X-2.4158 Y2.7453 
G01 X-2.4158 Y2.7454 
G01 X-2.4158 Y2.7477 
G01 X-2.4158 Y2.7500 
G01 X-2.4158 Y2.7502 
G01 X-2.4158 Y2.8223 
G01 X-2.4251 Y2.8447 
G01 X-2.4422 Y2.8618 
G01 X-2.4645 Y2.8710 
G01 X-2.4887 Y2.8710 
G01 X-2.5110 Y2.8618 
G01 X-2.5281 Y2.8447 
G01 X-2.5373 Y2.8223 
G01 X-2.5373 Y2.7271 
G01 X-2.5371 Y2.7259 
G01 X-2.5366 Y2.7236 
G01 X-2.5366 Y2.7235 
G01 X-2.5366 Y2.7234 
G01 X-2.5366 Y2.7211 
G01 X-2.5355 Y2.6037 
G01 X-2.5355 Y2.6036 
G01 X-2.5355 Y2.6013 
G01 X-2.5355 Y2.5990 
G01 X-2.5355 Y2.5989 
G01 X-2.5355 Y2.4142 
G01 X-2.5354 Y2.4127 
G01 X-2.5355 Y2.4118 
G01 X-2.5355 Y2.4108 
G01 X-2.5358 Y2.4094 
G01 X-2.5360 Y2.4079 
G01 X-2.5363 Y2.4070 
G01 X-2.5364 Y2.4061 
G01 X-2.5370 Y2.4047 
G01 X-2.5374 Y2.4033 
G01 X-2.5379 Y2.4025 
G01 X-2.5383 Y2.4016 
G01 X-2.5391 Y2.4004 
G01 X-2.5398 Y2.3991 
G01 X-2.5404 Y2.3984 
G01 X-2.5410 Y2.3976 
G01 X-2.5420 Y2.3966 
G01 X-2.5429 Y2.3955 
G01 X-2.5437 Y2.3949 
G01 X-2.5444 Y2.3942 
G01 X-2.5456 Y2.3934 
G01 X-2.5467 Y2.3925 
G01 X-2.5476 Y2.3920 
G01 X-2.5484 Y2.3915 
G01 X-2.5497 Y2.3909 
G01 X-2.5505 Y2.3906 
G01 X-2.5505 Y2.3793 
G01 X-2.5482 Y2.3770 
G01 X-2.5444 Y2.3713 
G01 X-2.5418 Y2.3651 
G01 X-2.5405 Y2.3584 
G01 X-2.5405 Y2.2916 
G01 X-2.5418 Y2.2849 
G01 X-2.5444 Y2.2787 
G01 X-2.5482 Y2.2730 
G01 X-2.5505 Y2.2707 
G01 X-2.5505 Y2.2685 
G01 X-2.5495 Y2.2690 
G01 X-2.5477 Y2.2698 
G01 X-2.5472 Y2.2699 
G01 X-2.5468 Y2.2701 
G01 X-2.5449 Y2.2705 
G01 X-2.5430 Y2.2709 
G01 X-2.5425 Y2.2709 
G01 X-2.5421 Y2.2710 
G01 X-2.5401 Y2.2710 
G01 X-2.5382 Y2.2711 
G01 X-2.5377 Y2.2710 
G01 X-2.5372 Y2.2710 
G01 X-2.5353 Y2.2706 
G01 X-2.5334 Y2.2703 
G01 X-2.5330 Y2.2702 
G01 X-2.5325 Y2.2701 
G01 X-2.5307 Y2.2693 
G01 X-2.5289 Y2.2687 
G01 X-2.5285 Y2.2684 
G01 X-2.5280 Y2.2682 
G01 X-2.5264 Y2.2672 
G01 X-2.5248 Y2.2661 
G01 X-2.5244 Y2.2658 
G01 X-2.5240 Y2.2655 
G01 X-2.5227 Y2.2642 
G01 X-2.5213 Y2.2629 
G01 X-2.5210 Y2.2625 
G01 X-2.5064 Y2.2479 
G01 X-2.4860 Y2.2395 
G01 X-2.4640 Y2.2395 
G01 X-2.4436 Y2.2479 
G01 X-2.4279 Y2.2636 
G01 X-2.4267 Y2.2666 
G01 X-2.4240 Y2.2706 
G01 X-2.4206 Y2.2740 
G01 X-2.4166 Y2.2767 
G01 X-2.4121 Y2.2786 
G01 X-2.4074 Y2.2795 
G01 X-2.2941 Y2.2795 
G01 X-2.2926 Y2.2796 
G01 X-2.2917 Y2.2795 
G01 X-2.2908 Y2.2795 
G01 X-2.2893 Y2.2792 
G01 X-2.2878 Y2.2790 
G01 X-2.2870 Y2.2787 
G01 X-2.2861 Y2.2786 
G01 X-2.2847 Y2.2780 
G01 X-2.2832 Y2.2775 
G01 X-2.2825 Y2.2770 
G01 X-2.2817 Y2.2767 
G01 X-2.2804 Y2.2759 
G01 X-2.2790 Y2.2751 
G01 X-2.2784 Y2.2745 
G01 X-2.2776 Y2.2740 
G01 X-2.2766 Y2.2729 
G01 X-2.2754 Y2.2719 
G01 X-2.2749 Y2.2712 
G01 X-2.2742 Y2.2706 
G01 X-2.2734 Y2.2693 
G01 X-2.2724 Y2.2681 
G01 X-2.2720 Y2.2673 
G01 X-2.2716 Y2.2666 
G01 X-2.2710 Y2.2652 
G01 X-2.2488 Y2.2208 
G01 X-2.2483 Y2.2201 
G01 X-2.2477 Y2.2187 
G01 X-2.2470 Y2.2173 
G01 X-2.2468 Y2.2164 
G01 X-2.2464 Y2.2156 
G01 X-2.2461 Y2.2141 
G01 X-2.2457 Y2.2126 
G01 X-2.2457 Y2.2117 
G01 X-2.2455 Y2.2109 
G01 X-2.2455 Y2.2093 
G01 X-2.2454 Y2.2078 
G01 X-2.2455 Y2.2069 
G01 X-2.2455 Y2.1476 
G01 X-2.2454 Y2.1466 
G01 X-2.2455 Y2.1452 
G01 X-2.2455 Y2.1437 
G01 X-2.2457 Y2.1428 
G01 X-2.2458 Y2.1418 
G01 X-2.2462 Y2.1404 
G01 X-2.2464 Y2.1390 
G01 X-2.2468 Y2.1381 
G01 X-2.2471 Y2.1372 
G01 X-2.2477 Y2.1359 
G01 X-2.2483 Y2.1345 
G01 X-2.2488 Y2.1337 
G01 X-2.2492 Y2.1329 
G01 X-2.2502 Y2.1317 
G01 X-2.2510 Y2.1305 
G01 X-2.2516 Y2.1298 
G01 X-2.2522 Y2.1291 
G01 X-2.2533 Y2.1281 
G01 X-2.2544 Y2.1271 
G01 X-2.2552 Y2.1265 
G01 X-2.2559 Y2.1259 
G01 X-2.2572 Y2.1252 
G01 X-2.2584 Y2.1244 
G01 X-2.2593 Y2.1240 
G01 X-2.2601 Y2.1236 
G01 X-2.2615 Y2.1231 
G01 X-2.2629 Y2.1225 
G01 X-2.2638 Y2.1224 
G01 X-2.2647 Y2.1221 
G01 X-2.2661 Y2.1219 
G01 X-2.2676 Y2.1216 
G01 X-2.2685 Y2.1216 
G01 X-2.2753 Y2.1208 
G01 X-2.2768 Y2.1205 
G01 X-2.2777 Y2.1205 
G01 X-2.2787 Y2.1204 
G01 X-2.2801 Y2.1205 
G01 X-2.2840 Y2.1205 
G01 X-2.2844 Y2.1204 
G01 X-2.2857 Y2.1198 
G01 X-2.2867 Y2.1196 
G01 X-2.2876 Y2.1193 
G01 X-2.2890 Y2.1191 
G01 X-2.2895 Y2.1191 
G01 X-2.2928 Y2.1172 
G01 X-2.2940 Y2.1164 
G01 X-2.2949 Y2.1160 
G01 X-2.2958 Y2.1155 
G01 X-2.2971 Y2.1151 
G01 X-2.3007 Y2.1136 
G01 X-2.3010 Y2.1133 
G01 X-2.3021 Y2.1123 
G01 X-2.3029 Y2.1117 
G01 X-2.3036 Y2.1111 
G01 X-2.3049 Y2.1104 
G01 X-2.3052 Y2.1102 
G01 X-2.3076 Y2.1071 
G01 X-2.3084 Y2.1059 
G01 X-2.3091 Y2.1052 
G01 X-2.3097 Y2.1045 
G01 X-2.3108 Y2.1035 
G01 X-2.3135 Y2.1008 
G01 X-2.3137 Y2.1004 
G01 X-2.3143 Y2.0991 
G01 X-2.3148 Y2.0983 
G01 X-2.3152 Y2.0974 
G01 X-2.3161 Y2.0963 
G01 X-2.3170 Y2.0951 
G01 X-2.3176 Y2.0944 
G01 X-2.4451 Y1.9321 
G01 X-2.4459 Y1.9309 
G01 X-2.4466 Y1.9302 
G01 X-2.4472 Y1.9295 
G01 X-2.4483 Y1.9285 
G01 X-2.4510 Y1.9258 
G01 X-2.4512 Y1.9254 
G01 X-2.4518 Y1.9241 
G01 X-2.4523 Y1.9233 
G01 X-2.4527 Y1.9224 
G01 X-2.4536 Y1.9213 
G01 X-2.4539 Y1.9209 
G01 X-2.4541 Y1.9202 
G01 X-2.4548 Y1.9189 
G01 X-2.4553 Y1.9175 
G01 X-2.4558 Y1.9168 
G01 X-2.4563 Y1.9159 
G01 X-2.4572 Y1.9148 
G01 X-2.4580 Y1.9135 
G01 X-2.4587 Y1.9129 
G01 X-2.4593 Y1.9121 
G01 X-2.4604 Y1.9112 
G01 X-2.4614 Y1.9101 
G01 X-2.4622 Y1.9096 
G01 X-2.4629 Y1.9090 
G01 X-2.4642 Y1.9083 
G01 X-2.4654 Y1.9074 
G01 X-2.4663 Y1.9071 
G01 X-2.4671 Y1.9066 
G01 X-2.4685 Y1.9062 
G01 X-2.4699 Y1.9056 
G01 X-2.4708 Y1.9054 
G01 X-2.4717 Y1.9051 
G01 X-2.4732 Y1.9049 
G01 X-2.4746 Y1.9046 
G01 X-2.4756 Y1.9046 
G01 X-2.4765 Y1.9045 
G01 X-2.4780 Y1.9046 
G01 X-2.4794 Y1.9046 
G01 X-2.4804 Y1.9048 
G01 X-2.4813 Y1.9049 
G01 X-2.4827 Y1.9053 
G01 X-2.4837 Y1.9055 
G01 X-2.5324 Y1.9055 
G01 X-2.5371 Y1.9064 
G01 X-2.5416 Y1.9083 
G01 X-2.5456 Y1.9110 
G01 X-2.5490 Y1.9144 
G01 X-2.5517 Y1.9184 
G01 X-2.5536 Y1.9229 
G01 X-2.5545 Y1.9276 
G01 X-2.5545 Y1.9399 
G01 X-2.5536 Y1.9447 
G01 X-2.5517 Y1.9491 
G01 X-2.5490 Y1.9531 
G01 X-2.5485 Y1.9537 
G01 X-2.5485 Y1.9963 
G01 X-2.5490 Y1.9969 
G01 X-2.5517 Y2.0009 
G01 X-2.5520 Y2.0016 
G01 X-2.5536 Y2.0053 
G01 X-2.5545 Y2.0101 
G01 X-2.5545 Y2.0399 
G01 X-2.5536 Y2.0447 
G01 X-2.5517 Y2.0491 
G01 X-2.5490 Y2.0531 
G01 X-2.5485 Y2.0537 
G01 X-2.5485 Y2.0963 
G01 X-2.5787 Y2.1265 
G01 X-2.6213 Y2.1265 
G01 X-2.6462 Y2.1016 
G01 X-2.6468 Y2.1008 
G01 X-2.6479 Y2.0999 
G01 X-2.6490 Y2.0989 
G01 X-2.6498 Y2.0983 
G01 X-2.6505 Y2.0977 
G01 X-2.6518 Y2.0970 
G01 X-2.6530 Y2.0962 
G01 X-2.6539 Y2.0958 
G01 X-2.6547 Y2.0953 
G01 X-2.6561 Y2.0949 
G01 X-2.6574 Y2.0943 
G01 X-2.6584 Y2.0942 
G01 X-2.6593 Y2.0939 
G01 X-2.6607 Y2.0937 
G01 X-2.6622 Y2.0934 
G01 X-2.6631 Y2.0934 
G01 X-2.6641 Y2.0933 
G01 X-2.6655 Y2.0934 
G01 X-2.6670 Y2.0934 
G01 X-2.6679 Y2.0936 
G01 X-2.6689 Y2.0937 
G01 X-2.6703 Y2.0941 
G01 X-2.6717 Y2.0943 
G01 X-2.6726 Y2.0947 
G01 X-2.6735 Y2.0950 
G01 X-2.6748 Y2.0956 
G01 X-2.6762 Y2.0962 
G01 X-2.6770 Y2.0967 
G01 X-2.6778 Y2.0972 
G01 X-2.6790 Y2.0981 
G01 X-2.6802 Y2.0989 
G01 X-2.6809 Y2.0996 
G01 X-2.6816 Y2.1002 
G01 X-2.6826 Y2.1013 
G01 X-2.6836 Y2.1023 
G01 X-2.6841 Y2.1031 
G01 X-2.6848 Y2.1038 
G01 X-2.6855 Y2.1051 
G01 X-2.6863 Y2.1063 
G01 X-2.6867 Y2.1072 
G01 X-2.6871 Y2.1080 
G01 X-2.6876 Y2.1094 
G01 X-2.6881 Y2.1108 
G01 X-2.6883 Y2.1117 
G01 X-2.6893 Y2.1148 
G01 X-2.6921 Y2.1202 
G01 X-2.6956 Y2.1251 
G01 X-2.6999 Y2.1294 
G01 X-2.7005 Y2.1298 
G01 X-2.7005 Y2.1285 
G01 X-2.6959 Y2.1239 
G01 X-2.6918 Y2.1178 
G01 X-2.6889 Y2.1109 
G01 X-2.6875 Y2.1037 
G01 X-2.6875 Y2.0963 
G01 X-2.6889 Y2.0891 
G01 X-2.6918 Y2.0822 
G01 X-2.6959 Y2.0761 
G01 X-2.7005 Y2.0715 
G01 X-2.7005 Y2.0702 
G01 X-2.6999 Y2.0706 
G01 X-2.6957 Y2.0748 
G01 X-2.6950 Y2.0759 
G01 X-2.6947 Y2.0762 
G01 X-2.6944 Y2.0766 
G01 X-2.6930 Y2.0779 
G01 X-2.6916 Y2.0793 
G01 X-2.6912 Y2.0796 
G01 X-2.6909 Y2.0799 
G01 X-2.6892 Y2.0809 
G01 X-2.6876 Y2.0820 
G01 X-2.6872 Y2.0822 
G01 X-2.6867 Y2.0824 
G01 X-2.6849 Y2.0831 
G01 X-2.6831 Y2.0838 
G01 X-2.6827 Y2.0839 
G01 X-2.6822 Y2.0841 
G01 X-2.6803 Y2.0844 
G01 X-2.6784 Y2.0848 
G01 X-2.6779 Y2.0848 
G01 X-2.6775 Y2.0848 
G01 X-2.6755 Y2.0848 
G01 X-2.6736 Y2.0848 
G01 X-2.6731 Y2.0847 
G01 X-2.6726 Y2.0846 
G01 X-2.6707 Y2.0842 
G01 X-2.6689 Y2.0838 
G01 X-2.6684 Y2.0836 
G01 X-2.6679 Y2.0835 
G01 X-2.6662 Y2.0827 
G01 X-2.6644 Y2.0820 
G01 X-2.6640 Y2.0817 
G01 X-2.6636 Y2.0815 
G01 X-2.6620 Y2.0804 
G01 X-2.6604 Y2.0793 
G01 X-2.6600 Y2.0789 
G01 X-2.6596 Y2.0787 
G01 X-2.6583 Y2.0772 
G01 X-2.6570 Y2.0759 
G01 X-2.6567 Y2.0755 
G01 X-2.6564 Y2.0751 
G01 X-2.6554 Y2.0735 
G01 X-2.6543 Y2.0719 
G01 X-2.6541 Y2.0714 
G01 X-2.6538 Y2.0710 
G01 X-2.6532 Y2.0692 
G01 X-2.6524 Y2.0674 
G01 X-2.6523 Y2.0669 
G01 X-2.6522 Y2.0665 
G01 X-2.6519 Y2.0646 
G01 X-2.6515 Y2.0627 
G01 X-2.6515 Y2.0622 
G01 X-2.6514 Y2.0617 
G01 X-2.6515 Y2.0598 
G01 X-2.6515 Y2.0537 
G01 X-2.6510 Y2.0531 
G01 X-2.6483 Y2.0491 
G01 X-2.6464 Y2.0447 
G01 X-2.6455 Y2.0399 
G01 X-2.6455 Y2.0101 
G01 X-2.6464 Y2.0053 
G01 X-2.6479 Y2.0017 
G01 X-2.6483 Y2.0009 
G01 X-2.6510 Y1.9969 
G01 X-2.6515 Y1.9963 
G01 X-2.6515 Y1.9537 
G01 X-2.6510 Y1.9531 
G01 X-2.6483 Y1.9491 
G01 X-2.6464 Y1.9447 
G01 X-2.6455 Y1.9399 
G01 X-2.6455 Y1.8872 
G01 X-2.6454 Y1.8857 
G01 X-2.6455 Y1.8848 
G01 X-2.6455 Y1.8839 
G01 X-2.6458 Y1.8824 
G01 X-2.6460 Y1.8809 
G01 X-2.6457 Y1.8758 
G01 X-2.6455 Y1.8749 
G01 X-2.6455 Y1.8734 
G01 X-2.6454 Y1.8718 
G01 X-2.6455 Y1.8710 
G01 X-2.6455 Y1.8659 
G01 X-2.6452 Y1.8643 
G01 X-2.6448 Y1.8628 
G01 X-2.6447 Y1.8627 
G01 X-2.6425 Y1.8582 
G01 X-2.6420 Y1.8575 
G01 X-2.6414 Y1.8561 
G01 X-2.6407 Y1.8547 
G01 X-2.6405 Y1.8539 
G01 X-2.6386 Y1.8492 
G01 X-2.6376 Y1.8479 
G01 X-2.6367 Y1.8466 
G01 X-2.6329 Y1.8433 
G01 X-2.6321 Y1.8428 
G01 X-2.6310 Y1.8417 
G01 X-2.6299 Y1.8407 
G01 X-2.6293 Y1.8400 
G01 X-2.6250 Y1.8356 
G01 X-2.6223 Y1.8316 
G01 X-2.6204 Y1.8271 
G01 X-2.6195 Y1.8224 
G01 X-2.6195 Y1.8176 
G01 X-2.6204 Y1.8129 
G01 X-2.6223 Y1.8084 
G01 X-2.6250 Y1.8044 
G01 X-2.6284 Y1.8010 
G01 X-2.6324 Y1.7983 
G01 X-2.6368 Y1.7964 
G01 X-2.6416 Y1.7955 
G01 X-2.6841 Y1.7955 
G01 X-2.6971 Y1.7901 
G01 X-2.6979 Y1.7896 
G01 X-2.6993 Y1.7892 
G01 X-2.7006 Y1.7886 
G01 X-2.7016 Y1.7884 
G01 X-2.7025 Y1.7882 
G01 X-2.7039 Y1.7880 
G01 X-2.7054 Y1.7877 
G01 X-2.7063 Y1.7877 
G01 X-2.7073 Y1.7876 
G01 X-2.7087 Y1.7877 
G01 X-2.7102 Y1.7877 
G01 X-2.7111 Y1.7879 
G01 X-2.7121 Y1.7879 
G01 X-2.7135 Y1.7883 
G01 X-2.7149 Y1.7886 
G01 X-2.7158 Y1.7890 
G01 X-2.7167 Y1.7892 
G01 X-2.7180 Y1.7899 
G01 X-2.7194 Y1.7905 
G01 X-2.7202 Y1.7910 
G01 X-2.7210 Y1.7914 
G01 X-2.7222 Y1.7923 
G01 X-2.7234 Y1.7932 
G01 X-2.7241 Y1.7938 
G01 X-2.7248 Y1.7944 
G01 X-2.7258 Y1.7955 
G01 X-2.7268 Y1.7966 
G01 X-2.7273 Y1.7974 
G01 X-2.7280 Y1.7981 
G01 X-2.7287 Y1.7994 
G01 X-2.7295 Y1.8006 
G01 X-2.7299 Y1.8015 
G01 X-2.7811 Y1.8926 
G01 X-2.7820 Y1.8939 
G01 X-2.7823 Y1.8947 
G01 X-2.7827 Y1.8954 
G01 X-2.7832 Y1.8969 
G01 X-2.7845 Y1.9002 
G01 X-2.7850 Y1.9008 
G01 X-2.7861 Y1.9019 
G01 X-2.7866 Y1.9026 
G01 X-2.7871 Y1.9032 
G01 X-2.7879 Y1.9046 
G01 X-2.7883 Y1.9053 
G01 X-2.7911 Y1.9074 
G01 X-2.7924 Y1.9084 
G01 X-2.7930 Y1.9089 
G01 X-2.7936 Y1.9094 
G01 X-2.7946 Y1.9106 
G01 X-2.7971 Y1.9132 
G01 X-2.7978 Y1.9135 
G01 X-2.7993 Y1.9142 
G01 X-2.7999 Y1.9146 
G01 X-2.8006 Y1.9150 
G01 X-2.8019 Y1.9160 
G01 X-2.8026 Y1.9164 
G01 X-2.8059 Y1.9174 
G01 X-2.8075 Y1.9177 
G01 X-2.8083 Y1.9180 
G01 X-2.8090 Y1.9182 
G01 X-2.8105 Y1.9190 
G01 X-2.8137 Y1.9203 
G01 X-2.8145 Y1.9204 
G01 X-2.8161 Y1.9204 
G01 X-2.8169 Y1.9206 
G01 X-2.8177 Y1.9206 
G01 X-2.8192 Y1.9211 
G01 X-2.8200 Y1.9212 
G01 X-2.8235 Y1.9208 
G01 X-2.8251 Y1.9205 
G01 X-2.8259 Y1.9205 
G01 X-2.8267 Y1.9204 
G01 X-2.8283 Y1.9206 
G01 X-2.8633 Y1.9210 
G01 X-2.8655 Y1.9210 
G01 X-2.8657 Y1.9210 
G01 X-2.8658 Y1.9210 
G01 X-2.8680 Y1.9215 
G01 X-2.8703 Y1.9219 
G01 X-2.8704 Y1.9220 
G01 X-2.8706 Y1.9220 
G01 X-2.8726 Y1.9229 
G01 X-2.8747 Y1.9238 
G01 X-2.8748 Y1.9239 
G01 X-2.8750 Y1.9239 
G01 X-2.8769 Y1.9252 
G01 X-2.8787 Y1.9265 
G01 X-2.8788 Y1.9266 
G01 X-2.8790 Y1.9267 
G01 X-2.8803 Y1.9281 
G01 X-2.9027 Y1.9373 
G01 X-2.9973 Y1.9373 
G01 X-3.0197 Y1.9281 
G01 X-3.0368 Y1.9110 
G01 X-3.0460 Y1.8887 
G01 X-3.0460 Y1.8645 
G01 X-3.0368 Y1.8422 
G01 X-3.0197 Y1.8251 
G01 X-2.9973 Y1.8158 
G01 X-2.9027 Y1.8158 
G01 X-2.8797 Y1.8253 
G01 X-2.8787 Y1.8260 
G01 X-2.8769 Y1.8272 
G01 X-2.8767 Y1.8273 
G01 X-2.8766 Y1.8274 
G01 X-2.8745 Y1.8282 
G01 X-2.8724 Y1.8291 
G01 X-2.8722 Y1.8291 
G01 X-2.8721 Y1.8292 
G01 X-2.8699 Y1.8296 
G01 X-2.8677 Y1.8300 
G01 X-2.8675 Y1.8300 
G01 X-2.8674 Y1.8300 
G01 X-2.8660 Y1.8300 
G01 X-2.8652 Y1.8301 
G01 X-2.8638 Y1.8300 
G01 X-2.8628 Y1.8300 
G01 X-2.8627 Y1.8300 
G01 X-2.8619 Y1.8300 
G01 X-2.8612 Y1.8298 
G01 X-2.8604 Y1.8298 
G01 X-2.8588 Y1.8293 
G01 X-2.8572 Y1.8290 
G01 X-2.8565 Y1.8287 
G01 X-2.8557 Y1.8284 
G01 X-2.8543 Y1.8277 
G01 X-2.8528 Y1.8271 
G01 X-2.8521 Y1.8266 
G01 X-2.8514 Y1.8263 
G01 X-2.8501 Y1.8253 
G01 X-2.8488 Y1.8243 
G01 X-2.8482 Y1.8238 
G01 X-2.8476 Y1.8233 
G01 X-2.8466 Y1.8221 
G01 X-2.8454 Y1.8209 
G01 X-2.8450 Y1.8202 
G01 X-2.8445 Y1.8196 
G01 X-2.8437 Y1.8182 
G01 X-2.8428 Y1.8168 
G01 X-2.8425 Y1.8161 
G01 X-2.7871 Y1.7176 
G01 X-2.7863 Y1.7164 
G01 X-2.7859 Y1.7155 
G01 X-2.7855 Y1.7147 
G01 X-2.7850 Y1.7133 
G01 X-2.7844 Y1.7119 
G01 X-2.7843 Y1.7110 
G01 X-2.7840 Y1.7101 
G01 X-2.7838 Y1.7086 
G01 X-2.7835 Y1.7072 
G01 X-2.7835 Y1.7062 
G01 X-2.7834 Y1.7053 
G01 X-2.7835 Y1.7038 
G01 X-2.7835 Y1.6884 
G01 X-2.7774 Y1.6736 
G01 X-2.7430 Y1.6441 
G01 X-2.7366 Y1.6415 
G01 X-2.7134 Y1.6415 
G01 X-2.6919 Y1.6504 
G01 X-2.6754 Y1.6669 
G01 X-2.6670 Y1.6871 
G01 X-2.6652 Y1.6916 
G01 X-2.6641 Y1.6932 
G01 X-2.6625 Y1.6956 
G01 X-2.6591 Y1.6990 
G01 X-2.6551 Y1.7017 
G01 X-2.6506 Y1.7036 
G01 X-2.6459 Y1.7045 
G01 X-2.6268 Y1.7045 
G01 X-2.6220 Y1.7036 
G01 X-2.6202 Y1.7028 
G01 X-2.6176 Y1.7017 
G01 X-2.6135 Y1.6990 
G01 X-2.6101 Y1.6956 
G01 X-2.6075 Y1.6916 
G01 X-2.6056 Y1.6871 
G01 X-2.6049 Y1.6837 
G01 X-2.6047 Y1.6824 
G01 X-2.6047 Y1.6776 
G01 X-2.6056 Y1.6729 
G01 X-2.6070 Y1.6696 
G01 X-2.6075 Y1.6684 
G01 X-2.6105 Y1.6610 
G01 X-2.6105 Y1.6390 
G01 X-2.6021 Y1.6186 
G01 X-2.5864 Y1.6029 
G01 X-2.5781 Y1.5995 
G01 X-2.4719 Y1.5995 
G01 X-2.4636 Y1.6029 
G01 X-2.4479 Y1.6186 
G01 X-2.4470 Y1.6209 
G01 X-2.4468 Y1.6217 
G01 X-2.4461 Y1.6231 
G01 X-2.4455 Y1.6245 
G01 X-2.4450 Y1.6253 
G01 X-2.4446 Y1.6260 
G01 X-2.4437 Y1.6273 
G01 X-2.4428 Y1.6286 
G01 X-2.4422 Y1.6292 
G01 X-2.4417 Y1.6299 
G01 X-2.4405 Y1.6309 
G01 X-2.4394 Y1.6320 
G01 X-2.4387 Y1.6325 
G01 X-2.4380 Y1.6330 
G01 X-2.4367 Y1.6338 
G01 X-2.4354 Y1.6347 
G01 X-2.4346 Y1.6350 
G01 X-2.3945 Y1.6579 
G01 X-2.3932 Y1.6587 
G01 X-2.3924 Y1.6591 
G01 X-2.3917 Y1.6595 
G01 X-2.3910 Y1.6597 
G01 X-2.3896 Y1.6602 
G01 X-2.3878 Y1.6610 
G01 X-2.3874 Y1.6611 
G01 X-2.3869 Y1.6612 
G01 X-2.3850 Y1.6615 
G01 X-2.3831 Y1.6619 
G01 X-2.3826 Y1.6619 
G01 X-2.3821 Y1.6620 
G01 X-2.3802 Y1.6619 
G01 X-2.3783 Y1.6619 
G01 X-2.3778 Y1.6618 
G01 X-2.3773 Y1.6618 
G01 X-2.3755 Y1.6613 
G01 X-2.3736 Y1.6610 
G01 X-2.3731 Y1.6608 
G01 X-2.3726 Y1.6607 
G01 X-2.3709 Y1.6599 
G01 X-2.3691 Y1.6591 
G01 X-2.3687 Y1.6588 
G01 X-2.3683 Y1.6586 
G01 X-2.3667 Y1.6575 
G01 X-2.3651 Y1.6564 
G01 X-2.3647 Y1.6561 
G01 X-2.3643 Y1.6558 
G01 X-2.3630 Y1.6544 
G01 X-2.3617 Y1.6530 
G01 X-2.3614 Y1.6526 
G01 X-2.3611 Y1.6523 
G01 X-2.3601 Y1.6506 
G01 X-2.3590 Y1.6490 
G01 X-2.3588 Y1.6486 
G01 X-2.3586 Y1.6481 
G01 X-2.3579 Y1.6463 
G01 X-2.3571 Y1.6446 
G01 X-2.3570 Y1.6441 
G01 X-2.3569 Y1.6436 
G01 X-2.3567 Y1.6426 
G01 X-2.3552 Y1.6379 
G01 X-2.3529 Y1.6335 
G01 X-2.3500 Y1.6295 
G01 X-2.3465 Y1.6260 
G01 X-2.3425 Y1.6231 
G01 X-2.3381 Y1.6208 
G01 X-2.3334 Y1.6193 
G01 X-2.3285 Y1.6185 
G01 X-2.3245 Y1.6185 
G01 X-2.3245 Y1.6195 
G01 X-2.3290 Y1.6195 
G01 X-2.3349 Y1.6207 
G01 X-2.3404 Y1.6230 
G01 X-2.3454 Y1.6263 
G01 X-2.3497 Y1.6306 
G01 X-2.3530 Y1.6356 
G01 X-2.3553 Y1.6411 
G01 X-2.3565 Y1.6470 
G01 X-2.3565 Y1.6530 
G01 X-2.3553 Y1.6589 
G01 X-2.3530 Y1.6644 
G01 X-2.3497 Y1.6694 
G01 X-2.3454 Y1.6737 
G01 X-2.3404 Y1.6770 
G01 X-2.3349 Y1.6793 
G01 X-2.3290 Y1.6805 
G01 X-2.2710 Y1.6805 
G01 X-2.2651 Y1.6793 
G01 X-2.2596 Y1.6770 
G01 X-2.2558 Y1.6745 
G01 X-2.2505 Y1.6745 
G01 X-2.2505 Y1.6747 
G01 X-2.2510 Y1.6766 
G01 X-2.2510 Y1.6771 
G01 X-2.2511 Y1.6776 
G01 X-2.2511 Y1.6795 
G01 X-2.2512 Y1.6814 
G01 X-2.2511 Y1.6819 
G01 X-2.2511 Y1.6824 
G01 X-2.2507 Y1.6843 
G01 X-2.2504 Y1.6862 
G01 X-2.2502 Y1.6867 
G01 X-2.2501 Y1.6871 
G01 X-2.2494 Y1.6889 
G01 X-2.2487 Y1.6907 
G01 X-2.2485 Y1.6912 
G01 X-2.2483 Y1.6916 
G01 X-2.2472 Y1.6932 
G01 X-2.2462 Y1.6949 
G01 X-2.2459 Y1.6952 
G01 X-2.2456 Y1.6956 
G01 X-2.2442 Y1.6970 
G01 X-2.2429 Y1.6984 
G01 X-2.2425 Y1.6987 
G01 X-2.2422 Y1.6990 
G01 X-2.2406 Y1.7001 
G01 X-2.2390 Y1.7012 
G01 X-2.2386 Y1.7014 
G01 X-2.2382 Y1.7017 
G01 X-2.2364 Y1.7025 
G01 X-2.2346 Y1.7033 
G01 X-2.2342 Y1.7034 
G01 X-2.2337 Y1.7036 
G01 X-2.2318 Y1.7039 
G01 X-2.2300 Y1.7044 
G01 X-2.2295 Y1.7044 
G01 X-2.2290 Y1.7045 
G01 X-2.2271 Y1.7045 
G01 X-2.2251 Y1.7046 
G01 X-2.2246 Y1.7045 
G01 X-2.2159 Y1.7045 
G01 X-2.1992 Y1.7114 
G01 X-2.1813 Y1.7294 
G01 X-2.1614 Y1.7492 
G01 X-2.1545 Y1.7659 
G01 X-2.1545 Y1.7984 
G01 X-2.1536 Y1.8032 
G01 X-2.1517 Y1.8076 
G01 X-2.1490 Y1.8116 
G01 X-2.1479 Y1.8127 
G01 X-2.0819 Y1.8788 
G01 X-2.0808 Y1.8800 
G01 X-2.0802 Y1.8805 
G01 X-2.0796 Y1.8811 
G01 X-2.0783 Y1.8820 
G01 X-2.0770 Y1.8829 
G01 X-2.0763 Y1.8833 
G01 X-2.0756 Y1.8837 
G01 X-2.0741 Y1.8844 
G01 X-2.0726 Y1.8851 
G01 X-2.0719 Y1.8853 
G01 X-2.0711 Y1.8856 
G01 X-2.0695 Y1.8859 
G01 X-2.0680 Y1.8863 
G01 X-2.0672 Y1.8864 
G01 X-2.0664 Y1.8865 
G01 X-2.0648 Y1.8865 
G01 X-2.0632 Y1.8866 
G01 X-2.0624 Y1.8865 
G01 X-2.0616 Y1.8865 
G01 X-2.0600 Y1.8862 
G01 X-2.0584 Y1.8860 
G01 X-2.0576 Y1.8857 
G01 X-2.0568 Y1.8856 
G01 X-2.0553 Y1.8850 
G01 X-2.0538 Y1.8845 
G01 X-2.0531 Y1.8840 
G01 X-2.0524 Y1.8837 
G01 X-2.0510 Y1.8828 
G01 X-2.0496 Y1.8820 
G01 X-2.0490 Y1.8815 
G01 X-2.0484 Y1.8811 
G01 X-2.0472 Y1.8799 
G01 X-2.0460 Y1.8789 
G01 X-2.0455 Y1.8782 
G01 X-2.0449 Y1.8776 
G01 X-2.0441 Y1.8763 
G01 X-2.0431 Y1.8750 
G01 X-2.0428 Y1.8745 
G01 X-2.0311 Y1.8745 
G01 X-2.0307 Y1.8752 
G01 X-2.0252 Y1.8807 
G01 X-2.0187 Y1.8850 
G01 X-2.0115 Y1.8880 
G01 X-2.0039 Y1.8895 
G01 X-1.9961 Y1.8895 
G01 X-1.9885 Y1.8880 
G01 X-1.9813 Y1.8850 
G01 X-1.9748 Y1.8807 
G01 X-1.9693 Y1.8752 
G01 X-1.9689 Y1.8745 
G01 X-1.9674 Y1.8745 
G01 X-1.9674 Y1.8746 
G01 X-1.9680 Y1.8761 
G01 X-1.9686 Y1.8776 
G01 X-1.9687 Y1.8784 
G01 X-1.9690 Y1.8792 
G01 X-1.9692 Y1.8808 
G01 X-1.9695 Y1.8824 
G01 X-1.9695 Y1.8832 
G01 X-1.9696 Y1.8840 
G01 X-1.9695 Y1.8856 
G01 X-1.9695 Y1.8872 
G01 X-1.9694 Y1.8880 
G01 X-1.9693 Y1.8888 
G01 X-1.9689 Y1.8903 
G01 X-1.9686 Y1.8919 
G01 X-1.9683 Y1.8927 
G01 X-1.9681 Y1.8934 
G01 X-1.9673 Y1.8949 
G01 X-1.9667 Y1.8964 
G01 X-1.9663 Y1.8970 
G01 X-1.9659 Y1.8978 
G01 X-1.9649 Y1.8990 
G01 X-1.9641 Y1.9004 
G01 X-1.9635 Y1.9010 
G01 X-1.9630 Y1.9016 
G01 X-1.9618 Y1.9027 
G01 X-1.9487 Y1.9157 
G01 X-1.9417 Y1.9326 
G01 X-1.9390 Y1.9366 
G01 X-1.9356 Y1.9401 
G01 X-1.9316 Y1.9427 
G01 X-1.9271 Y1.9446 
G01 X-1.9224 Y1.9455 
G01 X-1.9176 Y1.9455 
G01 X-1.9167 Y1.9453 
G01 X-1.9129 Y1.9446 
G01 X-1.9084 Y1.9427 
G01 X-1.9044 Y1.9401 
G01 X-1.9010 Y1.9366 
G01 X-1.8983 Y1.9326 
G01 X-1.8964 Y1.9282 
G01 X-1.8955 Y1.9234 
G01 X-1.8955 Y1.7766 
G01 X-1.8964 Y1.7718 
G01 X-1.8983 Y1.7674 
G01 X-1.9010 Y1.7634 
G01 X-1.9043 Y1.7600 
G01 X-1.9084 Y1.7573 
G01 X-1.9129 Y1.7554 
G01 X-1.9166 Y1.7547 
G01 X-1.9176 Y1.7545 
G01 X-1.9224 Y1.7545 
G01 X-1.9271 Y1.7554 
G01 X-1.9316 Y1.7573 
G01 X-1.9356 Y1.7599 
G01 X-1.9390 Y1.7633 
G01 X-1.9417 Y1.7674 
G01 X-1.9487 Y1.7843 
G01 X-1.9618 Y1.7973 
G01 X-1.9630 Y1.7984 
G01 X-1.9635 Y1.7990 
G01 X-1.9641 Y1.7996 
G01 X-1.9649 Y1.8010 
G01 X-1.9659 Y1.8022 
G01 X-1.9663 Y1.8030 
G01 X-1.9667 Y1.8036 
G01 X-1.9673 Y1.8051 
G01 X-1.9681 Y1.8066 
G01 X-1.9683 Y1.8073 
G01 X-1.9686 Y1.8081 
G01 X-1.9689 Y1.8097 
G01 X-1.9693 Y1.8112 
G01 X-1.9694 Y1.8120 
G01 X-1.9695 Y1.8128 
G01 X-1.9695 Y1.8144 
G01 X-1.9696 Y1.8160 
G01 X-1.9695 Y1.8168 
G01 X-1.9695 Y1.8176 
G01 X-1.9692 Y1.8192 
G01 X-1.9690 Y1.8208 
G01 X-1.9687 Y1.8216 
G01 X-1.9686 Y1.8224 
G01 X-1.9680 Y1.8239 
G01 X-1.9674 Y1.8254 
G01 X-1.9674 Y1.8255 
G01 X-1.9689 Y1.8255 
G01 X-1.9693 Y1.8248 
G01 X-1.9748 Y1.8193 
G01 X-1.9813 Y1.8150 
G01 X-1.9885 Y1.8120 
G01 X-1.9961 Y1.8105 
G01 X-2.0039 Y1.8105 
G01 X-2.0115 Y1.8120 
G01 X-2.0187 Y1.8150 
G01 X-2.0252 Y1.8193 
G01 X-2.0307 Y1.8248 
G01 X-2.0311 Y1.8255 
G01 X-2.0326 Y1.8255 
G01 X-2.0326 Y1.8254 
G01 X-2.0320 Y1.8239 
G01 X-2.0314 Y1.8224 
G01 X-2.0313 Y1.8216 
G01 X-2.0310 Y1.8208 
G01 X-2.0308 Y1.8192 
G01 X-2.0305 Y1.8176 
G01 X-2.0305 Y1.8168 
G01 X-2.0304 Y1.8160 
G01 X-2.0305 Y1.8144 
G01 X-2.0305 Y1.8128 
G01 X-2.0306 Y1.8120 
G01 X-2.0307 Y1.8112 
G01 X-2.0311 Y1.8097 
G01 X-2.0314 Y1.8081 
G01 X-2.0317 Y1.8073 
G01 X-2.0319 Y1.8066 
G01 X-2.0327 Y1.8051 
G01 X-2.0333 Y1.8036 
G01 X-2.0337 Y1.8030 
G01 X-2.0341 Y1.8022 
G01 X-2.0351 Y1.8010 
G01 X-2.0359 Y1.7996 
G01 X-2.0365 Y1.7990 
G01 X-2.0370 Y1.7984 
G01 X-2.0382 Y1.7973 
G01 X-2.0513 Y1.7843 
G01 X-2.0605 Y1.7620 
G01 X-2.0605 Y1.7380 
G01 X-2.0513 Y1.7157 
G01 X-2.0512 Y1.7156 
G01 X-2.0501 Y1.7141 
G01 X-2.0485 Y1.7116 
G01 X-2.0476 Y1.7094 
G01 X-2.0466 Y1.7071 
G01 X-2.0460 Y1.7040 
G01 X-2.0457 Y1.7024 
G01 X-2.0457 Y1.7000 
G01 X-2.0457 Y1.6976 
G01 X-2.0461 Y1.6958 
G01 X-2.0466 Y1.6929 
G01 X-2.0478 Y1.6901 
G01 X-2.0485 Y1.6884 
G01 X-2.0501 Y1.6860 
G01 X-2.0512 Y1.6844 
G01 X-2.0513 Y1.6843 
G01 X-2.0605 Y1.6620 
G01 X-2.0605 Y1.6380 
G01 X-2.0513 Y1.6157 
G01 X-2.0512 Y1.6156 
G01 X-2.0494 Y1.6129 
G01 X-2.0485 Y1.6116 
G01 X-2.0468 Y1.6074 
G01 X-2.0466 Y1.6071 
G01 X-2.0457 Y1.6024 
G01 X-2.0457 Y1.5991 
G01 X-2.0457 Y1.5976 
G01 X-2.0464 Y1.5939 
G01 X-2.0466 Y1.5929 
G01 X-2.0484 Y1.5887 
G01 X-2.0485 Y1.5884 
G01 X-2.0509 Y1.5848 
G01 X-2.0512 Y1.5844 
G01 X-2.0513 Y1.5843 
G01 X-2.0605 Y1.5620 
G01 X-2.0605 Y1.5380 
G01 X-2.0513 Y1.5157 
G01 X-2.0512 Y1.5156 
G01 X-2.0501 Y1.5141 
G01 X-2.0485 Y1.5116 
G01 X-2.0476 Y1.5094 
G01 X-2.0466 Y1.5071 
G01 X-2.0460 Y1.5040 
G01 X-2.0457 Y1.5024 
G01 X-2.0457 Y1.5000 
G01 X-2.0457 Y1.4976 
G01 X-2.0461 Y1.4958 
G01 X-2.0466 Y1.4929 
G01 X-2.0478 Y1.4901 
G01 X-2.0485 Y1.4884 
G01 X-2.0501 Y1.4860 
G01 X-2.0512 Y1.4844 
G01 X-2.0513 Y1.4843 
G01 X-2.0605 Y1.4620 
G01 X-2.0605 Y1.4380 
G01 X-2.0513 Y1.4157 
G01 X-2.0512 Y1.4156 
G01 X-2.0501 Y1.4141 
G01 X-2.0485 Y1.4116 
G01 X-2.0476 Y1.4094 
G01 X-2.0466 Y1.4071 
G01 X-2.0460 Y1.4040 
G01 X-2.0457 Y1.4024 
G01 X-2.0457 Y1.4000 
G01 X-2.0457 Y1.3976 
G01 X-2.0461 Y1.3958 
G01 X-2.0466 Y1.3929 
G01 X-2.0478 Y1.3901 
G01 X-2.0485 Y1.3884 
G01 X-2.0501 Y1.3860 
G01 X-2.0512 Y1.3844 
G01 X-2.0513 Y1.3843 
G01 X-2.0605 Y1.3620 
G01 X-2.0605 Y1.3380 
G01 X-2.0513 Y1.3157 
G01 X-2.0512 Y1.3156 
G01 X-2.0501 Y1.3141 
G01 X-2.0485 Y1.3116 
G01 X-2.0476 Y1.3094 
G01 X-2.0466 Y1.3071 
G01 X-2.0460 Y1.3040 
G01 X-2.0457 Y1.3024 
G01 X-2.0457 Y1.3000 
G01 X-2.0457 Y1.2976 
G01 X-2.0461 Y1.2958 
G01 X-2.0466 Y1.2929 
G01 X-2.0478 Y1.2901 
G01 X-2.0485 Y1.2884 
G01 X-2.0501 Y1.2860 
G01 X-2.0512 Y1.2844 
G01 X-2.0513 Y1.2843 
G01 X-2.0605 Y1.2620 
G01 X-2.0605 Y1.2380 
G01 X-2.0513 Y1.2157 
G01 X-2.0512 Y1.2156 
G01 X-2.0501 Y1.2141 
G01 X-2.0485 Y1.2116 
G01 X-2.0476 Y1.2094 
G01 X-2.0466 Y1.2071 
G01 X-2.0460 Y1.2040 
G01 X-2.0457 Y1.2024 
G01 X-2.0457 Y1.2000 
G01 X-2.0457 Y1.1976 
G01 X-2.0461 Y1.1958 
G01 X-2.0466 Y1.1929 
G01 X-2.0478 Y1.1901 
G01 X-2.0485 Y1.1884 
G01 X-2.0501 Y1.1860 
G01 X-2.0512 Y1.1844 
G01 X-2.0513 Y1.1843 
G01 X-2.0605 Y1.1620 
G01 X-2.0605 Y1.1380 
G01 X-2.0513 Y1.1157 
G01 X-2.0512 Y1.1156 
G01 X-2.0501 Y1.1141 
G01 X-2.0485 Y1.1116 
G01 X-2.0476 Y1.1094 
G01 X-2.0466 Y1.1071 
G01 X-2.0460 Y1.1040 
G01 X-2.0457 Y1.1024 
G01 X-2.0457 Y1.1000 
G01 X-2.0457 Y1.0976 
G01 X-2.0461 Y1.0958 
G01 X-2.0466 Y1.0929 
G01 X-2.0478 Y1.0901 
G01 X-2.0485 Y1.0884 
G01 X-2.0501 Y1.0860 
G01 X-2.0512 Y1.0844 
G01 X-2.0513 Y1.0843 
G01 X-2.0604 Y1.0622 
G01 X-2.0605 Y1.0605 
G01 X-2.0605 Y1.0586 
G01 X-2.0606 Y1.0581 
G01 X-2.0606 Y1.0575 
G01 X-2.0611 Y1.0557 
G01 X-2.0614 Y1.0539 
G01 X-2.0617 Y1.0534 
G01 X-2.0618 Y1.0528 
G01 X-2.0626 Y1.0511 
G01 X-2.0633 Y1.0494 
G01 X-2.0636 Y1.0490 
G01 X-2.0639 Y1.0484 
G01 X-2.0650 Y1.0469 
G01 X-2.0660 Y1.0454 
G01 X-2.0664 Y1.0450 
G01 X-2.0668 Y1.0445 
G01 X-2.0681 Y1.0433 
G01 X-2.0694 Y1.0420 
G01 X-2.0699 Y1.0417 
G01 X-2.0703 Y1.0413 
G01 X-2.0719 Y1.0404 
G01 X-2.0734 Y1.0393 
G01 X-2.0739 Y1.0391 
G01 X-2.0745 Y1.0388 
G01 X-2.0762 Y1.0382 
G01 X-2.0779 Y1.0375 
G01 X-2.0784 Y1.0374 
G01 X-2.0790 Y1.0372 
G01 X-2.0808 Y1.0369 
G01 X-2.0826 Y1.0366 
G01 X-2.0832 Y1.0366 
G01 X-2.0838 Y1.0365 
G01 X-2.0856 Y1.0366 
G01 X-2.0874 Y1.0366 
G01 X-2.0880 Y1.0367 
G01 X-2.0886 Y1.0367 
G01 X-2.0904 Y1.0371 
G01 X-2.0921 Y1.0375 
G01 X-2.0927 Y1.0377 
G01 X-2.0933 Y1.0379 
G01 X-2.0949 Y1.0386 
G01 X-2.0966 Y1.0393 
G01 X-2.0971 Y1.0397 
G01 X-2.0976 Y1.0399 
G01 X-2.0991 Y1.0410 
G01 X-2.1006 Y1.0420 
G01 X-2.1010 Y1.0424 
G01 X-2.1015 Y1.0428 
G01 X-2.1027 Y1.0442 
G01 X-2.1040 Y1.0454 
G01 X-2.1044 Y1.0459 
G01 X-2.1048 Y1.0464 
G01 X-2.1057 Y1.0479 
G01 X-2.1067 Y1.0494 
G01 X-2.1069 Y1.0500 
G01 X-2.1257 Y1.0813 
G01 X-2.1267 Y1.0828 
G01 X-2.1269 Y1.0833 
G01 X-2.1273 Y1.0839 
G01 X-2.1279 Y1.0856 
G01 X-2.1286 Y1.0872 
G01 X-2.1287 Y1.0878 
G01 X-2.1289 Y1.0884 
G01 X-2.1291 Y1.0902 
G01 X-2.1295 Y1.0920 
G01 X-2.1295 Y1.0926 
G01 X-2.1296 Y1.0932 
G01 X-2.1295 Y1.0950 
G01 X-2.1295 Y1.3341 
G01 X-2.1364 Y1.3508 
G01 X-2.2180 Y1.4324 
G01 X-2.2207 Y1.4364 
G01 X-2.2226 Y1.4408 
G01 X-2.2235 Y1.4456 
G01 X-2.2235 Y1.4612 
G01 X-2.2313 Y1.4802 
G01 X-2.2458 Y1.4947 
G01 X-2.2648 Y1.5025 
G01 X-2.2852 Y1.5025 
G01 X-2.3042 Y1.4947 
G01 X-2.3094 Y1.4894 
G01 X-2.3115 Y1.4880 
G01 X-2.3134 Y1.4868 
G01 X-2.3160 Y1.4857 
G01 X-2.3179 Y1.4849 
G01 X-2.3226 Y1.4840 
G01 X-2.3274 Y1.4840 
G01 X-2.3292 Y1.4843 
G01 X-2.3321 Y1.4849 
G01 X-2.3366 Y1.4868 
G01 X-2.3385 Y1.4881 
G01 X-2.3406 Y1.4894 
G01 X-2.3440 Y1.4929 
G01 X-2.3458 Y1.4947 
G01 X-2.3648 Y1.5025 
G01 X-2.3852 Y1.5025 
G01 X-2.4042 Y1.4947 
G01 X-2.4206 Y1.4783 
G01 X-2.4208 Y1.4779 
G01 X-2.4223 Y1.4766 
G01 X-2.4236 Y1.4752 
G01 X-2.4240 Y1.4749 
G01 X-2.4244 Y1.4746 
G01 X-2.4260 Y1.4736 
G01 X-2.4276 Y1.4725 
G01 X-2.4281 Y1.4723 
G01 X-2.4285 Y1.4721 
G01 X-2.4303 Y1.4714 
G01 X-2.4321 Y1.4707 
G01 X-2.4326 Y1.4706 
G01 X-2.4330 Y1.4704 
G01 X-2.4349 Y1.4701 
G01 X-2.4368 Y1.4697 
G01 X-2.4373 Y1.4697 
G01 X-2.4378 Y1.4697 
G01 X-2.4397 Y1.4697 
G01 X-2.4417 Y1.4697 
G01 X-2.4421 Y1.4698 
G01 X-2.4426 Y1.4699 
G01 X-2.4445 Y1.4703 
G01 X-2.4464 Y1.4707 
G01 X-2.4468 Y1.4709 
G01 X-2.4473 Y1.4710 
G01 X-2.4491 Y1.4718 
G01 X-2.4505 Y1.4724 
G01 X-2.4505 Y1.4692 
G01 X-2.4480 Y1.4654 
G01 X-2.4457 Y1.4599 
G01 X-2.4445 Y1.4540 
G01 X-2.4445 Y1.3960 
G01 X-2.4457 Y1.3901 
G01 X-2.4480 Y1.3846 
G01 X-2.4505 Y1.3808 
G01 X-2.4505 Y1.3776 
G01 X-2.4491 Y1.3782 
G01 X-2.4473 Y1.3790 
G01 X-2.4468 Y1.3791 
G01 X-2.4464 Y1.3793 
G01 X-2.4445 Y1.3797 
G01 X-2.4426 Y1.3801 
G01 X-2.4421 Y1.3802 
G01 X-2.4417 Y1.3803 
G01 X-2.4397 Y1.3803 
G01 X-2.4378 Y1.3803 
G01 X-2.4373 Y1.3803 
G01 X-2.4368 Y1.3803 
G01 X-2.4349 Y1.3799 
G01 X-2.4330 Y1.3796 
G01 X-2.4326 Y1.3794 
G01 X-2.4321 Y1.3793 
G01 X-2.4303 Y1.3786 
G01 X-2.4285 Y1.3779 
G01 X-2.4281 Y1.3777 
G01 X-2.4276 Y1.3775 
G01 X-2.4260 Y1.3764 
G01 X-2.4244 Y1.3754 
G01 X-2.4240 Y1.3751 
G01 X-2.4236 Y1.3748 
G01 X-2.4223 Y1.3734 
G01 X-2.4208 Y1.3721 
G01 X-2.4206 Y1.3717 
G01 X-2.4042 Y1.3553 
G01 X-2.4039 Y1.3552 
G01 X-2.4019 Y1.3544 
G01 X-2.4017 Y1.3543 
G01 X-2.4016 Y1.3542 
G01 X-2.3997 Y1.3530 
G01 X-2.3978 Y1.3517 
G01 X-2.3977 Y1.3516 
G01 X-2.3976 Y1.3515 
G01 X-2.3960 Y1.3499 
G01 X-2.3944 Y1.3483 
G01 X-2.3943 Y1.3482 
G01 X-2.3942 Y1.3481 
G01 X-2.3930 Y1.3462 
G01 X-2.3917 Y1.3443 
G01 X-2.3917 Y1.3441 
G01 X-2.3916 Y1.3440 
G01 X-2.3908 Y1.3419 
G01 X-2.3899 Y1.3398 
G01 X-2.3899 Y1.3397 
G01 X-2.3783 Y1.3108 
G01 X-2.3774 Y1.3087 
G01 X-2.3774 Y1.3085 
G01 X-2.3774 Y1.3084 
G01 X-2.3769 Y1.3062 
G01 X-2.3765 Y1.3039 
G01 X-2.3765 Y1.3038 
G01 X-2.3765 Y1.3036 
G01 X-2.3765 Y1.3014 
G01 X-2.3765 Y1.2787 
G01 X-2.3760 Y1.2781 
G01 X-2.3733 Y1.2741 
G01 X-2.3714 Y1.2697 
G01 X-2.3705 Y1.2649 
G01 X-2.3705 Y1.2351 
G01 X-2.3714 Y1.2303 
G01 X-2.3729 Y1.2267 
G01 X-2.3733 Y1.2259 
G01 X-2.3760 Y1.2219 
G01 X-2.3765 Y1.2213 
G01 X-2.3765 Y1.1787 
G01 X-2.3669 Y1.1690 
G01 X-2.3634 Y1.1656 
G01 X-2.3619 Y1.1632 
G01 X-2.3608 Y1.1616 
G01 X-2.3600 Y1.1597 
G01 X-2.3589 Y1.1571 
G01 X-2.3582 Y1.1534 
G01 X-2.3580 Y1.1524 
G01 X-2.3580 Y1.1476 
G01 X-2.3589 Y1.1431 
G01 X-2.3589 Y1.1429 
G01 X-2.3608 Y1.1384 
G01 X-2.3634 Y1.1344 
G01 X-2.3765 Y1.1213 
G01 X-2.3765 Y1.0701 
G01 X-2.3774 Y1.0656 
G01 X-2.3774 Y1.0653 
G01 X-2.3793 Y1.0609 
G01 X-2.3820 Y1.0569 
G01 X-2.3854 Y1.0535 
G01 X-2.3894 Y1.0508 
G01 X-2.4042 Y1.0447 
G01 X-2.4206 Y1.0283 
G01 X-2.4208 Y1.0279 
G01 X-2.4223 Y1.0266 
G01 X-2.4236 Y1.0252 
G01 X-2.4240 Y1.0249 
G01 X-2.4244 Y1.0246 
G01 X-2.4260 Y1.0236 
G01 X-2.4276 Y1.0225 
G01 X-2.4281 Y1.0223 
G01 X-2.4285 Y1.0221 
G01 X-2.4303 Y1.0214 
G01 X-2.4321 Y1.0207 
G01 X-2.4326 Y1.0206 
G01 X-2.4330 Y1.0204 
G01 X-2.4349 Y1.0201 
G01 X-2.4368 Y1.0197 
G01 X-2.4373 Y1.0197 
G01 X-2.4378 Y1.0197 
G01 X-2.4397 Y1.0197 
G01 X-2.4417 Y1.0197 
G01 X-2.4421 Y1.0198 
G01 X-2.4426 Y1.0199 
G01 X-2.4445 Y1.0203 
G01 X-2.4464 Y1.0207 
G01 X-2.4468 Y1.0209 
G01 X-2.4473 Y1.0210 
G01 X-2.4491 Y1.0218 
G01 X-2.4505 Y1.0224 
G01 X-2.4505 Y1.0192 
G01 X-2.4480 Y1.0154 
G01 X-2.4457 Y1.0099 
G01 X-2.4445 Y1.0040 
G01 X-2.4445 Y0.9460 
G01 X-2.4457 Y0.9401 
G01 X-2.4480 Y0.9346 
G01 X-2.4505 Y0.9308 
G01 X-2.4505 Y0.9276 
G01 X-2.4491 Y0.9282 
G01 X-2.4473 Y0.9290 
G01 X-2.4468 Y0.9291 
G01 X-2.4464 Y0.9293 
G01 X-2.4445 Y0.9297 
G01 X-2.4426 Y0.9301 
G01 X-2.4421 Y0.9302 
G01 X-2.4417 Y0.9303 
G01 X-2.4397 Y0.9303 
G01 X-2.4378 Y0.9303 
G01 X-2.4373 Y0.9303 
G01 X-2.4368 Y0.9303 
G01 X-2.4349 Y0.9299 
G01 X-2.4330 Y0.9296 
G01 X-2.4326 Y0.9294 
G01 X-2.4321 Y0.9293 
G01 X-2.4303 Y0.9286 
G01 X-2.4285 Y0.9279 
G01 X-2.4281 Y0.9277 
G01 X-2.4276 Y0.9275 
G01 X-2.4260 Y0.9264 
G01 X-2.4244 Y0.9254 
G01 X-2.4240 Y0.9251 
G01 X-2.4236 Y0.9248 
G01 X-2.4223 Y0.9234 
G01 X-2.4208 Y0.9221 
G01 X-2.4206 Y0.9217 
G01 X-2.4042 Y0.9053 
G01 X-2.4039 Y0.9052 
G01 X-2.4019 Y0.9044 
G01 X-2.4017 Y0.9043 
G01 X-2.4016 Y0.9042 
G01 X-2.3997 Y0.9030 
G01 X-2.3978 Y0.9017 
G01 X-2.3977 Y0.9016 
G01 X-2.3976 Y0.9015 
G01 X-2.3960 Y0.8999 
G01 X-2.3944 Y0.8983 
G01 X-2.3943 Y0.8982 
G01 X-2.3942 Y0.8981 
G01 X-2.3930 Y0.8962 
G01 X-2.3917 Y0.8943 
G01 X-2.3917 Y0.8941 
G01 X-2.3916 Y0.8940 
G01 X-2.3908 Y0.8919 
G01 X-2.3899 Y0.8898 
G01 X-2.3899 Y0.8897 
G01 X-2.3783 Y0.8608 
G01 X-2.3774 Y0.8587 
G01 X-2.3774 Y0.8585 
G01 X-2.3774 Y0.8584 
G01 X-2.3769 Y0.8562 
G01 X-2.3765 Y0.8539 
G01 X-2.3765 Y0.8538 
G01 X-2.3765 Y0.8536 
G01 X-2.3765 Y0.8514 
G01 X-2.3765 Y0.8287 
G01 X-2.3760 Y0.8281 
G01 X-2.3733 Y0.8241 
G01 X-2.3714 Y0.8197 
G01 X-2.3705 Y0.8149 
G01 X-2.3705 Y0.7851 
G01 X-2.3714 Y0.7803 
G01 X-2.3733 Y0.7759 
G01 X-2.3760 Y0.7719 
G01 X-2.3765 Y0.7713 
G01 X-2.3765 Y0.7287 
G01 X-2.3759 Y0.7281 
G01 X-2.3738 Y0.7249 
G01 X-2.3733 Y0.7241 
G01 X-2.3714 Y0.7196 
G01 X-2.3709 Y0.7168 
G01 X-2.3705 Y0.7149 
G01 X-2.3705 Y0.7101 
G01 X-2.3714 Y0.7054 
G01 X-2.3727 Y0.7023 
G01 X-2.3733 Y0.7009 
G01 X-2.3759 Y0.6969 
G01 X-2.3765 Y0.6963 
G01 X-2.3765 Y0.6956 
G01 X-2.3774 Y0.6908 
G01 X-2.3793 Y0.6864 
G01 X-2.3820 Y0.6824 
G01 X-2.3854 Y0.6790 
G01 X-2.4155 Y0.6489 
G01 X-2.4195 Y0.6462 
G01 X-2.4239 Y0.6444 
G01 X-2.4274 Y0.6437 
G01 X-2.4287 Y0.6434 
G01 X-2.4335 Y0.6434 
G01 X-2.4382 Y0.6444 
G01 X-2.4408 Y0.6455 
G01 X-2.4409 Y0.6455 
G01 X-2.6514 Y0.6455 
G01 X-2.6561 Y0.6464 
G01 X-2.6606 Y0.6483 
G01 X-2.6646 Y0.6510 
G01 X-2.6680 Y0.6544 
G01 X-2.6707 Y0.6584 
G01 X-2.6726 Y0.6629 
G01 X-2.6735 Y0.6676 
G01 X-2.6735 Y0.6963 
G01 X-2.6740 Y0.6969 
G01 X-2.6767 Y0.7009 
G01 X-2.6786 Y0.7053 
G01 X-2.6795 Y0.7101 
G01 X-2.6795 Y0.7149 
G01 X-2.6786 Y0.7197 
G01 X-2.6767 Y0.7241 
G01 X-2.6740 Y0.7281 
G01 X-2.6735 Y0.7287 
G01 X-2.6735 Y0.7713 
G01 X-2.6973 Y0.7951 
G01 X-2.7001 Y0.7980 
G01 X-2.7007 Y0.7985 
G01 X-2.7034 Y0.8025 
G01 X-2.7052 Y0.8070 
G01 X-2.7062 Y0.8117 
G01 X-2.7062 Y0.8166 
G01 X-2.7061 Y0.8168 
G01 X-2.7052 Y0.8213 
G01 X-2.7035 Y0.8255 
G01 X-2.7064 Y0.8255 
G01 X-2.7124 Y0.8195 
G01 X-2.7376 Y0.8195 
G01 X-2.7436 Y0.8255 
G01 X-2.7507 Y0.8255 
G01 X-2.7507 Y0.8252 
G01 X-2.7502 Y0.8229 
G01 X-2.7502 Y0.8228 
G01 X-2.7502 Y0.8227 
G01 X-2.7502 Y0.8204 
G01 X-2.7502 Y0.8181 
G01 X-2.7502 Y0.8180 
G01 X-2.7502 Y0.8179 
G01 X-2.7507 Y0.8156 
G01 X-2.7512 Y0.8134 
G01 X-2.7512 Y0.8133 
G01 X-2.7512 Y0.8131 
G01 X-2.7521 Y0.8110 
G01 X-2.7530 Y0.8089 
G01 X-2.7531 Y0.8088 
G01 X-2.7531 Y0.8087 
G01 X-2.7544 Y0.8068 
G01 X-2.7557 Y0.8049 
G01 X-2.7558 Y0.8047 
G01 X-2.7575 Y0.8031 
G01 X-2.7591 Y0.8015 
G01 X-2.7592 Y0.8014 
G01 X-2.7612 Y0.8001 
G01 X-2.7631 Y0.7988 
G01 X-2.7632 Y0.7988 
G01 X-2.7633 Y0.7987 
G01 X-2.7655 Y0.7978 
G01 X-2.7676 Y0.7970 
G01 X-2.7677 Y0.7969 
G01 X-2.7678 Y0.7969 
G01 X-2.7701 Y0.7965 
G01 X-2.7723 Y0.7960 
G01 X-2.7724 Y0.7960 
G01 X-2.7726 Y0.7960 
G01 X-2.7748 Y0.7960 
G01 X-2.7771 Y0.7960 
G01 X-2.7773 Y0.7960 
G01 X-2.8347 Y0.7966 
G01 X-2.8353 Y0.7966 
G01 X-2.8371 Y0.7967 
G01 X-2.8389 Y0.7967 
G01 X-2.8395 Y0.7968 
G01 X-2.8401 Y0.7968 
G01 X-2.8419 Y0.7973 
G01 X-2.8437 Y0.7977 
G01 X-2.8442 Y0.7979 
G01 X-2.8448 Y0.7981 
G01 X-2.8464 Y0.7989 
G01 X-2.8481 Y0.7996 
G01 X-2.8486 Y0.7999 
G01 X-2.8491 Y0.8002 
G01 X-2.8506 Y0.8013 
G01 X-2.8521 Y0.8023 
G01 X-2.8525 Y0.8027 
G01 X-2.8530 Y0.8031 
G01 X-2.8542 Y0.8044 
G01 X-2.8555 Y0.8057 
G01 X-2.8558 Y0.8062 
G01 X-2.8562 Y0.8067 
G01 X-2.8571 Y0.8082 
G01 X-2.8581 Y0.8098 
G01 X-2.8583 Y0.8103 
G01 X-2.8624 Y0.8173 
G01 X-2.8634 Y0.8187 
G01 X-2.8636 Y0.8194 
G01 X-2.8640 Y0.8200 
G01 X-2.8645 Y0.8216 
G01 X-2.8652 Y0.8232 
G01 X-2.8653 Y0.8239 
G01 X-2.8656 Y0.8245 
G01 X-2.8658 Y0.8262 
G01 X-2.8661 Y0.8279 
G01 X-2.8661 Y0.8286 
G01 X-2.8662 Y0.8293 
G01 X-2.8661 Y0.8310 
G01 X-2.8661 Y0.8327 
G01 X-2.8660 Y0.8334 
G01 X-2.8660 Y0.8341 
G01 X-2.8655 Y0.8358 
G01 X-2.8652 Y0.8375 
G01 X-2.8649 Y0.8381 
G01 X-2.8647 Y0.8388 
G01 X-2.8640 Y0.8403 
G01 X-2.8540 Y0.8645 
G01 X-2.8540 Y0.8887 
G01 X-2.8632 Y0.9110 
G01 X-2.8803 Y0.9281 
G01 X-2.9027 Y0.9373 
G01 X-2.9973 Y0.9373 
G01 X-3.0197 Y0.9281 
G01 X-3.0368 Y0.9110 
G01 X-3.0460 Y0.8887 
G01 X-3.0460 Y0.8645 
G01 X-3.0368 Y0.8422 
G01 X-3.0197 Y0.8251 
G01 X-2.9973 Y0.8158 
G01 X-2.9828 Y0.8158 
G01 X-2.9821 Y0.8159 
G01 X-2.9804 Y0.8158 
G01 X-2.9787 Y0.8158 
G01 X-2.9780 Y0.8157 
G01 X-2.9773 Y0.8156 
G01 X-2.9756 Y0.8152 
G01 X-2.9740 Y0.8149 
G01 X-2.9733 Y0.8146 
G01 X-2.9726 Y0.8144 
G01 X-2.9711 Y0.8137 
G01 X-2.9695 Y0.8130 
G01 X-2.9689 Y0.8126 
G01 X-2.9683 Y0.8123 
G01 X-2.9669 Y0.8113 
G01 X-2.9655 Y0.8104 
G01 X-2.9650 Y0.8098 
G01 X-2.9644 Y0.8094 
G01 X-2.9633 Y0.8081 
G01 X-2.9621 Y0.8069 
G01 X-2.9617 Y0.8063 
G01 X-2.9612 Y0.8058 
G01 X-2.9603 Y0.8043 
G01 X-2.9594 Y0.8029 
G01 X-2.9591 Y0.8023 
G01 X-2.9187 Y0.7335 
G01 X-2.9177 Y0.7320 
G01 X-2.9175 Y0.7315 
G01 X-2.9172 Y0.7309 
G01 X-2.9166 Y0.7292 
G01 X-2.9155 Y0.7263 
G01 X-2.9147 Y0.7255 
G01 X-2.9134 Y0.7241 
G01 X-2.9131 Y0.7237 
G01 X-2.9127 Y0.7232 
G01 X-2.9118 Y0.7216 
G01 X-2.9111 Y0.7206 
G01 X-2.9086 Y0.7188 
G01 X-2.9071 Y0.7177 
G01 X-2.9067 Y0.7173 
G01 X-2.9062 Y0.7170 
G01 X-2.9050 Y0.7156 
G01 X-2.9029 Y0.7134 
G01 X-2.9018 Y0.7129 
G01 X-2.9001 Y0.7121 
G01 X-2.8996 Y0.7118 
G01 X-2.8991 Y0.7116 
G01 X-2.8976 Y0.7105 
G01 X-2.8966 Y0.7098 
G01 X-2.8936 Y0.7090 
G01 X-2.8918 Y0.7086 
G01 X-2.8913 Y0.7084 
G01 X-2.8907 Y0.7082 
G01 X-2.8891 Y0.7074 
G01 X-2.8862 Y0.7062 
G01 X-2.8850 Y0.7062 
G01 X-2.8832 Y0.7061 
G01 X-2.8826 Y0.7060 
G01 X-2.8821 Y0.7060 
G01 X-2.8803 Y0.7055 
G01 X-2.8791 Y0.7053 
G01 X-2.8760 Y0.7057 
G01 X-2.8742 Y0.7060 
G01 X-2.8737 Y0.7060 
G01 X-2.8731 Y0.7061 
G01 X-2.8712 Y0.7060 
G01 X-2.8009 Y0.7053 
G01 X-2.7986 Y0.7053 
G01 X-2.7985 Y0.7053 
G01 X-2.7983 Y0.7053 
G01 X-2.7961 Y0.7048 
G01 X-2.7939 Y0.7043 
G01 X-2.7937 Y0.7043 
G01 X-2.7936 Y0.7043 
G01 X-2.7915 Y0.7034 
G01 X-2.7894 Y0.7025 
G01 X-2.7893 Y0.7024 
G01 X-2.7892 Y0.7024 
G01 X-2.7873 Y0.7011 
G01 X-2.7854 Y0.6998 
G01 X-2.7852 Y0.6997 
G01 X-2.7836 Y0.6980 
G01 X-2.7820 Y0.6964 
G01 X-2.7819 Y0.6963 
G01 X-2.7806 Y0.6943 
G01 X-2.7793 Y0.6924 
G01 X-2.7792 Y0.6923 
G01 X-2.7792 Y0.6922 
G01 X-2.7783 Y0.6900 
G01 X-2.7774 Y0.6879 
G01 X-2.7774 Y0.6878 
G01 X-2.7774 Y0.6877 
G01 X-2.7769 Y0.6854 
G01 X-2.7765 Y0.6832 
G01 X-2.7765 Y0.6831 
G01 X-2.7765 Y0.6829 
G01 X-2.7765 Y0.6807 
G01 X-2.7765 Y0.6676 
G01 X-2.7774 Y0.6629 
G01 X-2.7793 Y0.6584 
G01 X-2.7820 Y0.6544 
G01 X-2.7854 Y0.6510 
G01 X-2.7894 Y0.6483 
G01 X-2.7939 Y0.6464 
G01 X-2.7986 Y0.6455 
G01 X-2.9091 Y0.6455 
G01 X-2.9258 Y0.6386 
G01 X-2.9437 Y0.6206 
G01 X-3.0136 Y0.5508 
G01 X-3.0205 Y0.5341 
G01 X-3.0205 Y0.4926 
G01 X-3.0214 Y0.4879 
G01 X-3.0233 Y0.4834 
G01 X-3.0305 Y0.4660 
G01 X-3.0305 Y0.3840 
G01 X-3.0221 Y0.3636 
G01 X-3.0064 Y0.3479 
G01 X-2.9860 Y0.3395 
G01 X-2.9640 Y0.3395 
G01 X-2.9436 Y0.3479 
G01 X-2.9290 Y0.3625 
G01 X-2.9287 Y0.3629 
G01 X-2.9273 Y0.3642 
G01 X-2.9260 Y0.3655 
G01 X-2.9256 Y0.3658 
G01 X-2.9252 Y0.3661 
G01 X-2.9236 Y0.3672 
G01 X-2.9220 Y0.3682 
G01 X-2.9215 Y0.3684 
G01 X-2.9211 Y0.3687 
G01 X-2.9193 Y0.3693 
G01 X-2.9175 Y0.3701 
G01 X-2.9170 Y0.3702 
G01 X-2.9166 Y0.3703 
G01 X-2.9147 Y0.3706 
G01 X-2.9128 Y0.3710 
G01 X-2.9123 Y0.3710 
G01 X-2.9118 Y0.3711 
G01 X-2.9099 Y0.3710 
G01 X-2.9079 Y0.3710 
G01 X-2.9075 Y0.3709 
G01 X-2.9070 Y0.3709 
G01 X-2.9051 Y0.3705 
G01 X-2.9032 Y0.3701 
G01 X-2.9028 Y0.3699 
G01 X-2.9023 Y0.3698 
G01 X-2.9005 Y0.3690 
G01 X-2.8995 Y0.3685 
G01 X-2.8995 Y0.3707 
G01 X-2.9018 Y0.3730 
G01 X-2.9056 Y0.3787 
G01 X-2.9082 Y0.3849 
G01 X-2.9095 Y0.3916 
G01 X-2.9095 Y0.4584 
G01 X-2.9082 Y0.4651 
G01 X-2.9056 Y0.4713 
G01 X-2.9018 Y0.4770 
G01 X-2.8995 Y0.4793 
G01 X-2.8995 Y0.4925 
G01 X-2.8996 Y0.4926 
G01 X-2.9012 Y0.4937 
G01 X-2.9028 Y0.4948 
G01 X-2.9031 Y0.4951 
G01 X-2.9035 Y0.4954 
G01 X-2.9049 Y0.4968 
G01 X-2.9062 Y0.4982 
G01 X-2.9065 Y0.4986 
G01 X-2.9068 Y0.4990 
G01 X-2.9078 Y0.5006 
G01 X-2.9089 Y0.5022 
G01 X-2.9091 Y0.5027 
G01 X-2.9093 Y0.5031 
G01 X-2.9100 Y0.5049 
G01 X-2.9107 Y0.5067 
G01 X-2.9108 Y0.5071 
G01 X-2.9110 Y0.5076 
G01 X-2.9113 Y0.5095 
G01 X-2.9117 Y0.5114 
G01 X-2.9117 Y0.5119 
G01 X-2.9118 Y0.5124 
G01 X-2.9117 Y0.5143 
G01 X-2.9117 Y0.5162 
G01 X-2.9116 Y0.5167 
G01 X-2.9116 Y0.5172 
G01 X-2.9111 Y0.5191 
G01 X-2.9107 Y0.5210 
G01 X-2.9106 Y0.5214 
G01 X-2.9104 Y0.5219 
G01 X-2.9096 Y0.5236 
G01 X-2.9089 Y0.5254 
G01 X-2.9086 Y0.5258 
G01 X-2.9084 Y0.5263 
G01 X-2.9073 Y0.5278 
G01 X-2.9062 Y0.5294 
G01 X-2.9059 Y0.5298 
G01 X-2.9056 Y0.5302 
G01 X-2.9042 Y0.5315 
G01 X-2.8866 Y0.5490 
G01 X-2.8826 Y0.5517 
G01 X-2.8782 Y0.5536 
G01 X-2.8743 Y0.5543 
G01 X-2.8734 Y0.5545 
G01 X-2.8006 Y0.5545 
G01 X-2.7961 Y0.5536 
G01 X-2.7958 Y0.5536 
G01 X-2.7957 Y0.5535 
G01 X-2.7914 Y0.5517 
G01 X-2.7874 Y0.5490 
G01 X-2.7840 Y0.5457 
G01 X-2.7813 Y0.5416 
G01 X-2.7794 Y0.5371 
G01 X-2.7787 Y0.5334 
G01 X-2.7785 Y0.5324 
G01 X-2.7785 Y0.5276 
G01 X-2.7794 Y0.5231 
G01 X-2.7794 Y0.5229 
G01 X-2.7795 Y0.5227 
G01 X-2.7813 Y0.5184 
G01 X-2.7840 Y0.5144 
G01 X-2.7873 Y0.5110 
G01 X-2.7914 Y0.5083 
G01 X-2.8064 Y0.5021 
G01 X-2.8210 Y0.4875 
G01 X-2.8213 Y0.4871 
G01 X-2.8227 Y0.4858 
G01 X-2.8240 Y0.4845 
G01 X-2.8244 Y0.4842 
G01 X-2.8248 Y0.4839 
G01 X-2.8264 Y0.4828 
G01 X-2.8280 Y0.4818 
G01 X-2.8285 Y0.4816 
G01 X-2.8289 Y0.4813 
G01 X-2.8307 Y0.4807 
G01 X-2.8325 Y0.4799 
G01 X-2.8330 Y0.4798 
G01 X-2.8334 Y0.4797 
G01 X-2.8353 Y0.4794 
G01 X-2.8372 Y0.4790 
G01 X-2.8377 Y0.4790 
G01 X-2.8382 Y0.4789 
G01 X-2.8401 Y0.4790 
G01 X-2.8421 Y0.4790 
G01 X-2.8425 Y0.4791 
G01 X-2.8430 Y0.4791 
G01 X-2.8449 Y0.4795 
G01 X-2.8468 Y0.4799 
G01 X-2.8472 Y0.4801 
G01 X-2.8477 Y0.4802 
G01 X-2.8495 Y0.4810 
G01 X-2.8505 Y0.4815 
G01 X-2.8505 Y0.4793 
G01 X-2.8482 Y0.4770 
G01 X-2.8444 Y0.4713 
G01 X-2.8418 Y0.4651 
G01 X-2.8405 Y0.4584 
G01 X-2.8405 Y0.3916 
G01 X-2.8418 Y0.3849 
G01 X-2.8444 Y0.3787 
G01 X-2.8482 Y0.3730 
G01 X-2.8505 Y0.3707 
G01 X-2.8505 Y0.3685 
G01 X-2.8495 Y0.3690 
G01 X-2.8477 Y0.3698 
G01 X-2.8472 Y0.3699 
G01 X-2.8468 Y0.3701 
G01 X-2.8449 Y0.3705 
G01 X-2.8430 Y0.3709 
G01 X-2.8425 Y0.3709 
G01 X-2.8421 Y0.3710 
G01 X-2.8401 Y0.3710 
G01 X-2.8382 Y0.3711 
G01 X-2.8377 Y0.3710 
G01 X-2.8372 Y0.3710 
G01 X-2.8353 Y0.3706 
G01 X-2.8334 Y0.3703 
G01 X-2.8330 Y0.3702 
G01 X-2.8325 Y0.3701 
G01 X-2.8307 Y0.3693 
G01 X-2.8289 Y0.3687 
G01 X-2.8285 Y0.3684 
G01 X-2.8280 Y0.3682 
G01 X-2.8264 Y0.3672 
G01 X-2.8248 Y0.3661 
G01 X-2.8244 Y0.3658 
