(.../eagle-7.5.0/ulp/pcb-gcode/pcb-gcode.ulp)
(Copyright 2005 - 2012 by John Johnson)
(See readme.txt for licensing terms.)
(This file generated from the board:)
(.../hardware/src/Mini_Door_Client.brd)
(Current profile is .../ulp/pcb-gcode/profiles/emc.pp  )
(This file generated 12/22/16 10:42 AM)
(Settings from pcb-machine.h)
(spindle on time = 15.0000)
(  Tool Size)
(0.0200 )
(spindle speed = 30000.0000)
(tool change at 0.0000 0.0000 0.5000 )
(feed rate xy = F3.00  )
(feed rate z  = F10.00 )
(Z Axis Settings)
(  High     Up        Down     Drill)
(0.5000 	0.0500 	-0.0025 	-0.0640 )
(Settings from pcb-defaults.h)
(isolate min = 0.0010)
(isolate max = 0.0300)
(isolate step = 0.0075)
(Generated top outlines, )
(Unit of measure: inch)
(Inch Mode)
G20
(Absolute Coordinates)
G90
S30000
G00 Z0.5000 
G00 X0.0000 Y0.0000 
M03
G04 P15.000000
G00 Z0.0500 
G00 X0.0697 Y0.0251 
G01 Z-0.0025 F10.00 
G01 X0.0654 Y0.0315 F3.00  
G01 X0.0625 Y0.0386 
G01 X0.0610 Y0.0462 
G01 X0.0610 Y0.0538 
G01 X0.0625 Y0.0614 
G01 X0.0654 Y0.0685 
G01 X0.0697 Y0.0749 
G01 X0.0730 Y0.0782 
G01 X0.0730 Y0.1712 
G01 X0.0740 Y0.1764 
G01 X0.0761 Y0.1813 
G01 X0.0790 Y0.1857 
G01 X0.0969 Y0.2035 
G01 X0.0328 Y0.2676 
G01 X0.0290 Y0.2714 
G01 X0.0261 Y0.2758 
G01 X0.0240 Y0.2807 
G01 X0.0230 Y0.2859 
G01 X0.0230 Y0.4527 
G01 X0.0240 Y0.4579 
G01 X0.0261 Y0.4628 
G01 X0.0290 Y0.4672 
G01 X0.0811 Y0.5193 
G01 X0.0328 Y0.5676 
G01 X0.0290 Y0.5714 
G01 X0.0261 Y0.5758 
G01 X0.0240 Y0.5807 
G01 X0.0230 Y0.5859 
G01 X0.0230 Y0.7527 
G01 X0.0240 Y0.7579 
G01 X0.0261 Y0.7628 
G01 X0.0290 Y0.7672 
G01 X0.0811 Y0.8193 
G01 X0.0328 Y0.8676 
G01 X0.0290 Y0.8714 
G01 X0.0261 Y0.8758 
G01 X0.0240 Y0.8807 
G01 X0.0230 Y0.8859 
G01 X0.0230 Y1.0527 
G01 X0.0240 Y1.0579 
G01 X0.0261 Y1.0628 
G01 X0.0290 Y1.0672 
G01 X0.0811 Y1.1193 
G01 X0.0328 Y1.1676 
G01 X0.0290 Y1.1714 
G01 X0.0261 Y1.1758 
G01 X0.0240 Y1.1807 
G01 X0.0230 Y1.1859 
G01 X0.0230 Y1.3527 
G01 X0.0240 Y1.3579 
G01 X0.0261 Y1.3628 
G01 X0.0290 Y1.3672 
G01 X0.0730 Y1.4112 
G01 X0.0730 Y1.4218 
G01 X0.0697 Y1.4251 
G01 X0.0654 Y1.4315 
G01 X0.0625 Y1.4386 
G01 X0.0610 Y1.4462 
G01 X0.0610 Y1.4538 
G01 X0.0625 Y1.4614 
G01 X0.0654 Y1.4685 
G01 X0.0697 Y1.4749 
G01 X0.0751 Y1.4803 
G01 X0.0815 Y1.4846 
G01 X0.0886 Y1.4875 
G01 X0.0962 Y1.4890 
G01 X0.1038 Y1.4890 
G01 X0.1114 Y1.4875 
G01 X0.1185 Y1.4846 
G01 X0.1249 Y1.4803 
G01 X0.1303 Y1.4749 
G01 X0.1346 Y1.4685 
G01 X0.1375 Y1.4614 
G01 X0.1390 Y1.4538 
G01 X0.1390 Y1.4462 
G01 X0.1375 Y1.4386 
G01 X0.1346 Y1.4315 
G01 X0.1303 Y1.4251 
G01 X0.1270 Y1.4218 
G01 X0.1270 Y1.3973 
G01 X0.1260 Y1.3921 
G01 X0.1239 Y1.3872 
G01 X0.1210 Y1.3828 
G01 X0.1172 Y1.3790 
G01 X0.0770 Y1.3388 
G01 X0.0770 Y1.1998 
G01 X0.1327 Y1.1441 
G01 X0.1542 Y1.1441 
G01 X0.1570 Y1.1433 
G01 X0.1595 Y1.1419 
G01 X0.1616 Y1.1398 
G01 X0.1630 Y1.1373 
G01 X0.1638 Y1.1345 
G01 X0.1638 Y1.0726 
G01 X0.1630 Y1.0698 
G01 X0.1616 Y1.0673 
G01 X0.1595 Y1.0652 
G01 X0.1570 Y1.0638 
G01 X0.1542 Y1.0630 
G01 X0.1159 Y1.0630 
G01 X0.1131 Y1.0638 
G01 X0.1106 Y1.0652 
G01 X0.1085 Y1.0673 
G01 X0.1074 Y1.0692 
G01 X0.0770 Y1.0388 
G01 X0.0770 Y0.8998 
G01 X0.1327 Y0.8441 
G01 X0.1542 Y0.8441 
G01 X0.1570 Y0.8433 
G01 X0.1595 Y0.8419 
G01 X0.1616 Y0.8398 
G01 X0.1630 Y0.8373 
G01 X0.1638 Y0.8345 
G01 X0.1638 Y0.7726 
G01 X0.1630 Y0.7698 
G01 X0.1616 Y0.7673 
G01 X0.1595 Y0.7652 
G01 X0.1570 Y0.7638 
G01 X0.1542 Y0.7630 
G01 X0.1159 Y0.7630 
G01 X0.1131 Y0.7638 
G01 X0.1106 Y0.7652 
G01 X0.1085 Y0.7673 
G01 X0.1074 Y0.7692 
G01 X0.0770 Y0.7388 
G01 X0.0770 Y0.5998 
G01 X0.1327 Y0.5441 
G01 X0.1542 Y0.5441 
G01 X0.1570 Y0.5433 
G01 X0.1595 Y0.5419 
G01 X0.1616 Y0.5398 
G01 X0.1630 Y0.5373 
G01 X0.1638 Y0.5345 
G01 X0.1638 Y0.4726 
G01 X0.1630 Y0.4698 
G01 X0.1616 Y0.4673 
G01 X0.1595 Y0.4652 
G01 X0.1570 Y0.4638 
G01 X0.1542 Y0.4630 
G01 X0.1159 Y0.4630 
G01 X0.1131 Y0.4638 
G01 X0.1106 Y0.4652 
G01 X0.1085 Y0.4673 
G01 X0.1074 Y0.4692 
G01 X0.0770 Y0.4388 
G01 X0.0770 Y0.2998 
G01 X0.1327 Y0.2441 
G01 X0.1542 Y0.2441 
G01 X0.1570 Y0.2433 
G01 X0.1595 Y0.2419 
G01 X0.1616 Y0.2398 
G01 X0.1630 Y0.2373 
G01 X0.1638 Y0.2345 
G01 X0.1638 Y0.1726 
G01 X0.1630 Y0.1698 
G01 X0.1616 Y0.1673 
G01 X0.1595 Y0.1652 
G01 X0.1570 Y0.1638 
G01 X0.1542 Y0.1630 
G01 X0.1327 Y0.1630 
G01 X0.1270 Y0.1573 
G01 X0.1270 Y0.0782 
G01 X0.1303 Y0.0749 
G01 X0.1346 Y0.0685 
G01 X0.1375 Y0.0614 
G01 X0.1390 Y0.0538 
G01 X0.1390 Y0.0462 
G01 X0.1375 Y0.0386 
G01 X0.1346 Y0.0315 
G01 X0.1303 Y0.0251 
G01 X0.1249 Y0.0197 
G01 X0.1185 Y0.0154 
G01 X0.1114 Y0.0125 
G01 X0.1038 Y0.0110 
G01 X0.0962 Y0.0110 
G01 X0.0886 Y0.0125 
G01 X0.0815 Y0.0154 
G01 X0.0751 Y0.0197 
G01 X0.0697 Y0.0251 
G00 Z0.0500 
G00 X0.1697 Y0.0251 
G01 Z-0.0025 F10.00 
G01 X0.1654 Y0.0315 F3.00  
G01 X0.1625 Y0.0386 
G01 X0.1610 Y0.0462 
G01 X0.1610 Y0.0538 
G01 X0.1625 Y0.0614 
G01 X0.1654 Y0.0685 
G01 X0.1697 Y0.0749 
G01 X0.1730 Y0.0782 
G01 X0.1730 Y0.1412 
G01 X0.1740 Y0.1465 
G01 X0.1761 Y0.1514 
G01 X0.1790 Y0.1558 
G01 X0.2362 Y0.2130 
G01 X0.2362 Y0.2345 
G01 X0.2370 Y0.2373 
G01 X0.2384 Y0.2398 
G01 X0.2405 Y0.2419 
G01 X0.2430 Y0.2433 
G01 X0.2458 Y0.2441 
G01 X0.2841 Y0.2441 
G01 X0.2869 Y0.2433 
G01 X0.2894 Y0.2419 
G01 X0.2915 Y0.2398 
G01 X0.2929 Y0.2373 
G01 X0.2937 Y0.2345 
G01 X0.2937 Y0.1726 
G01 X0.2929 Y0.1698 
G01 X0.2915 Y0.1673 
G01 X0.2894 Y0.1652 
G01 X0.2869 Y0.1638 
G01 X0.2841 Y0.1630 
G01 X0.2626 Y0.1630 
G01 X0.2270 Y0.1274 
G01 X0.2270 Y0.0782 
G01 X0.2303 Y0.0749 
G01 X0.2346 Y0.0685 
G01 X0.2375 Y0.0614 
G01 X0.2390 Y0.0538 
G01 X0.2390 Y0.0462 
G01 X0.2375 Y0.0386 
G01 X0.2346 Y0.0315 
G01 X0.2303 Y0.0251 
G01 X0.2249 Y0.0197 
G01 X0.2185 Y0.0154 
G01 X0.2114 Y0.0125 
G01 X0.2038 Y0.0110 
G01 X0.1962 Y0.0110 
G01 X0.1886 Y0.0125 
G01 X0.1815 Y0.0154 
G01 X0.1751 Y0.0197 
G01 X0.1697 Y0.0251 
G00 Z0.0500 
G00 X0.2697 Y0.0251 
G01 Z-0.0025 F10.00 
G01 X0.2654 Y0.0315 F3.00  
G01 X0.2625 Y0.0386 
G01 X0.2610 Y0.0462 
G01 X0.2610 Y0.0538 
G01 X0.2625 Y0.0614 
G01 X0.2654 Y0.0685 
G01 X0.2697 Y0.0749 
G01 X0.2730 Y0.0782 
G01 X0.2730 Y0.1027 
G01 X0.2740 Y0.1079 
G01 X0.2761 Y0.1128 
G01 X0.2790 Y0.1172 
G01 X0.3230 Y0.1612 
G01 X0.3230 Y0.3002 
G01 X0.2673 Y0.3559 
G01 X0.2458 Y0.3559 
G01 X0.2430 Y0.3567 
G01 X0.2405 Y0.3581 
G01 X0.2384 Y0.3602 
G01 X0.2370 Y0.3627 
G01 X0.2362 Y0.3655 
G01 X0.2362 Y0.4274 
G01 X0.2370 Y0.4302 
G01 X0.2384 Y0.4327 
G01 X0.2405 Y0.4348 
G01 X0.2430 Y0.4362 
G01 X0.2458 Y0.4370 
G01 X0.2841 Y0.4370 
G01 X0.2869 Y0.4362 
G01 X0.2894 Y0.4348 
G01 X0.2915 Y0.4327 
G01 X0.2926 Y0.4308 
G01 X0.3230 Y0.4612 
G01 X0.3230 Y0.6002 
G01 X0.2673 Y0.6559 
G01 X0.2458 Y0.6559 
G01 X0.2430 Y0.6567 
G01 X0.2405 Y0.6581 
G01 X0.2384 Y0.6602 
G01 X0.2370 Y0.6627 
G01 X0.2362 Y0.6655 
G01 X0.2362 Y0.7274 
G01 X0.2370 Y0.7302 
G01 X0.2384 Y0.7327 
G01 X0.2405 Y0.7348 
G01 X0.2430 Y0.7362 
G01 X0.2458 Y0.7370 
G01 X0.2841 Y0.7370 
G01 X0.2869 Y0.7362 
G01 X0.2894 Y0.7348 
G01 X0.2915 Y0.7327 
G01 X0.2926 Y0.7308 
G01 X0.3230 Y0.7612 
G01 X0.3230 Y0.9002 
G01 X0.2673 Y0.9559 
G01 X0.2458 Y0.9559 
G01 X0.2430 Y0.9567 
G01 X0.2405 Y0.9581 
G01 X0.2384 Y0.9602 
G01 X0.2370 Y0.9627 
G01 X0.2362 Y0.9655 
G01 X0.2362 Y1.0274 
G01 X0.2370 Y1.0302 
G01 X0.2384 Y1.0327 
G01 X0.2405 Y1.0348 
G01 X0.2430 Y1.0362 
G01 X0.2458 Y1.0370 
G01 X0.2841 Y1.0370 
G01 X0.2869 Y1.0362 
G01 X0.2894 Y1.0348 
G01 X0.2915 Y1.0327 
G01 X0.2926 Y1.0308 
G01 X0.3230 Y1.0612 
G01 X0.3230 Y1.2002 
G01 X0.2673 Y1.2559 
G01 X0.2458 Y1.2559 
G01 X0.2430 Y1.2567 
G01 X0.2405 Y1.2581 
G01 X0.2384 Y1.2602 
G01 X0.2370 Y1.2627 
G01 X0.2362 Y1.2655 
G01 X0.2362 Y1.3274 
G01 X0.2370 Y1.3302 
G01 X0.2384 Y1.3327 
G01 X0.2405 Y1.3348 
G01 X0.2430 Y1.3362 
G01 X0.2458 Y1.3370 
G01 X0.2673 Y1.3370 
G01 X0.2730 Y1.3427 
G01 X0.2730 Y1.4218 
G01 X0.2697 Y1.4251 
G01 X0.2654 Y1.4315 
G01 X0.2625 Y1.4386 
G01 X0.2610 Y1.4462 
G01 X0.2610 Y1.4538 
G01 X0.2625 Y1.4614 
G01 X0.2654 Y1.4685 
G01 X0.2697 Y1.4749 
G01 X0.2751 Y1.4803 
G01 X0.2815 Y1.4846 
G01 X0.2886 Y1.4875 
G01 X0.2962 Y1.4890 
G01 X0.3038 Y1.4890 
G01 X0.3114 Y1.4875 
G01 X0.3185 Y1.4846 
G01 X0.3249 Y1.4803 
G01 X0.3303 Y1.4749 
G01 X0.3346 Y1.4685 
G01 X0.3375 Y1.4614 
G01 X0.3390 Y1.4538 
G01 X0.3390 Y1.4462 
G01 X0.3375 Y1.4386 
G01 X0.3346 Y1.4315 
G01 X0.3303 Y1.4251 
G01 X0.3270 Y1.4218 
G01 X0.3270 Y1.3288 
G01 X0.3260 Y1.3236 
G01 X0.3239 Y1.3187 
G01 X0.3210 Y1.3143 
G01 X0.3172 Y1.3105 
G01 X0.3031 Y1.2965 
G01 X0.3710 Y1.2286 
G01 X0.3739 Y1.2242 
G01 X0.3760 Y1.2193 
G01 X0.3770 Y1.2141 
G01 X0.3770 Y1.0473 
G01 X0.3760 Y1.0421 
G01 X0.3739 Y1.0372 
G01 X0.3710 Y1.0328 
G01 X0.3672 Y1.0290 
G01 X0.3189 Y0.9807 
G01 X0.3710 Y0.9286 
G01 X0.3739 Y0.9242 
G01 X0.3760 Y0.9193 
G01 X0.3770 Y0.9141 
G01 X0.3770 Y0.7473 
G01 X0.3760 Y0.7421 
G01 X0.3739 Y0.7372 
G01 X0.3710 Y0.7328 
G01 X0.3672 Y0.7290 
G01 X0.3189 Y0.6807 
G01 X0.3710 Y0.6286 
G01 X0.3739 Y0.6242 
G01 X0.3760 Y0.6193 
G01 X0.3770 Y0.6141 
G01 X0.3770 Y0.4473 
G01 X0.3760 Y0.4421 
G01 X0.3739 Y0.4372 
G01 X0.3710 Y0.4328 
G01 X0.3672 Y0.4290 
G01 X0.3189 Y0.3807 
G01 X0.3710 Y0.3286 
G01 X0.3739 Y0.3242 
G01 X0.3760 Y0.3193 
G01 X0.3770 Y0.3141 
G01 X0.3770 Y0.1473 
G01 X0.3760 Y0.1421 
G01 X0.3739 Y0.1372 
G01 X0.3710 Y0.1328 
G01 X0.3672 Y0.1290 
G01 X0.3270 Y0.0888 
G01 X0.3270 Y0.0782 
G01 X0.3303 Y0.0749 
G01 X0.3346 Y0.0685 
G01 X0.3375 Y0.0614 
G01 X0.3390 Y0.0538 
G01 X0.3390 Y0.0462 
G01 X0.3375 Y0.0386 
G01 X0.3346 Y0.0315 
G01 X0.3303 Y0.0251 
G01 X0.3249 Y0.0197 
G01 X0.3185 Y0.0154 
G01 X0.3114 Y0.0125 
G01 X0.3038 Y0.0110 
G01 X0.2962 Y0.0110 
G01 X0.2886 Y0.0125 
G01 X0.2815 Y0.0154 
G01 X0.2751 Y0.0197 
G01 X0.2697 Y0.0251 
G00 Z0.0500 
G00 X0.1595 Y0.3581 
G01 Z-0.0025 F10.00 
G01 X0.1570 Y0.3567 F3.00  
G01 X0.1542 Y0.3559 
G01 X0.1159 Y0.3559 
G01 X0.1131 Y0.3567 
G01 X0.1106 Y0.3581 
G01 X0.1085 Y0.3602 
G01 X0.1071 Y0.3627 
G01 X0.1063 Y0.3655 
G01 X0.1063 Y0.4274 
G01 X0.1071 Y0.4302 
G01 X0.1085 Y0.4327 
G01 X0.1106 Y0.4348 
G01 X0.1131 Y0.4362 
G01 X0.1159 Y0.4370 
G01 X0.1542 Y0.4370 
G01 X0.1570 Y0.4362 
G01 X0.1586 Y0.4353 
G01 X0.2362 Y0.5130 
G01 X0.2362 Y0.5345 
G01 X0.2370 Y0.5373 
G01 X0.2384 Y0.5398 
G01 X0.2405 Y0.5419 
G01 X0.2430 Y0.5433 
G01 X0.2458 Y0.5441 
G01 X0.2841 Y0.5441 
G01 X0.2869 Y0.5433 
G01 X0.2894 Y0.5419 
G01 X0.2915 Y0.5398 
G01 X0.2929 Y0.5373 
G01 X0.2937 Y0.5345 
G01 X0.2937 Y0.4726 
G01 X0.2929 Y0.4698 
G01 X0.2915 Y0.4673 
G01 X0.2894 Y0.4652 
G01 X0.2869 Y0.4638 
G01 X0.2841 Y0.4630 
G01 X0.2626 Y0.4630 
G01 X0.1751 Y0.3755 
G01 X0.1707 Y0.3725 
G01 X0.1657 Y0.3705 
G01 X0.1638 Y0.3701 
G01 X0.1638 Y0.3655 
G01 X0.1630 Y0.3627 
G01 X0.1616 Y0.3602 
G01 X0.1595 Y0.3581 
G00 Z0.0500 
G00 X0.1595 Y0.6581 
G01 Z-0.0025 F10.00 
G01 X0.1570 Y0.6567 F3.00  
G01 X0.1542 Y0.6559 
G01 X0.1159 Y0.6559 
G01 X0.1131 Y0.6567 
G01 X0.1106 Y0.6581 
G01 X0.1085 Y0.6602 
G01 X0.1071 Y0.6627 
G01 X0.1063 Y0.6655 
G01 X0.1063 Y0.7274 
G01 X0.1071 Y0.7302 
G01 X0.1085 Y0.7327 
G01 X0.1106 Y0.7348 
G01 X0.1131 Y0.7362 
G01 X0.1159 Y0.7370 
G01 X0.1542 Y0.7370 
G01 X0.1570 Y0.7362 
G01 X0.1586 Y0.7353 
G01 X0.2362 Y0.8130 
G01 X0.2362 Y0.8345 
G01 X0.2370 Y0.8373 
G01 X0.2384 Y0.8398 
G01 X0.2405 Y0.8419 
G01 X0.2430 Y0.8433 
G01 X0.2458 Y0.8441 
G01 X0.2841 Y0.8441 
G01 X0.2869 Y0.8433 
G01 X0.2894 Y0.8419 
G01 X0.2915 Y0.8398 
G01 X0.2929 Y0.8373 
G01 X0.2937 Y0.8345 
G01 X0.2937 Y0.7726 
G01 X0.2929 Y0.7698 
G01 X0.2915 Y0.7673 
G01 X0.2894 Y0.7652 
G01 X0.2869 Y0.7638 
G01 X0.2841 Y0.7630 
G01 X0.2626 Y0.7630 
G01 X0.1751 Y0.6755 
G01 X0.1707 Y0.6725 
G01 X0.1657 Y0.6705 
G01 X0.1638 Y0.6701 
G01 X0.1638 Y0.6655 
G01 X0.1630 Y0.6627 
G01 X0.1616 Y0.6602 
G01 X0.1595 Y0.6581 
G00 Z0.0500 
G00 X0.1595 Y0.9581 
G01 Z-0.0025 F10.00 
G01 X0.1570 Y0.9567 F3.00  
G01 X0.1542 Y0.9559 
G01 X0.1159 Y0.9559 
G01 X0.1131 Y0.9567 
G01 X0.1106 Y0.9581 
G01 X0.1085 Y0.9602 
G01 X0.1071 Y0.9627 
G01 X0.1063 Y0.9655 
G01 X0.1063 Y1.0274 
G01 X0.1071 Y1.0302 
G01 X0.1085 Y1.0327 
G01 X0.1106 Y1.0348 
G01 X0.1131 Y1.0362 
G01 X0.1159 Y1.0370 
G01 X0.1542 Y1.0370 
G01 X0.1570 Y1.0362 
G01 X0.1586 Y1.0353 
G01 X0.2362 Y1.1130 
G01 X0.2362 Y1.1345 
G01 X0.2370 Y1.1373 
G01 X0.2384 Y1.1398 
G01 X0.2405 Y1.1419 
G01 X0.2430 Y1.1433 
G01 X0.2458 Y1.1441 
G01 X0.2841 Y1.1441 
G01 X0.2869 Y1.1433 
G01 X0.2894 Y1.1419 
G01 X0.2915 Y1.1398 
G01 X0.2929 Y1.1373 
G01 X0.2937 Y1.1345 
G01 X0.2937 Y1.0726 
G01 X0.2929 Y1.0698 
G01 X0.2915 Y1.0673 
G01 X0.2894 Y1.0652 
G01 X0.2869 Y1.0638 
G01 X0.2841 Y1.0630 
G01 X0.2626 Y1.0630 
G01 X0.1751 Y0.9755 
G01 X0.1707 Y0.9725 
G01 X0.1657 Y0.9705 
G01 X0.1638 Y0.9701 
G01 X0.1638 Y0.9655 
G01 X0.1630 Y0.9627 
G01 X0.1616 Y0.9602 
G01 X0.1595 Y0.9581 
G00 Z0.0500 
G00 X0.1595 Y1.2581 
G01 Z-0.0025 F10.00 
G01 X0.1570 Y1.2567 F3.00  
G01 X0.1542 Y1.2559 
G01 X0.1159 Y1.2559 
G01 X0.1131 Y1.2567 
G01 X0.1106 Y1.2581 
G01 X0.1085 Y1.2602 
G01 X0.1071 Y1.2627 
G01 X0.1063 Y1.2655 
G01 X0.1063 Y1.3274 
G01 X0.1071 Y1.3302 
G01 X0.1085 Y1.3327 
G01 X0.1106 Y1.3348 
G01 X0.1131 Y1.3362 
G01 X0.1159 Y1.3370 
G01 X0.1374 Y1.3370 
G01 X0.1730 Y1.3726 
G01 X0.1730 Y1.4218 
G01 X0.1697 Y1.4251 
G01 X0.1654 Y1.4315 
G01 X0.1625 Y1.4386 
G01 X0.1610 Y1.4462 
G01 X0.1610 Y1.4538 
G01 X0.1625 Y1.4614 
G01 X0.1654 Y1.4685 
G01 X0.1697 Y1.4749 
G01 X0.1751 Y1.4803 
G01 X0.1815 Y1.4846 
G01 X0.1886 Y1.4875 
G01 X0.1962 Y1.4890 
G01 X0.2038 Y1.4890 
G01 X0.2114 Y1.4875 
G01 X0.2185 Y1.4846 
G01 X0.2249 Y1.4803 
G01 X0.2303 Y1.4749 
G01 X0.2346 Y1.4685 
G01 X0.2375 Y1.4614 
G01 X0.2390 Y1.4538 
G01 X0.2390 Y1.4462 
G01 X0.2375 Y1.4386 
G01 X0.2346 Y1.4315 
G01 X0.2303 Y1.4251 
G01 X0.2270 Y1.4218 
G01 X0.2270 Y1.3588 
G01 X0.2260 Y1.3535 
G01 X0.2239 Y1.3486 
G01 X0.2210 Y1.3442 
G01 X0.2172 Y1.3404 
G01 X0.1638 Y1.2870 
G01 X0.1638 Y1.2655 
G01 X0.1630 Y1.2627 
G01 X0.1616 Y1.2602 
G01 X0.1595 Y1.2581 
G00 Z0.0500 
G82 X0.3000 Y1.4500 Z-0.0110 F3.00  R0.0500 P1.000000
G82 X0.2000 Y1.4500 
G82 X0.1000 Y1.4500 
G82 X0.1000 Y0.0500 
G82 X0.2000 Y0.0500 
G82 X0.3000 Y0.0500 
G00 Z0.5000 
M05
M02
