(.../eagle-7.5.0/ulp/pcb-gcode/pcb-gcode.ulp)
(Copyright 2005 - 2012 by John Johnson)
(See readme.txt for licensing terms.)
(This file generated from the board:)
(.../hardware/src/Mini_Door_Client.brd)
(Current profile is .../ulp/pcb-gcode/profiles/emc.pp  )
(This file generated 12/22/16 10:27 AM)
(Settings from pcb-machine.h)
(spindle on time = 15.0000)
(spindle speed = 20000.0000)
(tool change at 0.0000 0.0000 0.5000 )
(feed rate xy = F0.00  )
(feed rate z  = F3.00  )
(Z Axis Settings)
(  High     Up        Down     Drill)
(0.5000 	0.0500 	-0.0025 	-0.0640 )
(Settings from pcb-defaults.h)
(isolate min = 0.0010)
(isolate max = 0.0300)
(isolate step = 0.0075)
(Generated top outlines, top drill, )
(Unit of measure: inch)
( Tool|       Size       |  Min Sub |  Max Sub |   Count )
( T01 | 1.016mm 0.0400in | 0.0000in | 0.0000in |       0 )
(Inch Mode)
G20
(Absolute Coordinates)
G90
S20000
G00 Z0.5000 
G00 X0.0000 Y0.0000 
M03
G04 P15.000000
M05
M06 T01 (0.0400 )
G01 Z0.0000 F3.00  
M06 
G00 Z0.0500 
M03
G04 P15.000000
G82 X0.1000 Y0.0500 Z-0.0640 F3.00  R0.0500 P1.000000
G82 X0.2000 Y0.0500 
G82 X0.3000 Y0.0500 
G82 X0.3000 Y1.4500 
G82 X0.2000 Y1.4500 
G82 X0.1000 Y1.4500 
T01 
G00 Z0.5000 
M05
M02
