(.../eagle-7.5.0/ulp/pcb-gcode/pcb-gcode.ulp)
(Copyright 2005 - 2012 by John Johnson)
(See readme.txt for licensing terms.)
(This file generated from the board:)
(.../hardware/src/Mini_Door_Client.brd)
(Current profile is .../ulp/pcb-gcode/profiles/emc.pp  )
(This file generated 12/14/16 9:34 PM)
(Settings from pcb-machine.h)
(spindle on time = 15.0000)
(  Tool Size)
(0.0200 )
(spindle speed = 30000.0000)
(tool change at 0.0000 0.0000 0.5000 )
(feed rate xy = F3.00  )
(feed rate z  = F10.00 )
(Z Axis Settings)
(  High     Up        Down     Drill)
(0.5000 	0.0500 	-0.0025 	-0.0640 )
(Settings from pcb-defaults.h)
(isolate min = 0.0010)
(isolate max = 0.0300)
(isolate step = 0.0075)
(Generated bottom outlines, bottom drill, )
(Unit of measure: inch)
(Inch Mode)
G20
(Absolute Coordinates)
G90
S30000
G00 Z0.5000 
G00 X0.0000 Y0.0000 
M03
G04 P15.000000
G00 Z0.0500 
G00 X0.0697 Y0.0251 
G01 Z-0.0025 F10.00 
G01 X0.0751 Y0.0197 F3.00  
G01 X0.0815 Y0.0154 
G01 X0.0886 Y0.0125 
G01 X0.0962 Y0.0110 
G01 X0.1038 Y0.0110 
G01 X0.1114 Y0.0125 
G01 X0.1185 Y0.0154 
G01 X0.1249 Y0.0197 
G01 X0.1303 Y0.0251 
G01 X0.1346 Y0.0315 
G01 X0.1375 Y0.0386 
G01 X0.1390 Y0.0462 
G01 X0.1390 Y0.0538 
G01 X0.1375 Y0.0614 
G01 X0.1346 Y0.0685 
G01 X0.1303 Y0.0749 
G01 X0.1249 Y0.0803 
G01 X0.1185 Y0.0846 
G01 X0.1114 Y0.0875 
G01 X0.1038 Y0.0890 
G01 X0.0962 Y0.0890 
G01 X0.0886 Y0.0875 
G01 X0.0815 Y0.0846 
G01 X0.0751 Y0.0803 
G01 X0.0697 Y0.0749 
G01 X0.0654 Y0.0685 
G01 X0.0625 Y0.0614 
G01 X0.0610 Y0.0538 
G01 X0.0610 Y0.0462 
G01 X0.0625 Y0.0386 
G01 X0.0654 Y0.0315 
G01 X0.0697 Y0.0251 
G00 Z0.0500 
G00 X0.1697 Y0.0251 
G01 Z-0.0025 F10.00 
G01 X0.1751 Y0.0197 F3.00  
G01 X0.1815 Y0.0154 
G01 X0.1886 Y0.0125 
G01 X0.1962 Y0.0110 
G01 X0.2038 Y0.0110 
G01 X0.2114 Y0.0125 
G01 X0.2185 Y0.0154 
G01 X0.2249 Y0.0197 
G01 X0.2303 Y0.0251 
G01 X0.2346 Y0.0315 
G01 X0.2375 Y0.0386 
G01 X0.2390 Y0.0462 
G01 X0.2390 Y0.0538 
G01 X0.2375 Y0.0614 
G01 X0.2346 Y0.0685 
G01 X0.2303 Y0.0749 
G01 X0.2249 Y0.0803 
G01 X0.2185 Y0.0846 
G01 X0.2114 Y0.0875 
G01 X0.2038 Y0.0890 
G01 X0.1962 Y0.0890 
G01 X0.1886 Y0.0875 
G01 X0.1815 Y0.0846 
G01 X0.1751 Y0.0803 
G01 X0.1697 Y0.0749 
G01 X0.1654 Y0.0685 
G01 X0.1625 Y0.0614 
G01 X0.1610 Y0.0538 
G01 X0.1610 Y0.0462 
G01 X0.1625 Y0.0386 
G01 X0.1654 Y0.0315 
G01 X0.1697 Y0.0251 
G00 Z0.0500 
G00 X0.2697 Y0.0251 
G01 Z-0.0025 F10.00 
G01 X0.2751 Y0.0197 F3.00  
G01 X0.2815 Y0.0154 
G01 X0.2886 Y0.0125 
G01 X0.2962 Y0.0110 
G01 X0.3038 Y0.0110 
G01 X0.3114 Y0.0125 
G01 X0.3185 Y0.0154 
G01 X0.3249 Y0.0197 
G01 X0.3303 Y0.0251 
G01 X0.3346 Y0.0315 
G01 X0.3375 Y0.0386 
G01 X0.3390 Y0.0462 
G01 X0.3390 Y0.0538 
G01 X0.3375 Y0.0614 
G01 X0.3346 Y0.0685 
G01 X0.3303 Y0.0749 
G01 X0.3249 Y0.0803 
G01 X0.3185 Y0.0846 
G01 X0.3114 Y0.0875 
G01 X0.3038 Y0.0890 
G01 X0.2962 Y0.0890 
G01 X0.2886 Y0.0875 
G01 X0.2815 Y0.0846 
G01 X0.2751 Y0.0803 
G01 X0.2697 Y0.0749 
G01 X0.2654 Y0.0685 
G01 X0.2625 Y0.0614 
G01 X0.2610 Y0.0538 
G01 X0.2610 Y0.0462 
G01 X0.2625 Y0.0386 
G01 X0.2654 Y0.0315 
G01 X0.2697 Y0.0251 
G00 Z0.0500 
G00 X0.2697 Y1.4251 
G01 Z-0.0025 F10.00 
G01 X0.2751 Y1.4197 F3.00  
G01 X0.2815 Y1.4154 
G01 X0.2886 Y1.4125 
G01 X0.2962 Y1.4110 
G01 X0.3038 Y1.4110 
G01 X0.3114 Y1.4125 
G01 X0.3185 Y1.4154 
G01 X0.3249 Y1.4197 
G01 X0.3303 Y1.4251 
G01 X0.3346 Y1.4315 
G01 X0.3375 Y1.4386 
G01 X0.3390 Y1.4462 
G01 X0.3390 Y1.4538 
G01 X0.3375 Y1.4614 
G01 X0.3346 Y1.4685 
G01 X0.3303 Y1.4749 
G01 X0.3249 Y1.4803 
G01 X0.3185 Y1.4846 
G01 X0.3114 Y1.4875 
G01 X0.3038 Y1.4890 
G01 X0.2962 Y1.4890 
G01 X0.2886 Y1.4875 
G01 X0.2815 Y1.4846 
G01 X0.2751 Y1.4803 
G01 X0.2697 Y1.4749 
G01 X0.2654 Y1.4685 
G01 X0.2625 Y1.4614 
G01 X0.2610 Y1.4538 
G01 X0.2610 Y1.4462 
G01 X0.2625 Y1.4386 
G01 X0.2654 Y1.4315 
G01 X0.2697 Y1.4251 
G00 Z0.0500 
G00 X0.2303 Y1.4251 
G01 Z-0.0025 F10.00 
G01 X0.2346 Y1.4315 F3.00  
G01 X0.2375 Y1.4386 
G01 X0.2390 Y1.4462 
G01 X0.2390 Y1.4538 
G01 X0.2375 Y1.4614 
G01 X0.2346 Y1.4685 
G01 X0.2303 Y1.4749 
G01 X0.2249 Y1.4803 
G01 X0.2185 Y1.4846 
G01 X0.2114 Y1.4875 
G01 X0.2038 Y1.4890 
G01 X0.1962 Y1.4890 
G01 X0.1886 Y1.4875 
G01 X0.1815 Y1.4846 
G01 X0.1751 Y1.4803 
G01 X0.1697 Y1.4749 
G01 X0.1654 Y1.4685 
G01 X0.1625 Y1.4614 
G01 X0.1610 Y1.4538 
G01 X0.1610 Y1.4462 
G01 X0.1625 Y1.4386 
G01 X0.1654 Y1.4315 
G01 X0.1697 Y1.4251 
G01 X0.1751 Y1.4197 
G01 X0.1815 Y1.4154 
G01 X0.1886 Y1.4125 
G01 X0.1962 Y1.4110 
G01 X0.2038 Y1.4110 
G01 X0.2114 Y1.4125 
G01 X0.2185 Y1.4154 
G01 X0.2249 Y1.4197 
G01 X0.2303 Y1.4251 
G00 Z0.0500 
G00 X0.1303 Y1.4251 
G01 Z-0.0025 F10.00 
G01 X0.1346 Y1.4315 F3.00  
G01 X0.1375 Y1.4386 
G01 X0.1390 Y1.4462 
G01 X0.1390 Y1.4538 
G01 X0.1375 Y1.4614 
G01 X0.1346 Y1.4685 
G01 X0.1303 Y1.4749 
G01 X0.1249 Y1.4803 
G01 X0.1185 Y1.4846 
G01 X0.1114 Y1.4875 
G01 X0.1038 Y1.4890 
G01 X0.0962 Y1.4890 
G01 X0.0886 Y1.4875 
G01 X0.0815 Y1.4846 
G01 X0.0751 Y1.4803 
G01 X0.0697 Y1.4749 
G01 X0.0654 Y1.4685 
G01 X0.0625 Y1.4614 
G01 X0.0610 Y1.4538 
G01 X0.0610 Y1.4462 
G01 X0.0625 Y1.4386 
G01 X0.0654 Y1.4315 
G01 X0.0697 Y1.4251 
G01 X0.0751 Y1.4197 
G01 X0.0815 Y1.4154 
G01 X0.0886 Y1.4125 
G01 X0.0962 Y1.4110 
G01 X0.1038 Y1.4110 
G01 X0.1114 Y1.4125 
G01 X0.1185 Y1.4154 
G01 X0.1249 Y1.4197 
G01 X0.1303 Y1.4251 
G00 Z0.0500 
G82 X0.3000 Y1.4500 Z-0.0110 F3.00  R0.0500 P1.000000
G82 X0.2000 Y1.4500 
G82 X0.1000 Y1.4500 
G82 X0.1000 Y0.0500 
G82 X0.2000 Y0.0500 
G82 X0.3000 Y0.0500 
G00 Z0.5000 
M05
M02
