(.../pcb-gcode-3.6.0.4/pcb-gcode.ulp)
(Copyright 2005 - 2012 by John Johnson)
(See readme.txt for licensing terms.)
(This file generated from the board:)
(.../reader-and-latch-client-V2016-7-5.brd)
(Current profile is .../pcb-gcode-3.6.0.4/profiles/Pololu_PCB_mill.pp  )
(This file generated 7/6/2016 7:02 PM)
(Settings from pcb-machine.h)
(  Tool Size)
(0.0070 )
(Z Axis Settings)
(  High     Up        Down     Drill)
(0.1500 	0.1000 	-0.0060 	-0.0800 )
(spindle on time = 0.1000)
(milling depth = -0.0090)
(text depth = -0.0050)
(tool change at 0.0000 0.0000 0.1500 )
(feed rate xy = F10.00 )
(feed rate z  = F10.00 )
(Settings from pcb-defaults.h)
(isolate min = 0.0010)
(isolate max = 0.0120)
(isolate step = 0.0070)
(Generated top outlines, bottom outlines, bottom drill, )
(Unit of measure: inch)
(Inch Mode)
G20
(Absolute Coordinates)
G90
G00 X0.0000 Y0.0000 
M03 S1
G04 P0.100000
G00 Z0.1000 
G00 X3.0368 Y1.6078 
G01 Z-0.0060 F10.00 
G01 X3.0460 Y1.5855 F10.00 
G01 X3.0460 Y1.5613 
G01 X3.0368 Y1.5390 
G01 X3.0197 Y1.5219 
G01 X2.9973 Y1.5127 
G01 X2.9027 Y1.5127 
G01 X2.8803 Y1.5219 
G01 X2.8632 Y1.5390 
G01 X2.8540 Y1.5613 
G01 X2.8540 Y1.5855 
G01 X2.8632 Y1.6078 
G01 X2.8803 Y1.6249 
G01 X2.9027 Y1.6342 
G01 X2.9973 Y1.6342 
G01 X3.0197 Y1.6249 
G01 X3.0368 Y1.6078 
G00 Z0.1000 
G00 X2.9892 Y1.6132 
G01 Z-0.0060 F10.00 
G01 X2.9108 Y1.6132 F10.00 
G01 X2.9032 Y1.6116 
G01 X2.8959 Y1.6087 
G01 X2.8894 Y1.6043 
G01 X2.8839 Y1.5988 
G01 X2.8795 Y1.5923 
G01 X2.8765 Y1.5850 
G01 X2.8750 Y1.5773 
G01 X2.8750 Y1.5695 
G01 X2.8765 Y1.5618 
G01 X2.8795 Y1.5546 
G01 X2.8839 Y1.5481 
G01 X2.8894 Y1.5425 
G01 X2.8959 Y1.5382 
G01 X2.9032 Y1.5352 
G01 X2.9108 Y1.5337 
G01 X2.9892 Y1.5337 
G01 X2.9968 Y1.5352 
G01 X3.0041 Y1.5382 
G01 X3.0106 Y1.5425 
G01 X3.0161 Y1.5481 
G01 X3.0205 Y1.5546 
G01 X3.0235 Y1.5618 
G01 X3.0250 Y1.5695 
G01 X3.0250 Y1.5773 
G01 X3.0235 Y1.5850 
G01 X3.0205 Y1.5923 
G01 X3.0161 Y1.5988 
G01 X3.0106 Y1.6043 
G01 X3.0041 Y1.6087 
G01 X2.9968 Y1.6116 
G01 X2.9892 Y1.6132 
G00 Z0.1000 
G00 X2.2014 Y2.3930 
G01 Z-0.0060 F10.00 
G01 X2.1680 Y2.4264 F10.00 
G01 X2.1680 Y2.4736 
G01 X2.2014 Y2.5070 
G01 X2.2486 Y2.5070 
G01 X2.2820 Y2.4736 
G01 X2.2820 Y2.4264 
G01 X2.2486 Y2.3930 
G01 X2.2014 Y2.3930 
G00 Z0.1000 
G00 X2.2610 Y2.4351 
G01 Z-0.0060 F10.00 
G01 X2.2610 Y2.4649 F10.00 
G01 X2.2399 Y2.4860 
G01 X2.2101 Y2.4860 
G01 X2.1890 Y2.4649 
G01 X2.1890 Y2.4351 
G01 X2.2101 Y2.4140 
G01 X2.2399 Y2.4140 
G01 X2.2610 Y2.4351 
G00 Z0.1000 
G00 X2.9014 Y2.3930 
G01 Z-0.0060 F10.00 
G01 X2.8680 Y2.4264 F10.00 
G01 X2.8680 Y2.4736 
G01 X2.9014 Y2.5070 
G01 X2.9486 Y2.5070 
G01 X2.9820 Y2.4736 
G01 X2.9820 Y2.4264 
G01 X2.9486 Y2.3930 
G01 X2.9014 Y2.3930 
G00 Z0.1000 
G00 X2.9610 Y2.4351 
G01 Z-0.0060 F10.00 
G01 X2.9610 Y2.4649 F10.00 
G01 X2.9399 Y2.4860 
G01 X2.9101 Y2.4860 
G01 X2.8890 Y2.4649 
G01 X2.8890 Y2.4351 
G01 X2.9101 Y2.4140 
G01 X2.9399 Y2.4140 
G01 X2.9610 Y2.4351 
G00 Z0.1000 
G00 X1.1264 Y2.4680 
G01 Z-0.0060 F10.00 
G01 X1.0930 Y2.5014 F10.00 
G01 X1.0930 Y2.5486 
G01 X1.1264 Y2.5820 
G01 X1.1736 Y2.5820 
G01 X1.2070 Y2.5486 
G01 X1.2070 Y2.5014 
G01 X1.1736 Y2.4680 
G01 X1.1264 Y2.4680 
G00 Z0.1000 
G00 X1.1860 Y2.5101 
G01 Z-0.0060 F10.00 
G01 X1.1860 Y2.5399 F10.00 
G01 X1.1649 Y2.5610 
G01 X1.1351 Y2.5610 
G01 X1.1140 Y2.5399 
G01 X1.1140 Y2.5101 
G01 X1.1351 Y2.4890 
G01 X1.1649 Y2.4890 
G01 X1.1860 Y2.5101 
G00 Z0.1000 
G00 X1.9887 Y2.6870 
G01 Z-0.0060 F10.00 
G01 X1.9445 Y2.7312 F10.00 
G01 X1.9445 Y2.7938 
G01 X1.9887 Y2.8380 
G01 X2.0513 Y2.8380 
G01 X2.0955 Y2.7938 
G01 X2.0955 Y2.7312 
G01 X2.0513 Y2.6870 
G01 X1.9887 Y2.6870 
G00 Z0.1000 
G00 X2.0745 Y2.7399 
G01 Z-0.0060 F10.00 
G01 X2.0745 Y2.7851 F10.00 
G01 X2.0426 Y2.8170 
G01 X1.9974 Y2.8170 
G01 X1.9655 Y2.7851 
G01 X1.9655 Y2.7399 
G01 X1.9974 Y2.7080 
G01 X2.0426 Y2.7080 
G01 X2.0745 Y2.7399 
G00 Z0.1000 
G00 X0.1790 Y0.1566 
G01 Z-0.0060 F10.00 
G01 X0.1602 Y0.1488 F10.00 
G01 X0.1398 Y0.1488 
G01 X0.1210 Y0.1566 
G01 X0.1066 Y0.1710 
G01 X0.0988 Y0.1898 
G01 X0.0988 Y0.2102 
G01 X0.1066 Y0.2290 
G01 X0.1210 Y0.2434 
G01 X0.1398 Y0.2512 
G01 X0.1602 Y0.2512 
G01 X0.1790 Y0.2434 
G01 X0.1934 Y0.2290 
G01 X0.2012 Y0.2102 
G01 X0.2012 Y0.1898 
G01 X0.1934 Y0.1710 
G01 X0.1790 Y0.1566 
G00 Z0.1000 
G00 X3.1602 Y0.1488 
G01 Z-0.0060 F10.00 
G01 X3.1398 Y0.1488 F10.00 
G01 X3.1210 Y0.1566 
G01 X3.1066 Y0.1710 
G01 X3.0988 Y0.1898 
G01 X3.0988 Y0.2102 
G01 X3.1066 Y0.2290 
G01 X3.1210 Y0.2434 
G01 X3.1398 Y0.2512 
G01 X3.1602 Y0.2512 
G01 X3.1790 Y0.2434 
G01 X3.1934 Y0.2290 
G01 X3.2012 Y0.2102 
G01 X3.2012 Y0.1898 
G01 X3.1934 Y0.1710 
G01 X3.1790 Y0.1566 
G01 X3.1602 Y0.1488 
G00 Z0.1000 
G00 X3.1602 Y2.8988 
G01 Z-0.0060 F10.00 
G01 X3.1398 Y2.8988 F10.00 
G01 X3.1210 Y2.9066 
G01 X3.1066 Y2.9210 
G01 X3.0988 Y2.9398 
G01 X3.0988 Y2.9602 
G01 X3.1066 Y2.9790 
G01 X3.1210 Y2.9934 
G01 X3.1398 Y3.0012 
G01 X3.1602 Y3.0012 
G01 X3.1790 Y2.9934 
G01 X3.1934 Y2.9790 
G01 X3.2012 Y2.9602 
G01 X3.2012 Y2.9398 
G01 X3.1934 Y2.9210 
G01 X3.1790 Y2.9066 
G01 X3.1602 Y2.8988 
G00 Z0.1000 
G00 X0.3360 Y1.8876 
G01 Z-0.0060 F10.00 
G01 X0.3452 Y1.8652 F10.00 
G01 X0.3452 Y1.8411 
G01 X0.3360 Y1.8187 
G01 X0.3189 Y1.8016 
G01 X0.2965 Y1.7924 
G01 X0.2019 Y1.7924 
G01 X0.1796 Y1.8016 
G01 X0.1625 Y1.8187 
G01 X0.1532 Y1.8411 
G01 X0.1532 Y1.8652 
G01 X0.1625 Y1.8876 
G01 X0.1796 Y1.9047 
G01 X0.2019 Y1.9139 
G01 X0.2965 Y1.9139 
G01 X0.3189 Y1.9047 
G01 X0.3360 Y1.8876 
G00 Z0.1000 
G00 X0.2884 Y1.8929 
G01 Z-0.0060 F10.00 
G01 X0.2100 Y1.8929 F10.00 
G01 X0.2024 Y1.8914 
G01 X0.1951 Y1.8884 
G01 X0.1886 Y1.8840 
G01 X0.1831 Y1.8785 
G01 X0.1787 Y1.8720 
G01 X0.1757 Y1.8647 
G01 X0.1742 Y1.8571 
G01 X0.1742 Y1.8492 
G01 X0.1757 Y1.8416 
G01 X0.1787 Y1.8343 
G01 X0.1831 Y1.8278 
G01 X0.1886 Y1.8223 
G01 X0.1951 Y1.8179 
G01 X0.2024 Y1.8149 
G01 X0.2100 Y1.8134 
G01 X0.2884 Y1.8134 
G01 X0.2961 Y1.8149 
G01 X0.3033 Y1.8179 
G01 X0.3098 Y1.8223 
G01 X0.3153 Y1.8278 
G01 X0.3197 Y1.8343 
G01 X0.3227 Y1.8416 
G01 X0.3242 Y1.8492 
G01 X0.3242 Y1.8571 
G01 X0.3227 Y1.8647 
G01 X0.3197 Y1.8720 
G01 X0.3153 Y1.8785 
G01 X0.3098 Y1.8840 
G01 X0.3033 Y1.8884 
G01 X0.2961 Y1.8914 
G01 X0.2884 Y1.8929 
G00 Z0.1000 
G00 X0.1796 Y2.1953 
G01 Z-0.0060 F10.00 
G01 X0.1625 Y2.2124 F10.00 
G01 X0.1532 Y2.2348 
G01 X0.1532 Y2.2589 
G01 X0.1625 Y2.2813 
G01 X0.1796 Y2.2984 
G01 X0.2019 Y2.3076 
G01 X0.2965 Y2.3076 
G01 X0.3189 Y2.2984 
G01 X0.3360 Y2.2813 
G01 X0.3452 Y2.2589 
G01 X0.3452 Y2.2348 
G01 X0.3360 Y2.2124 
G01 X0.3189 Y2.1953 
G01 X0.2965 Y2.1861 
G01 X0.2019 Y2.1861 
G01 X0.1796 Y2.1953 
G00 Z0.1000 
G00 X0.2884 Y2.2866 
G01 Z-0.0060 F10.00 
G01 X0.2100 Y2.2866 F10.00 
G01 X0.2024 Y2.2851 
G01 X0.1951 Y2.2821 
G01 X0.1886 Y2.2777 
G01 X0.1831 Y2.2722 
G01 X0.1787 Y2.2657 
G01 X0.1757 Y2.2584 
G01 X0.1742 Y2.2508 
G01 X0.1742 Y2.2429 
G01 X0.1757 Y2.2353 
G01 X0.1787 Y2.2280 
G01 X0.1831 Y2.2215 
G01 X0.1886 Y2.2160 
G01 X0.1951 Y2.2116 
G01 X0.2024 Y2.2086 
G01 X0.2100 Y2.2071 
G01 X0.2884 Y2.2071 
G01 X0.2961 Y2.2086 
G01 X0.3033 Y2.2116 
G01 X0.3098 Y2.2160 
G01 X0.3153 Y2.2215 
G01 X0.3197 Y2.2280 
G01 X0.3227 Y2.2353 
G01 X0.3242 Y2.2429 
G01 X0.3242 Y2.2508 
G01 X0.3227 Y2.2584 
G01 X0.3197 Y2.2657 
G01 X0.3153 Y2.2722 
G01 X0.3098 Y2.2777 
G01 X0.3033 Y2.2821 
G01 X0.2961 Y2.2851 
G01 X0.2884 Y2.2866 
G00 Z0.1000 
G00 X0.1796 Y1.9985 
G01 Z-0.0060 F10.00 
G01 X0.1625 Y2.0156 F10.00 
G01 X0.1532 Y2.0379 
G01 X0.1532 Y2.0621 
G01 X0.1625 Y2.0844 
G01 X0.1796 Y2.1015 
G01 X0.2019 Y2.1107 
G01 X0.2965 Y2.1107 
G01 X0.3189 Y2.1015 
G01 X0.3360 Y2.0844 
G01 X0.3452 Y2.0621 
G01 X0.3452 Y2.0379 
G01 X0.3360 Y2.0156 
G01 X0.3189 Y1.9985 
G01 X0.2965 Y1.9892 
G01 X0.2019 Y1.9892 
G01 X0.1796 Y1.9985 
G00 Z0.1000 
G00 X0.2884 Y2.0897 
G01 Z-0.0060 F10.00 
G01 X0.2100 Y2.0897 F10.00 
G01 X0.2024 Y2.0882 
G01 X0.1951 Y2.0852 
G01 X0.1886 Y2.0809 
G01 X0.1831 Y2.0753 
G01 X0.1787 Y2.0688 
G01 X0.1757 Y2.0616 
G01 X0.1742 Y2.0539 
G01 X0.1742 Y2.0461 
G01 X0.1757 Y2.0384 
G01 X0.1787 Y2.0312 
G01 X0.1831 Y2.0247 
G01 X0.1886 Y2.0191 
G01 X0.1951 Y2.0148 
G01 X0.2024 Y2.0118 
G01 X0.2100 Y2.0103 
G01 X0.2884 Y2.0103 
G01 X0.2961 Y2.0118 
G01 X0.3033 Y2.0148 
G01 X0.3098 Y2.0191 
G01 X0.3153 Y2.0247 
G01 X0.3197 Y2.0312 
G01 X0.3227 Y2.0384 
G01 X0.3242 Y2.0461 
G01 X0.3242 Y2.0539 
G01 X0.3227 Y2.0616 
G01 X0.3197 Y2.0688 
G01 X0.3153 Y2.0753 
G01 X0.3098 Y2.0809 
G01 X0.3033 Y2.0852 
G01 X0.2961 Y2.0882 
G01 X0.2884 Y2.0897 
G00 Z0.1000 
G00 X0.1790 Y2.9066 
G01 Z-0.0060 F10.00 
G01 X0.1602 Y2.8988 F10.00 
G01 X0.1398 Y2.8988 
G01 X0.1210 Y2.9066 
G01 X0.1066 Y2.9210 
G01 X0.0988 Y2.9398 
G01 X0.0988 Y2.9602 
G01 X0.1066 Y2.9790 
G01 X0.1210 Y2.9934 
G01 X0.1398 Y3.0012 
G01 X0.1602 Y3.0012 
G01 X0.1790 Y2.9934 
G01 X0.1934 Y2.9790 
G01 X0.2012 Y2.9602 
G01 X0.2012 Y2.9398 
G01 X0.1934 Y2.9210 
G01 X0.1790 Y2.9066 
G00 Z0.1000 
G00 X1.0987 Y2.6870 
G01 Z-0.0060 F10.00 
G01 X1.0545 Y2.7312 F10.00 
G01 X1.0545 Y2.7938 
G01 X1.0987 Y2.8380 
G01 X1.1613 Y2.8380 
G01 X1.2055 Y2.7938 
G01 X1.2055 Y2.7312 
G01 X1.1613 Y2.6870 
G01 X1.0987 Y2.6870 
G00 Z0.1000 
G00 X1.1845 Y2.7399 
G01 Z-0.0060 F10.00 
G01 X1.1845 Y2.7851 F10.00 
G01 X1.1526 Y2.8170 
G01 X1.1074 Y2.8170 
G01 X1.0755 Y2.7851 
G01 X1.0755 Y2.7399 
G01 X1.1074 Y2.7080 
G01 X1.1526 Y2.7080 
G01 X1.1845 Y2.7399 
G00 Z0.1000 
G00 X1.4602 Y2.5765 
G01 Z-0.0060 F10.00 
G01 X1.4792 Y2.5687 F10.00 
G01 X1.4937 Y2.5542 
G01 X1.5015 Y2.5352 
G01 X1.5015 Y2.5148 
G01 X1.4937 Y2.4958 
G01 X1.4884 Y2.4906 
G01 X1.4870 Y2.4885 
G01 X1.4858 Y2.4866 
G01 X1.4847 Y2.4840 
G01 X1.4839 Y2.4821 
G01 X1.4830 Y2.4774 
G01 X1.4830 Y2.4726 
G01 X1.4833 Y2.4708 
G01 X1.4839 Y2.4679 
G01 X1.4858 Y2.4634 
G01 X1.4871 Y2.4615 
G01 X1.4884 Y2.4594 
G01 X1.4919 Y2.4560 
G01 X1.4937 Y2.4542 
G01 X1.5015 Y2.4352 
G01 X1.5015 Y2.4148 
G01 X1.4937 Y2.3958 
G01 X1.4884 Y2.3906 
G01 X1.4870 Y2.3885 
G01 X1.4858 Y2.3866 
G01 X1.4847 Y2.3840 
G01 X1.4839 Y2.3821 
G01 X1.4830 Y2.3774 
G01 X1.4830 Y2.3726 
G01 X1.4833 Y2.3708 
G01 X1.4839 Y2.3679 
G01 X1.4858 Y2.3634 
G01 X1.4871 Y2.3615 
G01 X1.4884 Y2.3594 
G01 X1.4919 Y2.3560 
G01 X1.4937 Y2.3542 
G01 X1.5015 Y2.3352 
G01 X1.5015 Y2.3148 
G01 X1.4937 Y2.2958 
G01 X1.4884 Y2.2906 
G01 X1.4870 Y2.2885 
G01 X1.4858 Y2.2866 
G01 X1.4847 Y2.2840 
G01 X1.4839 Y2.2821 
G01 X1.4830 Y2.2774 
G01 X1.4830 Y2.2726 
G01 X1.4833 Y2.2708 
G01 X1.4839 Y2.2679 
G01 X1.4858 Y2.2634 
G01 X1.4871 Y2.2615 
G01 X1.4884 Y2.2594 
G01 X1.4919 Y2.2560 
G01 X1.4937 Y2.2542 
G01 X1.5015 Y2.2352 
G01 X1.5015 Y2.2148 
G01 X1.4937 Y2.1958 
G01 X1.4792 Y2.1813 
G01 X1.4602 Y2.1735 
G01 X1.4398 Y2.1735 
G01 X1.4208 Y2.1813 
G01 X1.4063 Y2.1958 
G01 X1.3985 Y2.2148 
G01 X1.3985 Y2.2352 
G01 X1.3990 Y2.2364 
G01 X1.3993 Y2.2379 
G01 X1.3999 Y2.2411 
G01 X1.3999 Y2.2459 
G01 X1.3992 Y2.2496 
G01 X1.3990 Y2.2506 
G01 X1.3978 Y2.2535 
G01 X1.3971 Y2.2551 
G01 X1.3961 Y2.2567 
G01 X1.3944 Y2.2591 
G01 X1.3910 Y2.2625 
G01 X1.3870 Y2.2652 
G01 X1.3837 Y2.2666 
G01 X1.3825 Y2.2671 
G01 X1.3810 Y2.2674 
G01 X1.3778 Y2.2680 
G01 X1.3264 Y2.2680 
G01 X1.2930 Y2.3014 
G01 X1.2930 Y2.3486 
G01 X1.3264 Y2.3820 
G01 X1.3778 Y2.3820 
G01 X1.3809 Y2.3826 
G01 X1.3825 Y2.3829 
G01 X1.3836 Y2.3834 
G01 X1.3870 Y2.3848 
G01 X1.3910 Y2.3875 
G01 X1.3944 Y2.3908 
G01 X1.3960 Y2.3932 
G01 X1.3971 Y2.3949 
G01 X1.3977 Y2.3964 
G01 X1.3990 Y2.3994 
G01 X1.3991 Y2.4003 
G01 X1.3999 Y2.4041 
G01 X1.3999 Y2.4089 
G01 X1.3993 Y2.4120 
G01 X1.3990 Y2.4136 
G01 X1.3985 Y2.4147 
G01 X1.3985 Y2.4352 
G01 X1.3990 Y2.4364 
G01 X1.3993 Y2.4379 
G01 X1.3999 Y2.4411 
G01 X1.3999 Y2.4459 
G01 X1.3992 Y2.4496 
G01 X1.3990 Y2.4506 
G01 X1.3978 Y2.4535 
G01 X1.3971 Y2.4551 
G01 X1.3961 Y2.4567 
G01 X1.3944 Y2.4591 
G01 X1.3910 Y2.4625 
G01 X1.3870 Y2.4652 
G01 X1.3837 Y2.4666 
G01 X1.3825 Y2.4671 
G01 X1.3810 Y2.4674 
G01 X1.3778 Y2.4680 
G01 X1.3264 Y2.4680 
G01 X1.2930 Y2.5014 
G01 X1.2930 Y2.5486 
G01 X1.3264 Y2.5820 
G01 X1.3736 Y2.5820 
G01 X1.3883 Y2.5673 
G01 X1.3923 Y2.5647 
G01 X1.3967 Y2.5628 
G01 X1.4015 Y2.5619 
G01 X1.4063 Y2.5619 
G01 X1.4072 Y2.5620 
G01 X1.4110 Y2.5628 
G01 X1.4137 Y2.5639 
G01 X1.4155 Y2.5647 
G01 X1.4171 Y2.5657 
G01 X1.4195 Y2.5673 
G01 X1.4208 Y2.5687 
G01 X1.4398 Y2.5765 
G01 X1.4602 Y2.5765 
G00 Z0.1000 
G00 X1.4805 Y2.2220 
G01 Z-0.0060 F10.00 
G01 X1.4805 Y2.2280 F10.00 
G01 X1.4793 Y2.2339 
G01 X1.4770 Y2.2394 
G01 X1.4737 Y2.2444 
G01 X1.4694 Y2.2487 
G01 X1.4644 Y2.2520 
G01 X1.4589 Y2.2543 
G01 X1.4530 Y2.2555 
G01 X1.4470 Y2.2555 
G01 X1.4411 Y2.2543 
G01 X1.4356 Y2.2520 
G01 X1.4306 Y2.2487 
G01 X1.4263 Y2.2444 
G01 X1.4230 Y2.2394 
G01 X1.4207 Y2.2339 
G01 X1.4195 Y2.2280 
G01 X1.4195 Y2.2220 
G01 X1.4207 Y2.2161 
G01 X1.4230 Y2.2106 
G01 X1.4263 Y2.2056 
G01 X1.4306 Y2.2013 
G01 X1.4356 Y2.1980 
G01 X1.4411 Y2.1957 
G01 X1.4470 Y2.1945 
G01 X1.4530 Y2.1945 
G01 X1.4589 Y2.1957 
G01 X1.4644 Y2.1980 
G01 X1.4694 Y2.2013 
G01 X1.4737 Y2.2056 
G01 X1.4770 Y2.2106 
G01 X1.4793 Y2.2161 
G01 X1.4805 Y2.2220 
G00 Z0.1000 
G00 X1.4805 Y2.3220 
G01 Z-0.0060 F10.00 
G01 X1.4805 Y2.3280 F10.00 
G01 X1.4793 Y2.3339 
G01 X1.4770 Y2.3394 
G01 X1.4737 Y2.3444 
G01 X1.4694 Y2.3487 
G01 X1.4644 Y2.3520 
G01 X1.4589 Y2.3543 
G01 X1.4530 Y2.3555 
G01 X1.4470 Y2.3555 
G01 X1.4411 Y2.3543 
G01 X1.4356 Y2.3520 
G01 X1.4306 Y2.3487 
G01 X1.4263 Y2.3444 
G01 X1.4230 Y2.3394 
G01 X1.4207 Y2.3339 
G01 X1.4195 Y2.3280 
G01 X1.4195 Y2.3220 
G01 X1.4207 Y2.3161 
G01 X1.4230 Y2.3106 
G01 X1.4263 Y2.3056 
G01 X1.4306 Y2.3013 
G01 X1.4356 Y2.2980 
G01 X1.4411 Y2.2957 
G01 X1.4470 Y2.2945 
G01 X1.4530 Y2.2945 
G01 X1.4589 Y2.2957 
G01 X1.4644 Y2.2980 
G01 X1.4694 Y2.3013 
G01 X1.4737 Y2.3056 
G01 X1.4770 Y2.3106 
G01 X1.4793 Y2.3161 
G01 X1.4805 Y2.3220 
G00 Z0.1000 
G00 X1.4805 Y2.4220 
G01 Z-0.0060 F10.00 
G01 X1.4805 Y2.4280 F10.00 
G01 X1.4793 Y2.4339 
G01 X1.4770 Y2.4394 
G01 X1.4737 Y2.4444 
G01 X1.4694 Y2.4487 
G01 X1.4644 Y2.4520 
G01 X1.4589 Y2.4543 
G01 X1.4530 Y2.4555 
G01 X1.4470 Y2.4555 
G01 X1.4411 Y2.4543 
G01 X1.4356 Y2.4520 
G01 X1.4306 Y2.4487 
G01 X1.4263 Y2.4444 
G01 X1.4230 Y2.4394 
G01 X1.4207 Y2.4339 
G01 X1.4195 Y2.4280 
G01 X1.4195 Y2.4220 
G01 X1.4207 Y2.4161 
G01 X1.4230 Y2.4106 
G01 X1.4263 Y2.4056 
G01 X1.4306 Y2.4013 
G01 X1.4356 Y2.3980 
G01 X1.4411 Y2.3957 
G01 X1.4470 Y2.3945 
G01 X1.4530 Y2.3945 
G01 X1.4589 Y2.3957 
G01 X1.4644 Y2.3980 
G01 X1.4694 Y2.4013 
G01 X1.4737 Y2.4056 
G01 X1.4770 Y2.4106 
G01 X1.4793 Y2.4161 
G01 X1.4805 Y2.4220 
G00 Z0.1000 
G00 X1.4805 Y2.5220 
G01 Z-0.0060 F10.00 
G01 X1.4805 Y2.5280 F10.00 
G01 X1.4793 Y2.5339 
G01 X1.4770 Y2.5394 
G01 X1.4737 Y2.5444 
G01 X1.4694 Y2.5487 
G01 X1.4644 Y2.5520 
G01 X1.4589 Y2.5543 
G01 X1.4530 Y2.5555 
G01 X1.4470 Y2.5555 
G01 X1.4411 Y2.5543 
G01 X1.4356 Y2.5520 
G01 X1.4306 Y2.5487 
G01 X1.4263 Y2.5444 
G01 X1.4230 Y2.5394 
G01 X1.4207 Y2.5339 
G01 X1.4195 Y2.5280 
G01 X1.4195 Y2.5220 
G01 X1.4207 Y2.5161 
G01 X1.4230 Y2.5106 
G01 X1.4263 Y2.5056 
G01 X1.4306 Y2.5013 
G01 X1.4356 Y2.4980 
G01 X1.4411 Y2.4957 
G01 X1.4470 Y2.4945 
G01 X1.4530 Y2.4945 
G01 X1.4589 Y2.4957 
G01 X1.4644 Y2.4980 
G01 X1.4694 Y2.5013 
G01 X1.4737 Y2.5056 
G01 X1.4770 Y2.5106 
G01 X1.4793 Y2.5161 
G01 X1.4805 Y2.5220 
G00 Z0.1000 
G00 X1.3860 Y2.3101 
G01 Z-0.0060 F10.00 
G01 X1.3860 Y2.3399 F10.00 
G01 X1.3649 Y2.3610 
G01 X1.3351 Y2.3610 
G01 X1.3140 Y2.3399 
G01 X1.3140 Y2.3101 
G01 X1.3351 Y2.2890 
G01 X1.3649 Y2.2890 
G01 X1.3860 Y2.3101 
G00 Z0.1000 
G00 X1.3860 Y2.5101 
G01 Z-0.0060 F10.00 
G01 X1.3860 Y2.5399 F10.00 
G01 X1.3649 Y2.5610 
G01 X1.3351 Y2.5610 
G01 X1.3140 Y2.5399 
G01 X1.3140 Y2.5101 
G01 X1.3351 Y2.4890 
G01 X1.3649 Y2.4890 
G01 X1.3860 Y2.5101 
G00 Z0.1000 
G00 X2.9014 Y2.5930 
G01 Z-0.0060 F10.00 
G01 X2.8680 Y2.6264 F10.00 
G01 X2.8680 Y2.6736 
G01 X2.9014 Y2.7070 
G01 X2.9486 Y2.7070 
G01 X2.9820 Y2.6736 
G01 X2.9820 Y2.6264 
G01 X2.9486 Y2.5930 
G01 X2.9014 Y2.5930 
G00 Z0.1000 
G00 X2.9610 Y2.6351 
G01 Z-0.0060 F10.00 
G01 X2.9610 Y2.6649 F10.00 
G01 X2.9399 Y2.6860 
G01 X2.9101 Y2.6860 
G01 X2.8890 Y2.6649 
G01 X2.8890 Y2.6351 
G01 X2.9101 Y2.6140 
G01 X2.9399 Y2.6140 
G01 X2.9610 Y2.6351 
G00 Z0.1000 
G00 X2.2014 Y2.5930 
G01 Z-0.0060 F10.00 
G01 X2.1680 Y2.6264 F10.00 
G01 X2.1680 Y2.6736 
G01 X2.2014 Y2.7070 
G01 X2.2486 Y2.7070 
G01 X2.2820 Y2.6736 
G01 X2.2820 Y2.6264 
G01 X2.2486 Y2.5930 
G01 X2.2014 Y2.5930 
G00 Z0.1000 
G00 X2.2610 Y2.6351 
G01 Z-0.0060 F10.00 
G01 X2.2610 Y2.6649 F10.00 
G01 X2.2399 Y2.6860 
G01 X2.2101 Y2.6860 
G01 X2.1890 Y2.6649 
G01 X2.1890 Y2.6351 
G01 X2.2101 Y2.6140 
G01 X2.2399 Y2.6140 
G01 X2.2610 Y2.6351 
G00 Z0.1000 
G00 X2.7581 Y1.6504 
G01 Z-0.0060 F10.00 
G01 X2.7366 Y1.6415 F10.00 
G01 X2.7134 Y1.6415 
G01 X2.6919 Y1.6504 
G01 X2.6754 Y1.6669 
G01 X2.6665 Y1.6884 
G01 X2.6665 Y1.7116 
G01 X2.6754 Y1.7331 
G01 X2.6919 Y1.7496 
G01 X2.7134 Y1.7585 
G01 X2.7366 Y1.7585 
G01 X2.7581 Y1.7496 
G01 X2.7746 Y1.7331 
G01 X2.7835 Y1.7116 
G01 X2.7835 Y1.6884 
G01 X2.7746 Y1.6669 
G01 X2.7581 Y1.6504 
G00 Z0.1000 
G00 X2.7625 Y1.6963 
G01 Z-0.0060 F10.00 
G01 X2.7625 Y1.7037 F10.00 
G01 X2.7611 Y1.7109 
G01 X2.7582 Y1.7178 
G01 X2.7541 Y1.7239 
G01 X2.7489 Y1.7291 
G01 X2.7428 Y1.7332 
G01 X2.7359 Y1.7361 
G01 X2.7287 Y1.7375 
G01 X2.7213 Y1.7375 
G01 X2.7141 Y1.7361 
G01 X2.7072 Y1.7332 
G01 X2.7011 Y1.7291 
G01 X2.6959 Y1.7239 
G01 X2.6918 Y1.7178 
G01 X2.6889 Y1.7109 
G01 X2.6875 Y1.7037 
G01 X2.6875 Y1.6963 
G01 X2.6889 Y1.6891 
G01 X2.6918 Y1.6822 
G01 X2.6959 Y1.6761 
G01 X2.7011 Y1.6709 
G01 X2.7072 Y1.6668 
G01 X2.7141 Y1.6639 
G01 X2.7213 Y1.6625 
G01 X2.7287 Y1.6625 
G01 X2.7359 Y1.6639 
G01 X2.7428 Y1.6668 
G01 X2.7489 Y1.6709 
G01 X2.7541 Y1.6761 
G01 X2.7582 Y1.6822 
G01 X2.7611 Y1.6891 
G01 X2.7625 Y1.6963 
G00 Z0.1000 
G00 X0.7015 Y2.2713 
G01 Z-0.0060 F10.00 
G01 X0.7015 Y2.2206 F10.00 
G01 X0.7024 Y2.2158 
G01 X0.7043 Y2.2114 
G01 X0.7070 Y2.2074 
G01 X0.7104 Y2.2040 
G01 X0.8134 Y2.1010 
G01 X0.8174 Y2.0983 
G01 X0.8175 Y2.0982 
G01 X0.8218 Y2.0964 
G01 X0.8263 Y2.0956 
G01 X0.8266 Y2.0955 
G01 X0.9707 Y2.0955 
G01 X0.9754 Y2.0964 
G01 X0.9799 Y2.0983 
G01 X0.9839 Y2.1010 
G01 X0.9872 Y2.1043 
G01 X0.9900 Y2.1084 
G01 X0.9918 Y2.1129 
G01 X0.9926 Y2.1166 
G01 X0.9928 Y2.1176 
G01 X0.9928 Y2.1224 
G01 X0.9918 Y2.1271 
G01 X0.9875 Y2.1376 
G01 X0.9875 Y2.1624 
G01 X0.9970 Y2.1854 
G01 X1.0004 Y2.1887 
G01 X1.0037 Y2.1921 
G01 X1.0065 Y2.1962 
G01 X1.0080 Y2.1998 
G01 X1.0083 Y2.2006 
G01 X1.0087 Y2.2025 
G01 X1.0092 Y2.2054 
G01 X1.0092 Y2.2102 
G01 X1.0088 Y2.2125 
G01 X1.0083 Y2.2149 
G01 X1.0073 Y2.2174 
G01 X1.0065 Y2.2194 
G01 X1.0038 Y2.2234 
G01 X0.9985 Y2.2287 
G01 X0.9985 Y2.2713 
G01 X1.0287 Y2.3015 
G01 X1.0709 Y2.3015 
G01 X1.0756 Y2.3024 
G01 X1.0801 Y2.3043 
G01 X1.0841 Y2.3070 
G01 X1.0875 Y2.3104 
G01 X1.0902 Y2.3144 
G01 X1.0921 Y2.3189 
G01 X1.0930 Y2.3236 
G01 X1.0930 Y2.3486 
G01 X1.1264 Y2.3820 
G01 X1.1736 Y2.3820 
G01 X1.2070 Y2.3486 
G01 X1.2070 Y2.3014 
G01 X1.1736 Y2.2680 
G01 X1.1236 Y2.2680 
G01 X1.1189 Y2.2671 
G01 X1.1144 Y2.2652 
G01 X1.1104 Y2.2625 
G01 X1.1070 Y2.2591 
G01 X1.1043 Y2.2551 
G01 X1.1024 Y2.2506 
G01 X1.1015 Y2.2459 
G01 X1.1015 Y2.2318 
G01 X1.1024 Y2.2271 
G01 X1.1043 Y2.2226 
G01 X1.1070 Y2.2186 
G01 X1.1104 Y2.2152 
G01 X1.1144 Y2.2125 
G01 X1.1189 Y2.2107 
G01 X1.1236 Y2.2097 
G01 X1.1284 Y2.2097 
G01 X1.1331 Y2.2107 
G01 X1.1376 Y2.2125 
G01 X1.1624 Y2.2125 
G01 X1.1854 Y2.2030 
G01 X1.2030 Y2.1854 
G01 X1.2125 Y2.1624 
G01 X1.2125 Y2.1376 
G01 X1.2082 Y2.1271 
G01 X1.2072 Y2.1224 
G01 X1.2072 Y2.1176 
G01 X1.2074 Y2.1167 
G01 X1.2082 Y2.1129 
G01 X1.2100 Y2.1084 
G01 X1.2127 Y2.1044 
G01 X1.2161 Y2.1010 
G01 X1.2201 Y2.0983 
G01 X1.2246 Y2.0964 
G01 X1.2293 Y2.0955 
G01 X1.5764 Y2.0955 
G01 X1.5811 Y2.0964 
G01 X1.5856 Y2.0983 
G01 X1.5896 Y2.1010 
G01 X1.5930 Y2.1044 
G01 X1.5957 Y2.1084 
G01 X1.5976 Y2.1129 
G01 X1.5985 Y2.1176 
G01 X1.5985 Y2.1463 
G01 X1.6287 Y2.1765 
G01 X1.6801 Y2.1765 
G01 X1.6848 Y2.1774 
G01 X1.6866 Y2.1782 
G01 X1.6893 Y2.1793 
G01 X1.6933 Y2.1820 
G01 X1.6967 Y2.1854 
G01 X1.6994 Y2.1894 
G01 X1.7012 Y2.1939 
G01 X1.7019 Y2.1973 
G01 X1.7022 Y2.1986 
G01 X1.7022 Y2.2034 
G01 X1.7012 Y2.2081 
G01 X1.7000 Y2.2111 
G01 X1.6994 Y2.2126 
G01 X1.6985 Y2.2148 
G01 X1.6985 Y2.2352 
G01 X1.7063 Y2.2542 
G01 X1.7081 Y2.2560 
G01 X1.7115 Y2.2593 
G01 X1.7128 Y2.2613 
G01 X1.7142 Y2.2634 
G01 X1.7161 Y2.2679 
G01 X1.7166 Y2.2707 
G01 X1.7170 Y2.2726 
G01 X1.7170 Y2.2774 
G01 X1.7161 Y2.2821 
G01 X1.7153 Y2.2839 
G01 X1.7142 Y2.2866 
G01 X1.7128 Y2.2887 
G01 X1.7115 Y2.2906 
G01 X1.7063 Y2.2958 
G01 X1.6985 Y2.3148 
G01 X1.6985 Y2.3352 
G01 X1.7063 Y2.3542 
G01 X1.7081 Y2.3560 
G01 X1.7115 Y2.3593 
G01 X1.7128 Y2.3613 
G01 X1.7142 Y2.3634 
G01 X1.7161 Y2.3679 
G01 X1.7166 Y2.3707 
G01 X1.7170 Y2.3726 
G01 X1.7170 Y2.3774 
G01 X1.7161 Y2.3821 
G01 X1.7153 Y2.3839 
G01 X1.7142 Y2.3866 
G01 X1.7128 Y2.3887 
G01 X1.7115 Y2.3906 
G01 X1.7063 Y2.3958 
G01 X1.6985 Y2.4148 
G01 X1.6985 Y2.4352 
G01 X1.7063 Y2.4542 
G01 X1.7115 Y2.4594 
G01 X1.7130 Y2.4615 
G01 X1.7142 Y2.4634 
G01 X1.7153 Y2.4660 
G01 X1.7161 Y2.4679 
G01 X1.7170 Y2.4726 
G01 X1.7170 Y2.4774 
G01 X1.7167 Y2.4792 
G01 X1.7161 Y2.4821 
G01 X1.7142 Y2.4866 
G01 X1.7129 Y2.4885 
G01 X1.7116 Y2.4906 
G01 X1.7081 Y2.4940 
G01 X1.7063 Y2.4958 
G01 X1.6985 Y2.5148 
G01 X1.6985 Y2.5352 
G01 X1.7063 Y2.5542 
G01 X1.7208 Y2.5687 
G01 X1.7398 Y2.5765 
G01 X1.7602 Y2.5765 
G01 X1.7792 Y2.5687 
G01 X1.7937 Y2.5542 
G01 X1.8015 Y2.5352 
G01 X1.8015 Y2.5148 
G01 X1.7937 Y2.4958 
G01 X1.7919 Y2.4940 
G01 X1.7885 Y2.4907 
G01 X1.7872 Y2.4887 
G01 X1.7858 Y2.4866 
G01 X1.7839 Y2.4821 
G01 X1.7834 Y2.4793 
G01 X1.7830 Y2.4774 
G01 X1.7830 Y2.4726 
G01 X1.7839 Y2.4679 
G01 X1.7847 Y2.4661 
G01 X1.7858 Y2.4634 
G01 X1.7872 Y2.4613 
G01 X1.7884 Y2.4594 
G01 X1.7937 Y2.4542 
G01 X1.8015 Y2.4352 
G01 X1.8015 Y2.4148 
G01 X1.7937 Y2.3958 
G01 X1.7884 Y2.3906 
G01 X1.7870 Y2.3885 
G01 X1.7858 Y2.3866 
G01 X1.7847 Y2.3840 
G01 X1.7839 Y2.3821 
G01 X1.7830 Y2.3774 
G01 X1.7830 Y2.3726 
G01 X1.7833 Y2.3708 
G01 X1.7839 Y2.3679 
G01 X1.7858 Y2.3634 
G01 X1.7871 Y2.3615 
G01 X1.7884 Y2.3594 
G01 X1.7919 Y2.3560 
G01 X1.7937 Y2.3542 
G01 X1.8015 Y2.3352 
G01 X1.8015 Y2.3148 
G01 X1.7937 Y2.2958 
G01 X1.7884 Y2.2906 
G01 X1.7870 Y2.2885 
G01 X1.7858 Y2.2866 
G01 X1.7847 Y2.2840 
G01 X1.7839 Y2.2821 
G01 X1.7830 Y2.2774 
G01 X1.7830 Y2.2726 
G01 X1.7833 Y2.2708 
G01 X1.7839 Y2.2679 
G01 X1.7858 Y2.2634 
G01 X1.7871 Y2.2615 
G01 X1.7884 Y2.2594 
G01 X1.7919 Y2.2560 
G01 X1.7937 Y2.2542 
G01 X1.8015 Y2.2352 
G01 X1.8015 Y2.2148 
G01 X1.7937 Y2.1958 
G01 X1.7792 Y2.1813 
G01 X1.7602 Y2.1735 
G01 X1.7398 Y2.1735 
G01 X1.7376 Y2.1744 
G01 X1.7363 Y2.1749 
G01 X1.7331 Y2.1762 
G01 X1.7284 Y2.1772 
G01 X1.7236 Y2.1772 
G01 X1.7225 Y2.1770 
G01 X1.7189 Y2.1762 
G01 X1.7144 Y2.1744 
G01 X1.7104 Y2.1717 
G01 X1.7070 Y2.1683 
G01 X1.7043 Y2.1643 
G01 X1.7032 Y2.1617 
G01 X1.7024 Y2.1598 
G01 X1.7015 Y2.1551 
G01 X1.7015 Y2.1176 
G01 X1.7024 Y2.1129 
G01 X1.7043 Y2.1084 
G01 X1.7070 Y2.1044 
G01 X1.7104 Y2.1010 
G01 X1.7144 Y2.0983 
G01 X1.7189 Y2.0964 
G01 X1.7236 Y2.0955 
G01 X1.7734 Y2.0955 
G01 X1.7782 Y2.0964 
G01 X1.7826 Y2.0983 
G01 X1.7866 Y2.1010 
G01 X1.7900 Y2.1044 
G01 X1.9492 Y2.2636 
G01 X1.9659 Y2.2705 
G01 X2.1341 Y2.2705 
G01 X2.1508 Y2.2636 
G01 X2.1653 Y2.2490 
G01 X2.1687 Y2.2456 
G01 X2.1990 Y2.2153 
G01 X2.2134 Y2.2010 
G01 X2.2174 Y2.1983 
G01 X2.2218 Y2.1964 
G01 X2.2266 Y2.1955 
G01 X2.4494 Y2.1955 
G01 X2.4539 Y2.1964 
G01 X2.4542 Y2.1964 
G01 X2.4586 Y2.1983 
G01 X2.4626 Y2.2010 
G01 X2.4660 Y2.2044 
G01 X2.4676 Y2.2068 
G01 X2.4687 Y2.2084 
G01 X2.4706 Y2.2129 
G01 X2.4715 Y2.2176 
G01 X2.4715 Y2.2224 
G01 X2.4706 Y2.2269 
G01 X2.4706 Y2.2271 
G01 X2.4687 Y2.2316 
G01 X2.4660 Y2.2356 
G01 X2.4626 Y2.2390 
G01 X2.4603 Y2.2406 
G01 X2.4586 Y2.2417 
G01 X2.4542 Y2.2436 
G01 X2.4436 Y2.2479 
G01 X2.4279 Y2.2636 
G01 X2.4195 Y2.2840 
G01 X2.4195 Y2.3660 
G01 X2.4279 Y2.3864 
G01 X2.4436 Y2.4021 
G01 X2.4640 Y2.4105 
G01 X2.4860 Y2.4105 
G01 X2.5064 Y2.4021 
G01 X2.5093 Y2.3992 
G01 X2.5109 Y2.3981 
G01 X2.5134 Y2.3964 
G01 X2.5179 Y2.3946 
G01 X2.5197 Y2.3942 
G01 X2.5226 Y2.3936 
G01 X2.5274 Y2.3936 
G01 X2.5321 Y2.3946 
G01 X2.5358 Y2.3961 
G01 X2.5366 Y2.3964 
G01 X2.5406 Y2.3991 
G01 X2.5436 Y2.4021 
G01 X2.5640 Y2.4105 
G01 X2.5860 Y2.4105 
G01 X2.6064 Y2.4021 
G01 X2.6094 Y2.3991 
G01 X2.6134 Y2.3964 
G01 X2.6141 Y2.3961 
G01 X2.6179 Y2.3946 
G01 X2.6226 Y2.3936 
G01 X2.6274 Y2.3936 
G01 X2.6302 Y2.3942 
G01 X2.6321 Y2.3946 
G01 X2.6366 Y2.3964 
G01 X2.6390 Y2.3980 
G01 X2.6406 Y2.3991 
G01 X2.6436 Y2.4021 
G01 X2.6640 Y2.4105 
G01 X2.6860 Y2.4105 
G01 X2.7064 Y2.4021 
G01 X2.7221 Y2.3864 
G01 X2.7305 Y2.3660 
G01 X2.7305 Y2.2840 
G01 X2.7233 Y2.2665 
G01 X2.7216 Y2.2624 
G01 X2.7214 Y2.2621 
G01 X2.7205 Y2.2574 
G01 X2.7205 Y2.1909 
G01 X2.7198 Y2.1894 
G01 X2.7197 Y2.1884 
G01 X2.7189 Y2.1846 
G01 X2.7189 Y2.1798 
G01 X2.7196 Y2.1761 
G01 X2.7198 Y2.1751 
G01 X2.7210 Y2.1722 
G01 X2.7217 Y2.1706 
G01 X2.7227 Y2.1690 
G01 X2.7244 Y2.1666 
G01 X2.7278 Y2.1632 
G01 X2.7318 Y2.1605 
G01 X2.7351 Y2.1592 
G01 X2.7363 Y2.1587 
G01 X2.7581 Y2.1496 
G01 X2.7746 Y2.1331 
G01 X2.7835 Y2.1116 
G01 X2.7835 Y2.0884 
G01 X2.7746 Y2.0669 
G01 X2.7581 Y2.0504 
G01 X2.7366 Y2.0415 
G01 X2.7134 Y2.0415 
G01 X2.6919 Y2.0504 
G01 X2.6857 Y2.0566 
G01 X2.6817 Y2.0593 
G01 X2.6772 Y2.0611 
G01 X2.6725 Y2.0621 
G01 X2.6676 Y2.0621 
G01 X2.6629 Y2.0611 
G01 X2.6584 Y2.0593 
G01 X2.6544 Y2.0566 
G01 X2.6510 Y2.0532 
G01 X2.6384 Y2.0406 
G01 X2.6358 Y2.0366 
G01 X2.6339 Y2.0321 
G01 X2.6330 Y2.0274 
G01 X2.6330 Y2.0226 
G01 X2.6339 Y2.0179 
G01 X2.6358 Y2.0134 
G01 X2.6384 Y2.0094 
G01 X2.6419 Y2.0060 
G01 X2.6515 Y1.9963 
G01 X2.6515 Y1.9537 
G01 X2.6213 Y1.9235 
G01 X2.6167 Y1.9235 
G01 X2.6140 Y1.9229 
G01 X2.6120 Y1.9226 
G01 X2.6075 Y1.9207 
G01 X2.6036 Y1.9181 
G01 X2.6002 Y1.9147 
G01 X2.5975 Y1.9107 
G01 X2.5974 Y1.9106 
G01 X2.5965 Y1.9083 
G01 X2.5956 Y1.9061 
G01 X2.5954 Y1.9050 
G01 X2.5946 Y1.9014 
G01 X2.5946 Y1.8966 
G01 X2.5952 Y1.8938 
G01 X2.5956 Y1.8919 
G01 X2.5974 Y1.8874 
G01 X2.6001 Y1.8834 
G01 X2.6021 Y1.8814 
G01 X2.6105 Y1.8610 
G01 X2.6105 Y1.8390 
G01 X2.6021 Y1.8186 
G01 X2.5991 Y1.8156 
G01 X2.5964 Y1.8116 
G01 X2.5961 Y1.8109 
G01 X2.5946 Y1.8071 
G01 X2.5936 Y1.8024 
G01 X2.5936 Y1.7976 
G01 X2.5942 Y1.7948 
G01 X2.5946 Y1.7929 
G01 X2.5964 Y1.7884 
G01 X2.5980 Y1.7860 
G01 X2.5991 Y1.7844 
G01 X2.6021 Y1.7814 
G01 X2.6105 Y1.7610 
G01 X2.6105 Y1.7390 
G01 X2.6021 Y1.7186 
G01 X2.5991 Y1.7156 
G01 X2.5964 Y1.7116 
G01 X2.5961 Y1.7109 
G01 X2.5946 Y1.7071 
G01 X2.5936 Y1.7024 
G01 X2.5936 Y1.6976 
G01 X2.5942 Y1.6948 
G01 X2.5946 Y1.6929 
G01 X2.5964 Y1.6884 
G01 X2.5980 Y1.6860 
G01 X2.5991 Y1.6844 
G01 X2.6021 Y1.6814 
G01 X2.6105 Y1.6610 
G01 X2.6105 Y1.6390 
G01 X2.6021 Y1.6186 
G01 X2.5864 Y1.6029 
G01 X2.5660 Y1.5945 
G01 X2.4840 Y1.5945 
G01 X2.4636 Y1.6029 
G01 X2.4479 Y1.6186 
G01 X2.4395 Y1.6390 
G01 X2.4395 Y1.6610 
G01 X2.4479 Y1.6814 
G01 X2.4508 Y1.6843 
G01 X2.4519 Y1.6859 
G01 X2.4536 Y1.6884 
G01 X2.4554 Y1.6929 
G01 X2.4558 Y1.6947 
G01 X2.4564 Y1.6976 
G01 X2.4564 Y1.7024 
G01 X2.4554 Y1.7071 
G01 X2.4539 Y1.7108 
G01 X2.4536 Y1.7116 
G01 X2.4509 Y1.7156 
G01 X2.4479 Y1.7186 
G01 X2.4395 Y1.7390 
G01 X2.4395 Y1.7610 
G01 X2.4479 Y1.7814 
G01 X2.4508 Y1.7843 
G01 X2.4519 Y1.7859 
G01 X2.4536 Y1.7884 
G01 X2.4554 Y1.7929 
G01 X2.4558 Y1.7947 
G01 X2.4564 Y1.7976 
G01 X2.4564 Y1.8024 
G01 X2.4554 Y1.8071 
G01 X2.4539 Y1.8108 
G01 X2.4536 Y1.8116 
G01 X2.4509 Y1.8156 
G01 X2.4479 Y1.8186 
G01 X2.4395 Y1.8390 
G01 X2.4395 Y1.8610 
G01 X2.4479 Y1.8814 
G01 X2.4636 Y1.8971 
G01 X2.4840 Y1.9055 
G01 X2.5399 Y1.9055 
G01 X2.5444 Y1.9064 
G01 X2.5447 Y1.9064 
G01 X2.5448 Y1.9065 
G01 X2.5491 Y1.9083 
G01 X2.5531 Y1.9110 
G01 X2.5565 Y1.9143 
G01 X2.5592 Y1.9184 
G01 X2.5611 Y1.9229 
G01 X2.5618 Y1.9266 
G01 X2.5620 Y1.9276 
G01 X2.5620 Y1.9324 
G01 X2.5611 Y1.9369 
G01 X2.5611 Y1.9371 
G01 X2.5610 Y1.9373 
G01 X2.5592 Y1.9416 
G01 X2.5566 Y1.9456 
G01 X2.5485 Y1.9537 
G01 X2.5485 Y1.9963 
G01 X2.5581 Y2.0060 
G01 X2.5616 Y2.0094 
G01 X2.5631 Y2.0118 
G01 X2.5642 Y2.0134 
G01 X2.5650 Y2.0153 
G01 X2.5661 Y2.0179 
G01 X2.5668 Y2.0216 
G01 X2.5670 Y2.0226 
G01 X2.5670 Y2.0274 
G01 X2.5661 Y2.0319 
G01 X2.5661 Y2.0321 
G01 X2.5642 Y2.0366 
G01 X2.5616 Y2.0406 
G01 X2.5485 Y2.0537 
G01 X2.5485 Y2.0824 
G01 X2.5476 Y2.0871 
G01 X2.5457 Y2.0916 
G01 X2.5430 Y2.0956 
G01 X2.5396 Y2.0990 
G01 X2.5356 Y2.1017 
G01 X2.5311 Y2.1036 
G01 X2.5264 Y2.1045 
G01 X2.2736 Y2.1045 
G01 X2.2689 Y2.1036 
G01 X2.2644 Y2.1017 
G01 X2.2604 Y2.0990 
G01 X2.2570 Y2.0956 
G01 X2.2543 Y2.0916 
G01 X2.2524 Y2.0871 
G01 X2.2515 Y2.0824 
G01 X2.2515 Y2.0537 
G01 X2.2384 Y2.0406 
G01 X2.2358 Y2.0366 
G01 X2.2339 Y2.0321 
G01 X2.2330 Y2.0274 
G01 X2.2330 Y2.0226 
G01 X2.2332 Y2.0217 
G01 X2.2339 Y2.0179 
G01 X2.2350 Y2.0152 
G01 X2.2358 Y2.0134 
G01 X2.2368 Y2.0118 
G01 X2.2384 Y2.0094 
G01 X2.2419 Y2.0060 
G01 X2.2515 Y1.9963 
G01 X2.2515 Y1.9537 
G01 X2.2426 Y1.9447 
G01 X2.2413 Y1.9435 
G01 X2.2392 Y1.9413 
G01 X2.2374 Y1.9387 
G01 X2.2365 Y1.9373 
G01 X2.2351 Y1.9339 
G01 X2.2346 Y1.9329 
G01 X2.2341 Y1.9302 
G01 X2.2337 Y1.9281 
G01 X2.2337 Y1.9257 
G01 X2.2337 Y1.9233 
G01 X2.2341 Y1.9213 
G01 X2.2346 Y1.9186 
G01 X2.2356 Y1.9161 
G01 X2.2365 Y1.9141 
G01 X2.2379 Y1.9119 
G01 X2.2392 Y1.9101 
G01 X2.2403 Y1.9090 
G01 X2.2426 Y1.9067 
G01 X2.2452 Y1.9049 
G01 X2.2466 Y1.9040 
G01 X2.2500 Y1.9026 
G01 X2.2510 Y1.9022 
G01 X2.2537 Y1.9016 
G01 X2.2558 Y1.9012 
G01 X2.2582 Y1.9012 
G01 X2.2606 Y1.9012 
G01 X2.2620 Y1.9015 
G01 X2.3362 Y1.9015 
G01 X2.3552 Y1.8937 
G01 X2.3697 Y1.8792 
G01 X2.3775 Y1.8602 
G01 X2.3775 Y1.8398 
G01 X2.3697 Y1.8208 
G01 X2.3644 Y1.8156 
G01 X2.3630 Y1.8135 
G01 X2.3618 Y1.8116 
G01 X2.3607 Y1.8090 
G01 X2.3599 Y1.8071 
G01 X2.3590 Y1.8024 
G01 X2.3590 Y1.7976 
G01 X2.3593 Y1.7958 
G01 X2.3599 Y1.7929 
G01 X2.3618 Y1.7884 
G01 X2.3631 Y1.7865 
G01 X2.3644 Y1.7844 
G01 X2.3679 Y1.7810 
G01 X2.3697 Y1.7792 
G01 X2.3775 Y1.7602 
G01 X2.3775 Y1.7398 
G01 X2.3697 Y1.7208 
G01 X2.3679 Y1.7190 
G01 X2.3645 Y1.7157 
G01 X2.3632 Y1.7137 
G01 X2.3618 Y1.7116 
G01 X2.3599 Y1.7071 
G01 X2.3594 Y1.7043 
G01 X2.3590 Y1.7024 
G01 X2.3590 Y1.6976 
G01 X2.3599 Y1.6929 
G01 X2.3607 Y1.6911 
G01 X2.3618 Y1.6884 
G01 X2.3632 Y1.6863 
G01 X2.3644 Y1.6844 
G01 X2.3697 Y1.6792 
G01 X2.3775 Y1.6602 
G01 X2.3775 Y1.6398 
G01 X2.3697 Y1.6208 
G01 X2.3552 Y1.6063 
G01 X2.3362 Y1.5985 
G01 X2.2638 Y1.5985 
G01 X2.2448 Y1.6063 
G01 X2.2303 Y1.6208 
G01 X2.2225 Y1.6398 
G01 X2.2225 Y1.6602 
G01 X2.2303 Y1.6792 
G01 X2.2355 Y1.6844 
G01 X2.2370 Y1.6865 
G01 X2.2382 Y1.6884 
G01 X2.2393 Y1.6910 
G01 X2.2401 Y1.6929 
G01 X2.2410 Y1.6976 
G01 X2.2410 Y1.7024 
G01 X2.2407 Y1.7042 
G01 X2.2401 Y1.7071 
G01 X2.2382 Y1.7116 
G01 X2.2369 Y1.7135 
G01 X2.2356 Y1.7156 
G01 X2.2321 Y1.7190 
G01 X2.2303 Y1.7208 
G01 X2.2225 Y1.7398 
G01 X2.2225 Y1.7602 
G01 X2.2303 Y1.7792 
G01 X2.2321 Y1.7810 
G01 X2.2355 Y1.7843 
G01 X2.2368 Y1.7863 
G01 X2.2382 Y1.7884 
G01 X2.2401 Y1.7929 
G01 X2.2406 Y1.7957 
G01 X2.2410 Y1.7976 
G01 X2.2410 Y1.8024 
G01 X2.2401 Y1.8071 
G01 X2.2393 Y1.8089 
G01 X2.2382 Y1.8116 
G01 X2.2368 Y1.8137 
G01 X2.2355 Y1.8156 
G01 X2.2303 Y1.8208 
G01 X2.2225 Y1.8398 
G01 X2.2225 Y1.8602 
G01 X2.2303 Y1.8792 
G01 X2.2346 Y1.8834 
G01 X2.2372 Y1.8874 
G01 X2.2375 Y1.8881 
G01 X2.2391 Y1.8919 
G01 X2.2400 Y1.8966 
G01 X2.2400 Y1.9014 
G01 X2.2397 Y1.9032 
G01 X2.2391 Y1.9061 
G01 X2.2372 Y1.9106 
G01 X2.2367 Y1.9114 
G01 X2.2346 Y1.9146 
G01 X2.2311 Y1.9180 
G01 X2.2271 Y1.9207 
G01 X2.2264 Y1.9210 
G01 X2.2227 Y1.9226 
G01 X2.2179 Y1.9235 
G01 X2.1676 Y1.9235 
G01 X2.1629 Y1.9226 
G01 X2.1584 Y1.9207 
G01 X2.1544 Y1.9180 
G01 X2.1510 Y1.9146 
G01 X2.1483 Y1.9106 
G01 X2.1464 Y1.9061 
G01 X2.1455 Y1.9014 
G01 X2.1455 Y1.3016 
G01 X2.1464 Y1.2968 
G01 X2.1483 Y1.2924 
G01 X2.1510 Y1.2884 
G01 X2.1523 Y1.2871 
G01 X2.2300 Y1.2094 
G01 X2.2321 Y1.2073 
G01 X2.2334 Y1.2060 
G01 X2.2374 Y1.2033 
G01 X2.2419 Y1.2014 
G01 X2.2466 Y1.2005 
G01 X2.2514 Y1.2005 
G01 X2.2517 Y1.2005 
G01 X2.2561 Y1.2014 
G01 X2.2605 Y1.2032 
G01 X2.2606 Y1.2033 
G01 X2.2646 Y1.2060 
G01 X2.2680 Y1.2094 
G01 X2.2707 Y1.2134 
G01 X2.2726 Y1.2178 
G01 X2.2732 Y1.2210 
G01 X2.2866 Y1.2344 
G01 X2.2892 Y1.2384 
G01 X2.2911 Y1.2429 
G01 X2.2920 Y1.2476 
G01 X2.2920 Y1.2524 
G01 X2.2918 Y1.2533 
G01 X2.2911 Y1.2571 
G01 X2.2900 Y1.2598 
G01 X2.2892 Y1.2616 
G01 X2.2882 Y1.2632 
G01 X2.2866 Y1.2656 
G01 X2.2831 Y1.2690 
G01 X2.2735 Y1.2787 
G01 X2.2735 Y1.3299 
G01 X2.2726 Y1.3344 
G01 X2.2726 Y1.3347 
G01 X2.2707 Y1.3391 
G01 X2.2680 Y1.3431 
G01 X2.2646 Y1.3465 
G01 X2.2606 Y1.3492 
G01 X2.2458 Y1.3553 
G01 X2.2313 Y1.3698 
G01 X2.2235 Y1.3888 
G01 X2.2235 Y1.4612 
G01 X2.2313 Y1.4802 
G01 X2.2458 Y1.4947 
G01 X2.2648 Y1.5025 
G01 X2.2852 Y1.5025 
G01 X2.3042 Y1.4947 
G01 X2.3094 Y1.4894 
G01 X2.3115 Y1.4880 
G01 X2.3134 Y1.4868 
G01 X2.3160 Y1.4857 
G01 X2.3179 Y1.4849 
G01 X2.3226 Y1.4840 
G01 X2.3274 Y1.4840 
G01 X2.3292 Y1.4843 
G01 X2.3321 Y1.4849 
G01 X2.3366 Y1.4868 
G01 X2.3385 Y1.4881 
G01 X2.3406 Y1.4894 
G01 X2.3440 Y1.4929 
G01 X2.3458 Y1.4947 
G01 X2.3648 Y1.5025 
G01 X2.3852 Y1.5025 
G01 X2.4042 Y1.4947 
G01 X2.4060 Y1.4929 
G01 X2.4093 Y1.4895 
G01 X2.4113 Y1.4882 
G01 X2.4134 Y1.4868 
G01 X2.4179 Y1.4849 
G01 X2.4207 Y1.4844 
G01 X2.4226 Y1.4840 
G01 X2.4274 Y1.4840 
G01 X2.4321 Y1.4849 
G01 X2.4339 Y1.4857 
G01 X2.4366 Y1.4868 
G01 X2.4387 Y1.4882 
G01 X2.4406 Y1.4894 
G01 X2.4458 Y1.4947 
G01 X2.4648 Y1.5025 
G01 X2.4852 Y1.5025 
G01 X2.5042 Y1.4947 
G01 X2.5187 Y1.4802 
G01 X2.5265 Y1.4612 
G01 X2.5265 Y1.3888 
G01 X2.5187 Y1.3698 
G01 X2.5042 Y1.3553 
G01 X2.4852 Y1.3475 
G01 X2.4648 Y1.3475 
G01 X2.4458 Y1.3553 
G01 X2.4440 Y1.3571 
G01 X2.4430 Y1.3582 
G01 X2.4406 Y1.3605 
G01 X2.4366 Y1.3632 
G01 X2.4321 Y1.3651 
G01 X2.4275 Y1.3660 
G01 X2.4226 Y1.3660 
G01 X2.4188 Y1.3653 
G01 X2.4179 Y1.3651 
G01 X2.4134 Y1.3632 
G01 X2.4094 Y1.3606 
G01 X2.4075 Y1.3587 
G01 X2.4060 Y1.3571 
G01 X2.4042 Y1.3553 
G01 X2.3894 Y1.3492 
G01 X2.3854 Y1.3465 
G01 X2.3820 Y1.3431 
G01 X2.3793 Y1.3391 
G01 X2.3774 Y1.3347 
G01 X2.3765 Y1.3299 
G01 X2.3765 Y1.2787 
G01 X2.3669 Y1.2690 
G01 X2.3634 Y1.2656 
G01 X2.3619 Y1.2632 
G01 X2.3608 Y1.2616 
G01 X2.3600 Y1.2597 
G01 X2.3589 Y1.2571 
G01 X2.3582 Y1.2534 
G01 X2.3580 Y1.2524 
G01 X2.3580 Y1.2476 
G01 X2.3589 Y1.2431 
G01 X2.3589 Y1.2429 
G01 X2.3608 Y1.2384 
G01 X2.3634 Y1.2344 
G01 X2.3765 Y1.2213 
G01 X2.3765 Y1.1676 
G01 X2.3774 Y1.1629 
G01 X2.3793 Y1.1584 
G01 X2.3820 Y1.1544 
G01 X2.3854 Y1.1510 
G01 X2.3894 Y1.1483 
G01 X2.3939 Y1.1464 
G01 X2.3986 Y1.1455 
G01 X2.5591 Y1.1455 
G01 X2.5758 Y1.1386 
G01 X2.6208 Y1.0935 
G01 X2.6300 Y1.0844 
G01 X2.6332 Y1.0812 
G01 X2.6334 Y1.0810 
G01 X2.6347 Y1.0801 
G01 X2.6374 Y1.0783 
G01 X2.6419 Y1.0764 
G01 X2.6466 Y1.0755 
G01 X2.6514 Y1.0755 
G01 X2.6525 Y1.0757 
G01 X2.6561 Y1.0764 
G01 X2.6606 Y1.0783 
G01 X2.6646 Y1.0810 
G01 X2.6680 Y1.0844 
G01 X2.6689 Y1.0857 
G01 X2.6707 Y1.0884 
G01 X2.6726 Y1.0928 
G01 X2.6735 Y1.0976 
G01 X2.6735 Y1.1213 
G01 X2.6866 Y1.1344 
G01 X2.6892 Y1.1384 
G01 X2.6911 Y1.1429 
G01 X2.6920 Y1.1476 
G01 X2.6920 Y1.1524 
G01 X2.6918 Y1.1533 
G01 X2.6911 Y1.1571 
G01 X2.6900 Y1.1598 
G01 X2.6892 Y1.1616 
G01 X2.6882 Y1.1632 
G01 X2.6866 Y1.1656 
G01 X2.6831 Y1.1690 
G01 X2.6735 Y1.1787 
G01 X2.6735 Y1.2213 
G01 X2.6866 Y1.2344 
G01 X2.6892 Y1.2384 
G01 X2.6911 Y1.2429 
G01 X2.6920 Y1.2476 
G01 X2.6920 Y1.2524 
G01 X2.6918 Y1.2533 
G01 X2.6911 Y1.2571 
G01 X2.6900 Y1.2598 
G01 X2.6892 Y1.2616 
G01 X2.6882 Y1.2632 
G01 X2.6866 Y1.2656 
G01 X2.6831 Y1.2690 
G01 X2.6735 Y1.2787 
G01 X2.6735 Y1.3213 
G01 X2.7037 Y1.3515 
G01 X2.7463 Y1.3515 
G01 X2.7765 Y1.3213 
G01 X2.7765 Y1.2787 
G01 X2.7669 Y1.2690 
G01 X2.7634 Y1.2656 
G01 X2.7619 Y1.2632 
G01 X2.7608 Y1.2616 
G01 X2.7600 Y1.2597 
G01 X2.7589 Y1.2571 
G01 X2.7582 Y1.2534 
G01 X2.7580 Y1.2524 
G01 X2.7580 Y1.2476 
G01 X2.7589 Y1.2431 
G01 X2.7589 Y1.2429 
G01 X2.7608 Y1.2384 
G01 X2.7634 Y1.2344 
G01 X2.7765 Y1.2213 
G01 X2.7765 Y1.1787 
G01 X2.7669 Y1.1690 
G01 X2.7634 Y1.1656 
G01 X2.7619 Y1.1632 
G01 X2.7608 Y1.1616 
G01 X2.7600 Y1.1597 
G01 X2.7589 Y1.1571 
G01 X2.7582 Y1.1534 
G01 X2.7580 Y1.1524 
G01 X2.7580 Y1.1476 
G01 X2.7589 Y1.1431 
G01 X2.7589 Y1.1429 
G01 X2.7608 Y1.1384 
G01 X2.7634 Y1.1344 
G01 X2.7765 Y1.1213 
G01 X2.7765 Y1.0787 
G01 X2.7463 Y1.0485 
G01 X2.7037 Y1.0485 
G01 X2.6856 Y1.0666 
G01 X2.6816 Y1.0692 
G01 X2.6771 Y1.0711 
G01 X2.6724 Y1.0720 
G01 X2.6676 Y1.0720 
G01 X2.6629 Y1.0711 
G01 X2.6602 Y1.0700 
G01 X2.6584 Y1.0692 
G01 X2.6568 Y1.0682 
G01 X2.6544 Y1.0666 
G01 X2.6510 Y1.0631 
G01 X2.6483 Y1.0591 
G01 X2.6464 Y1.0547 
G01 X2.6455 Y1.0499 
G01 X2.6455 Y0.9001 
G01 X2.6464 Y0.8956 
G01 X2.6464 Y0.8953 
G01 X2.6483 Y0.8909 
G01 X2.6510 Y0.8869 
G01 X2.6544 Y0.8834 
G01 X2.6568 Y0.8819 
G01 X2.6584 Y0.8808 
G01 X2.6603 Y0.8800 
G01 X2.6629 Y0.8789 
G01 X2.6675 Y0.8780 
G01 X2.6724 Y0.8780 
G01 X2.6769 Y0.8789 
G01 X2.6771 Y0.8789 
G01 X2.6816 Y0.8808 
G01 X2.6856 Y0.8834 
G01 X2.7037 Y0.9015 
G01 X2.7463 Y0.9015 
G01 X2.7765 Y0.8713 
G01 X2.7765 Y0.8287 
G01 X2.7669 Y0.8190 
G01 X2.7634 Y0.8156 
G01 X2.7611 Y0.8121 
G01 X2.7608 Y0.8116 
G01 X2.7589 Y0.8071 
G01 X2.7580 Y0.8024 
G01 X2.7580 Y0.7976 
G01 X2.7589 Y0.7929 
G01 X2.7608 Y0.7884 
G01 X2.7634 Y0.7844 
G01 X2.7765 Y0.7713 
G01 X2.7765 Y0.7287 
G01 X2.7759 Y0.7281 
G01 X2.7733 Y0.7241 
G01 X2.7728 Y0.7229 
G01 X2.7714 Y0.7196 
G01 X2.7705 Y0.7149 
G01 X2.7705 Y0.7101 
G01 X2.7708 Y0.7083 
G01 X2.7714 Y0.7054 
G01 X2.7733 Y0.7009 
G01 X2.7738 Y0.7001 
G01 X2.7759 Y0.6969 
G01 X2.7765 Y0.6963 
G01 X2.7765 Y0.6537 
G01 X2.7405 Y0.6176 
G01 X2.7378 Y0.6136 
G01 X2.7359 Y0.6092 
G01 X2.7350 Y0.6044 
G01 X2.7350 Y0.5996 
G01 X2.7359 Y0.5949 
G01 X2.7378 Y0.5904 
G01 X2.7405 Y0.5864 
G01 X2.7439 Y0.5830 
G01 X2.7990 Y0.5278 
G01 X2.8137 Y0.5131 
G01 X2.8156 Y0.5103 
G01 X2.8162 Y0.5095 
G01 X2.8178 Y0.5078 
G01 X2.8196 Y0.5061 
G01 X2.8236 Y0.5034 
G01 X2.8278 Y0.5017 
G01 X2.8280 Y0.5015 
G01 X2.8304 Y0.5011 
G01 X2.8328 Y0.5006 
G01 X2.8376 Y0.5006 
G01 X2.8423 Y0.5015 
G01 X2.8460 Y0.5031 
G01 X2.8468 Y0.5034 
G01 X2.8640 Y0.5105 
G01 X2.8860 Y0.5105 
G01 X2.9064 Y0.5021 
G01 X2.9094 Y0.4991 
G01 X2.9134 Y0.4964 
G01 X2.9141 Y0.4961 
G01 X2.9179 Y0.4946 
G01 X2.9226 Y0.4936 
G01 X2.9274 Y0.4936 
G01 X2.9302 Y0.4942 
G01 X2.9321 Y0.4946 
G01 X2.9366 Y0.4964 
G01 X2.9390 Y0.4980 
G01 X2.9406 Y0.4991 
G01 X2.9436 Y0.5021 
G01 X2.9640 Y0.5105 
G01 X2.9860 Y0.5105 
G01 X3.0064 Y0.5021 
G01 X3.0221 Y0.4864 
G01 X3.0305 Y0.4660 
G01 X3.0305 Y0.3840 
G01 X3.0221 Y0.3636 
G01 X3.0064 Y0.3479 
G01 X2.9860 Y0.3395 
G01 X2.9640 Y0.3395 
G01 X2.9436 Y0.3479 
G01 X2.9407 Y0.3508 
G01 X2.9391 Y0.3519 
G01 X2.9366 Y0.3536 
G01 X2.9321 Y0.3554 
G01 X2.9303 Y0.3558 
G01 X2.9274 Y0.3564 
G01 X2.9226 Y0.3564 
G01 X2.9179 Y0.3554 
G01 X2.9142 Y0.3539 
G01 X2.9134 Y0.3536 
G01 X2.9094 Y0.3509 
G01 X2.9064 Y0.3479 
G01 X2.8860 Y0.3395 
G01 X2.8640 Y0.3395 
G01 X2.8436 Y0.3479 
G01 X2.8407 Y0.3508 
G01 X2.8391 Y0.3519 
G01 X2.8366 Y0.3536 
G01 X2.8321 Y0.3554 
G01 X2.8303 Y0.3558 
G01 X2.8274 Y0.3564 
G01 X2.8226 Y0.3564 
G01 X2.8179 Y0.3554 
G01 X2.8142 Y0.3539 
G01 X2.8134 Y0.3536 
G01 X2.8094 Y0.3509 
G01 X2.8064 Y0.3479 
G01 X2.7860 Y0.3395 
G01 X2.7640 Y0.3395 
G01 X2.7436 Y0.3479 
G01 X2.7279 Y0.3636 
G01 X2.7195 Y0.3840 
G01 X2.7195 Y0.4709 
G01 X2.7186 Y0.4757 
G01 X2.7167 Y0.4801 
G01 X2.7140 Y0.4841 
G01 X2.7106 Y0.4875 
G01 X2.6991 Y0.4990 
G01 X2.6951 Y0.5017 
G01 X2.6907 Y0.5036 
G01 X2.6859 Y0.5045 
G01 X2.4988 Y0.5045 
G01 X2.4941 Y0.5036 
G01 X2.4923 Y0.5028 
G01 X2.4896 Y0.5017 
G01 X2.4856 Y0.4990 
G01 X2.4822 Y0.4956 
G01 X2.4795 Y0.4916 
G01 X2.4777 Y0.4871 
G01 X2.4770 Y0.4837 
G01 X2.4767 Y0.4824 
G01 X2.4767 Y0.4776 
G01 X2.4777 Y0.4729 
G01 X2.4789 Y0.4698 
G01 X2.4795 Y0.4684 
G01 X2.4805 Y0.4660 
G01 X2.4805 Y0.3840 
G01 X2.4721 Y0.3636 
G01 X2.4564 Y0.3479 
G01 X2.4360 Y0.3395 
G01 X2.4140 Y0.3395 
G01 X2.3936 Y0.3479 
G01 X2.3907 Y0.3508 
G01 X2.3891 Y0.3519 
G01 X2.3866 Y0.3536 
G01 X2.3821 Y0.3554 
G01 X2.3803 Y0.3558 
G01 X2.3774 Y0.3564 
G01 X2.3726 Y0.3564 
G01 X2.3679 Y0.3554 
G01 X2.3642 Y0.3539 
G01 X2.3634 Y0.3536 
G01 X2.3594 Y0.3509 
G01 X2.3564 Y0.3479 
G01 X2.3360 Y0.3395 
G01 X2.3140 Y0.3395 
G01 X2.2936 Y0.3479 
G01 X2.2907 Y0.3508 
G01 X2.2891 Y0.3519 
G01 X2.2866 Y0.3536 
G01 X2.2821 Y0.3554 
G01 X2.2803 Y0.3558 
G01 X2.2774 Y0.3564 
G01 X2.2726 Y0.3564 
G01 X2.2679 Y0.3554 
G01 X2.2642 Y0.3539 
G01 X2.2634 Y0.3536 
G01 X2.2594 Y0.3509 
G01 X2.2564 Y0.3479 
G01 X2.2360 Y0.3395 
G01 X2.2357 Y0.3395 
G01 X2.2309 Y0.3386 
G01 X2.2265 Y0.3367 
G01 X2.2091 Y0.3295 
G01 X1.8659 Y0.3295 
G01 X1.8492 Y0.3364 
G01 X1.7510 Y0.4347 
G01 X1.7364 Y0.4492 
G01 X1.7295 Y0.4659 
G01 X1.7295 Y1.4527 
G01 X1.7286 Y1.4574 
G01 X1.7267 Y1.4619 
G01 X1.7240 Y1.4659 
G01 X1.7206 Y1.4693 
G01 X1.6909 Y1.4990 
G01 X1.6869 Y1.5017 
G01 X1.6824 Y1.5036 
G01 X1.6777 Y1.5045 
G01 X1.5978 Y1.5045 
G01 X1.5931 Y1.5036 
G01 X1.5886 Y1.5017 
G01 X1.5846 Y1.4990 
G01 X1.5843 Y1.4987 
G01 X1.5620 Y1.4895 
G01 X1.5566 Y1.4895 
G01 X1.5521 Y1.4886 
G01 X1.5518 Y1.4886 
G01 X1.5474 Y1.4867 
G01 X1.5434 Y1.4840 
G01 X1.5400 Y1.4806 
G01 X1.5384 Y1.4782 
G01 X1.5373 Y1.4766 
G01 X1.5354 Y1.4721 
G01 X1.5345 Y1.4674 
G01 X1.5345 Y1.4626 
G01 X1.5354 Y1.4581 
G01 X1.5354 Y1.4579 
G01 X1.5373 Y1.4534 
G01 X1.5400 Y1.4494 
G01 X1.5636 Y1.4258 
G01 X1.5705 Y1.4091 
G01 X1.5705 Y0.4409 
G01 X1.5636 Y0.4242 
G01 X1.5456 Y0.4063 
G01 X1.5008 Y0.3614 
G01 X1.4841 Y0.3545 
G01 X0.9409 Y0.3545 
G01 X0.9242 Y0.3614 
G01 X0.9063 Y0.3794 
G01 X0.8614 Y0.4242 
G01 X0.8545 Y0.4409 
G01 X0.8545 Y0.4489 
G01 X0.8536 Y0.4537 
G01 X0.8517 Y0.4581 
G01 X0.8490 Y0.4621 
G01 X0.8457 Y0.4655 
G01 X0.8416 Y0.4682 
G01 X0.8371 Y0.4701 
G01 X0.8337 Y0.4708 
G01 X0.8324 Y0.4710 
G01 X0.8276 Y0.4710 
G01 X0.8229 Y0.4701 
G01 X0.8184 Y0.4682 
G01 X0.8144 Y0.4656 
G01 X0.8052 Y0.4563 
G01 X0.7862 Y0.4485 
G01 X0.7126 Y0.4485 
G01 X0.7079 Y0.4476 
G01 X0.7034 Y0.4457 
G01 X0.6994 Y0.4430 
G01 X0.6960 Y0.4396 
G01 X0.6933 Y0.4356 
G01 X0.6930 Y0.4350 
G01 X0.6886 Y0.4242 
G01 X0.5903 Y0.3260 
G01 X0.5758 Y0.3114 
G01 X0.5591 Y0.3045 
G01 X0.1909 Y0.3045 
G01 X0.1742 Y0.3114 
G01 X0.1260 Y0.3597 
G01 X0.1114 Y0.3742 
G01 X0.1045 Y0.3909 
G01 X0.1045 Y0.6091 
G01 X0.1114 Y0.6258 
G01 X0.1597 Y0.6740 
G01 X0.1742 Y0.6886 
G01 X0.1909 Y0.6955 
G01 X0.1982 Y0.6955 
G01 X0.2030 Y0.6964 
G01 X0.2048 Y0.6972 
G01 X0.2074 Y0.6983 
G01 X0.2115 Y0.7010 
G01 X0.2149 Y0.7044 
G01 X0.2175 Y0.7084 
G01 X0.2194 Y0.7129 
G01 X0.2201 Y0.7163 
G01 X0.2203 Y0.7176 
G01 X0.2203 Y0.7224 
G01 X0.2194 Y0.7271 
G01 X0.2180 Y0.7304 
G01 X0.2175 Y0.7316 
G01 X0.2145 Y0.7390 
G01 X0.2145 Y0.7610 
G01 X0.2229 Y0.7814 
G01 X0.2259 Y0.7844 
G01 X0.2286 Y0.7884 
G01 X0.2289 Y0.7891 
G01 X0.2304 Y0.7929 
G01 X0.2314 Y0.7976 
G01 X0.2314 Y0.8024 
G01 X0.2308 Y0.8052 
G01 X0.2304 Y0.8071 
G01 X0.2286 Y0.8116 
G01 X0.2270 Y0.8140 
G01 X0.2259 Y0.8156 
G01 X0.2229 Y0.8186 
G01 X0.2145 Y0.8390 
G01 X0.2145 Y0.8610 
G01 X0.2229 Y0.8814 
G01 X0.2241 Y0.8825 
G01 X0.2259 Y0.8844 
G01 X0.2286 Y0.8884 
G01 X0.2297 Y0.8910 
G01 X0.2304 Y0.8929 
G01 X0.2314 Y0.8976 
G01 X0.2314 Y0.9024 
G01 X0.2304 Y0.9071 
G01 X0.2286 Y0.9116 
G01 X0.2262 Y0.9151 
G01 X0.2259 Y0.9156 
G01 X0.2240 Y0.9175 
G01 X0.2229 Y0.9186 
G01 X0.2145 Y0.9390 
G01 X0.2145 Y0.9610 
G01 X0.2229 Y0.9814 
G01 X0.2259 Y0.9844 
G01 X0.2286 Y0.9884 
G01 X0.2289 Y0.9891 
G01 X0.2304 Y0.9929 
G01 X0.2314 Y0.9976 
G01 X0.2314 Y1.0024 
G01 X0.2308 Y1.0052 
G01 X0.2304 Y1.0071 
G01 X0.2286 Y1.0116 
G01 X0.2270 Y1.0140 
G01 X0.2259 Y1.0156 
G01 X0.2229 Y1.0186 
G01 X0.2145 Y1.0390 
G01 X0.2145 Y1.0610 
G01 X0.2229 Y1.0814 
G01 X0.2259 Y1.0844 
G01 X0.2286 Y1.0884 
G01 X0.2289 Y1.0891 
G01 X0.2304 Y1.0929 
G01 X0.2314 Y1.0976 
G01 X0.2314 Y1.1024 
G01 X0.2308 Y1.1052 
G01 X0.2304 Y1.1071 
G01 X0.2286 Y1.1116 
G01 X0.2270 Y1.1140 
G01 X0.2259 Y1.1156 
G01 X0.2229 Y1.1186 
G01 X0.2145 Y1.1390 
G01 X0.2145 Y1.1610 
G01 X0.2229 Y1.1814 
G01 X0.2386 Y1.1971 
G01 X0.2590 Y1.2055 
G01 X0.3410 Y1.2055 
G01 X0.3614 Y1.1971 
G01 X0.3771 Y1.1814 
G01 X0.3855 Y1.1610 
G01 X0.3855 Y1.1390 
G01 X0.3771 Y1.1186 
G01 X0.3742 Y1.1157 
G01 X0.3731 Y1.1141 
G01 X0.3714 Y1.1116 
G01 X0.3696 Y1.1071 
G01 X0.3692 Y1.1053 
G01 X0.3686 Y1.1024 
G01 X0.3686 Y1.0976 
G01 X0.3696 Y1.0929 
G01 X0.3711 Y1.0892 
G01 X0.3714 Y1.0884 
G01 X0.3741 Y1.0844 
G01 X0.3771 Y1.0814 
G01 X0.3855 Y1.0610 
G01 X0.3855 Y1.0390 
G01 X0.3771 Y1.0186 
G01 X0.3742 Y1.0157 
G01 X0.3731 Y1.0141 
G01 X0.3714 Y1.0116 
G01 X0.3696 Y1.0071 
G01 X0.3692 Y1.0053 
G01 X0.3686 Y1.0024 
G01 X0.3686 Y0.9976 
G01 X0.3696 Y0.9929 
G01 X0.3711 Y0.9892 
G01 X0.3714 Y0.9884 
G01 X0.3741 Y0.9844 
G01 X0.3771 Y0.9814 
G01 X0.3855 Y0.9610 
G01 X0.3855 Y0.9390 
G01 X0.3771 Y0.9186 
G01 X0.3742 Y0.9157 
G01 X0.3731 Y0.9141 
G01 X0.3714 Y0.9116 
G01 X0.3696 Y0.9071 
G01 X0.3692 Y0.9053 
G01 X0.3686 Y0.9024 
G01 X0.3686 Y0.8976 
G01 X0.3696 Y0.8929 
G01 X0.3711 Y0.8892 
G01 X0.3714 Y0.8884 
G01 X0.3741 Y0.8844 
G01 X0.3771 Y0.8814 
G01 X0.3855 Y0.8610 
G01 X0.3855 Y0.8390 
G01 X0.3771 Y0.8186 
G01 X0.3742 Y0.8157 
G01 X0.3731 Y0.8141 
G01 X0.3714 Y0.8116 
G01 X0.3696 Y0.8071 
G01 X0.3692 Y0.8053 
G01 X0.3686 Y0.8024 
G01 X0.3686 Y0.7976 
G01 X0.3696 Y0.7929 
G01 X0.3711 Y0.7892 
G01 X0.3714 Y0.7884 
G01 X0.3741 Y0.7844 
G01 X0.3771 Y0.7814 
G01 X0.3855 Y0.7610 
G01 X0.3855 Y0.7390 
G01 X0.3771 Y0.7186 
G01 X0.3742 Y0.7157 
G01 X0.3731 Y0.7141 
G01 X0.3714 Y0.7116 
G01 X0.3696 Y0.7071 
G01 X0.3692 Y0.7053 
G01 X0.3686 Y0.7024 
G01 X0.3686 Y0.6976 
G01 X0.3696 Y0.6929 
G01 X0.3711 Y0.6892 
G01 X0.3714 Y0.6884 
G01 X0.3741 Y0.6844 
G01 X0.3771 Y0.6814 
G01 X0.3855 Y0.6610 
G01 X0.3855 Y0.6390 
G01 X0.3771 Y0.6186 
G01 X0.3742 Y0.6157 
G01 X0.3731 Y0.6141 
G01 X0.3714 Y0.6116 
G01 X0.3696 Y0.6071 
G01 X0.3692 Y0.6053 
G01 X0.3686 Y0.6024 
G01 X0.3686 Y0.5976 
G01 X0.3696 Y0.5929 
G01 X0.3711 Y0.5892 
G01 X0.3714 Y0.5884 
G01 X0.3741 Y0.5844 
G01 X0.3771 Y0.5814 
G01 X0.3855 Y0.5610 
G01 X0.3855 Y0.5566 
G01 X0.3864 Y0.5518 
G01 X0.3883 Y0.5474 
G01 X0.3910 Y0.5434 
G01 X0.3944 Y0.5400 
G01 X0.3984 Y0.5373 
G01 X0.4029 Y0.5354 
G01 X0.4076 Y0.5345 
G01 X0.4124 Y0.5345 
G01 X0.4171 Y0.5354 
G01 X0.4216 Y0.5373 
G01 X0.4256 Y0.5400 
G01 X0.4290 Y0.5434 
G01 X0.4740 Y0.5884 
G01 X0.4767 Y0.5924 
G01 X0.4768 Y0.5925 
G01 X0.4786 Y0.5968 
G01 X0.4794 Y0.6013 
G01 X0.4795 Y0.6016 
G01 X0.4795 Y1.0091 
G01 X0.4864 Y1.0258 
G01 X0.5010 Y1.0403 
G01 X0.5190 Y1.0584 
G01 X0.5217 Y1.0624 
G01 X0.5236 Y1.0669 
G01 X0.5245 Y1.0716 
G01 X0.5245 Y1.0764 
G01 X0.5243 Y1.0773 
G01 X0.5236 Y1.0811 
G01 X0.5217 Y1.0856 
G01 X0.5190 Y1.0896 
G01 X0.5156 Y1.0930 
G01 X0.5116 Y1.0957 
G01 X0.5072 Y1.0976 
G01 X0.5040 Y1.0982 
G01 X0.4735 Y1.1287 
G01 X0.4735 Y1.1713 
G01 X0.5037 Y1.2015 
G01 X0.5463 Y1.2015 
G01 X0.5768 Y1.1710 
G01 X0.5774 Y1.1678 
G01 X0.5793 Y1.1634 
G01 X0.5820 Y1.1594 
G01 X0.5854 Y1.1560 
G01 X0.5894 Y1.1533 
G01 X0.5939 Y1.1514 
G01 X0.5986 Y1.1505 
G01 X0.6034 Y1.1505 
G01 X0.6081 Y1.1514 
G01 X0.6126 Y1.1533 
G01 X0.6166 Y1.1560 
G01 X0.6200 Y1.1594 
G01 X0.6685 Y1.2078 
G01 X0.6718 Y1.2112 
G01 X0.6746 Y1.2153 
G01 X0.6803 Y1.2292 
G01 X0.6948 Y1.2437 
G01 X0.7138 Y1.2515 
G01 X0.7862 Y1.2515 
G01 X0.8052 Y1.2437 
G01 X0.8197 Y1.2292 
G01 X0.8275 Y1.2102 
G01 X0.8275 Y1.1898 
G01 X0.8197 Y1.1708 
G01 X0.8144 Y1.1656 
G01 X0.8130 Y1.1635 
G01 X0.8118 Y1.1616 
G01 X0.8107 Y1.1590 
G01 X0.8099 Y1.1571 
G01 X0.8090 Y1.1524 
G01 X0.8090 Y1.1476 
G01 X0.8093 Y1.1458 
G01 X0.8099 Y1.1429 
G01 X0.8118 Y1.1384 
G01 X0.8131 Y1.1365 
G01 X0.8144 Y1.1344 
G01 X0.8179 Y1.1310 
G01 X0.8197 Y1.1292 
G01 X0.8275 Y1.1102 
G01 X0.8275 Y1.0898 
G01 X0.8197 Y1.0708 
G01 X0.8144 Y1.0656 
G01 X0.8130 Y1.0635 
G01 X0.8118 Y1.0616 
G01 X0.8107 Y1.0590 
G01 X0.8099 Y1.0571 
G01 X0.8090 Y1.0524 
G01 X0.8090 Y1.0476 
G01 X0.8093 Y1.0458 
G01 X0.8099 Y1.0429 
G01 X0.8118 Y1.0384 
G01 X0.8131 Y1.0365 
G01 X0.8144 Y1.0344 
G01 X0.8179 Y1.0310 
G01 X0.8197 Y1.0292 
G01 X0.8275 Y1.0102 
G01 X0.8275 Y0.9898 
G01 X0.8197 Y0.9708 
G01 X0.8144 Y0.9656 
G01 X0.8130 Y0.9635 
G01 X0.8118 Y0.9616 
G01 X0.8107 Y0.9590 
G01 X0.8099 Y0.9571 
G01 X0.8090 Y0.9524 
G01 X0.8090 Y0.9476 
G01 X0.8093 Y0.9458 
G01 X0.8099 Y0.9429 
G01 X0.8118 Y0.9384 
G01 X0.8131 Y0.9365 
G01 X0.8144 Y0.9344 
G01 X0.8179 Y0.9310 
G01 X0.8197 Y0.9292 
G01 X0.8275 Y0.9102 
G01 X0.8275 Y0.8898 
G01 X0.8197 Y0.8708 
G01 X0.8144 Y0.8656 
G01 X0.8130 Y0.8635 
G01 X0.8118 Y0.8616 
G01 X0.8107 Y0.8590 
G01 X0.8099 Y0.8571 
G01 X0.8090 Y0.8524 
G01 X0.8090 Y0.8476 
G01 X0.8093 Y0.8458 
G01 X0.8099 Y0.8429 
G01 X0.8118 Y0.8384 
G01 X0.8131 Y0.8365 
G01 X0.8144 Y0.8344 
G01 X0.8179 Y0.8310 
G01 X0.8197 Y0.8292 
G01 X0.8275 Y0.8102 
G01 X0.8275 Y0.7898 
G01 X0.8197 Y0.7708 
G01 X0.8179 Y0.7690 
G01 X0.8145 Y0.7657 
G01 X0.8132 Y0.7637 
G01 X0.8118 Y0.7616 
G01 X0.8099 Y0.7571 
G01 X0.8094 Y0.7543 
G01 X0.8090 Y0.7524 
G01 X0.8090 Y0.7476 
G01 X0.8099 Y0.7429 
G01 X0.8107 Y0.7411 
G01 X0.8118 Y0.7384 
G01 X0.8132 Y0.7363 
G01 X0.8144 Y0.7344 
G01 X0.8197 Y0.7292 
G01 X0.8275 Y0.7102 
G01 X0.8275 Y0.6898 
G01 X0.8241 Y0.6816 
G01 X0.8224 Y0.6775 
G01 X0.8223 Y0.6771 
G01 X0.8213 Y0.6724 
G01 X0.8213 Y0.6676 
G01 X0.8214 Y0.6673 
G01 X0.8223 Y0.6629 
G01 X0.8241 Y0.6584 
G01 X0.8268 Y0.6545 
G01 X0.8302 Y0.6510 
G01 X0.8342 Y0.6483 
G01 X0.8387 Y0.6464 
G01 X0.8434 Y0.6455 
G01 X0.8591 Y0.6455 
G01 X0.8758 Y0.6386 
G01 X0.9208 Y0.5935 
G01 X0.9290 Y0.5854 
G01 X0.9322 Y0.5821 
G01 X0.9324 Y0.5820 
G01 X0.9364 Y0.5793 
G01 X0.9390 Y0.5782 
G01 X0.9409 Y0.5774 
G01 X0.9456 Y0.5765 
G01 X0.9504 Y0.5765 
G01 X0.9515 Y0.5767 
G01 X0.9551 Y0.5774 
G01 X0.9596 Y0.5793 
G01 X0.9615 Y0.5806 
G01 X0.9636 Y0.5820 
G01 X0.9670 Y0.5854 
G01 X0.9697 Y0.5894 
G01 X0.9708 Y0.5919 
G01 X0.9716 Y0.5938 
G01 X0.9725 Y0.5986 
G01 X0.9725 Y0.6102 
G01 X0.9803 Y0.6292 
G01 X0.9855 Y0.6344 
G01 X0.9870 Y0.6365 
G01 X0.9882 Y0.6384 
G01 X0.9893 Y0.6410 
G01 X0.9901 Y0.6429 
G01 X0.9910 Y0.6476 
G01 X0.9910 Y0.6524 
G01 X0.9907 Y0.6542 
G01 X0.9901 Y0.6571 
G01 X0.9882 Y0.6616 
G01 X0.9869 Y0.6635 
G01 X0.9856 Y0.6656 
G01 X0.9821 Y0.6690 
G01 X0.9803 Y0.6708 
G01 X0.9725 Y0.6898 
G01 X0.9725 Y0.7102 
G01 X0.9803 Y0.7292 
G01 X0.9855 Y0.7344 
G01 X0.9870 Y0.7365 
G01 X0.9882 Y0.7384 
G01 X0.9893 Y0.7410 
G01 X0.9901 Y0.7429 
G01 X0.9910 Y0.7476 
G01 X0.9910 Y0.7524 
G01 X0.9907 Y0.7542 
G01 X0.9901 Y0.7571 
G01 X0.9882 Y0.7616 
G01 X0.9869 Y0.7635 
G01 X0.9856 Y0.7656 
G01 X0.9821 Y0.7690 
G01 X0.9803 Y0.7708 
G01 X0.9725 Y0.7898 
G01 X0.9725 Y0.8102 
G01 X0.9803 Y0.8292 
G01 X0.9855 Y0.8344 
G01 X0.9870 Y0.8365 
G01 X0.9882 Y0.8384 
G01 X0.9893 Y0.8410 
G01 X0.9901 Y0.8429 
G01 X0.9910 Y0.8476 
G01 X0.9910 Y0.8524 
G01 X0.9907 Y0.8542 
G01 X0.9901 Y0.8571 
G01 X0.9882 Y0.8616 
G01 X0.9869 Y0.8635 
G01 X0.9856 Y0.8656 
G01 X0.9821 Y0.8690 
G01 X0.9803 Y0.8708 
G01 X0.9725 Y0.8898 
G01 X0.9725 Y0.9102 
G01 X0.9803 Y0.9292 
G01 X0.9855 Y0.9344 
G01 X0.9870 Y0.9365 
G01 X0.9882 Y0.9384 
G01 X0.9893 Y0.9410 
G01 X0.9901 Y0.9429 
G01 X0.9910 Y0.9476 
G01 X0.9910 Y0.9524 
G01 X0.9907 Y0.9542 
G01 X0.9901 Y0.9571 
G01 X0.9882 Y0.9616 
G01 X0.9869 Y0.9635 
G01 X0.9856 Y0.9656 
G01 X0.9821 Y0.9690 
G01 X0.9803 Y0.9708 
G01 X0.9725 Y0.9898 
G01 X0.9725 Y1.0102 
G01 X0.9803 Y1.0292 
G01 X0.9855 Y1.0344 
G01 X0.9870 Y1.0365 
G01 X0.9882 Y1.0384 
G01 X0.9893 Y1.0410 
G01 X0.9901 Y1.0429 
G01 X0.9910 Y1.0476 
G01 X0.9910 Y1.0524 
G01 X0.9907 Y1.0542 
G01 X0.9901 Y1.0571 
G01 X0.9882 Y1.0616 
G01 X0.9869 Y1.0635 
G01 X0.9856 Y1.0656 
G01 X0.9821 Y1.0690 
G01 X0.9803 Y1.0708 
G01 X0.9725 Y1.0898 
G01 X0.9725 Y1.1102 
G01 X0.9803 Y1.1292 
G01 X0.9855 Y1.1344 
G01 X0.9870 Y1.1365 
G01 X0.9882 Y1.1384 
G01 X0.9893 Y1.1410 
G01 X0.9901 Y1.1429 
G01 X0.9910 Y1.1476 
G01 X0.9910 Y1.1524 
G01 X0.9907 Y1.1542 
G01 X0.9901 Y1.1571 
G01 X0.9882 Y1.1616 
G01 X0.9869 Y1.1635 
G01 X0.9856 Y1.1656 
G01 X0.9821 Y1.1690 
G01 X0.9803 Y1.1708 
G01 X0.9725 Y1.1898 
G01 X0.9725 Y1.2102 
G01 X0.9803 Y1.2292 
G01 X0.9948 Y1.2437 
G01 X1.0138 Y1.2515 
G01 X1.0824 Y1.2515 
G01 X1.0871 Y1.2524 
G01 X1.0916 Y1.2543 
G01 X1.0956 Y1.2570 
G01 X1.0990 Y1.2604 
G01 X1.1017 Y1.2644 
G01 X1.1036 Y1.2689 
G01 X1.1045 Y1.2736 
G01 X1.1045 Y1.3264 
G01 X1.1036 Y1.3311 
G01 X1.1017 Y1.3356 
G01 X1.0990 Y1.3396 
G01 X1.0956 Y1.3430 
G01 X1.0916 Y1.3457 
G01 X1.0871 Y1.3476 
G01 X1.0824 Y1.3485 
G01 X1.0138 Y1.3485 
G01 X0.9948 Y1.3563 
G01 X0.9803 Y1.3708 
G01 X0.9725 Y1.3898 
G01 X0.9725 Y1.4102 
G01 X0.9803 Y1.4292 
G01 X0.9855 Y1.4344 
G01 X0.9870 Y1.4365 
G01 X0.9882 Y1.4384 
G01 X0.9893 Y1.4410 
G01 X0.9901 Y1.4429 
G01 X0.9910 Y1.4476 
G01 X0.9910 Y1.4524 
G01 X0.9907 Y1.4542 
G01 X0.9901 Y1.4571 
G01 X0.9882 Y1.4616 
G01 X0.9869 Y1.4635 
G01 X0.9856 Y1.4656 
G01 X0.9821 Y1.4690 
G01 X0.9803 Y1.4708 
G01 X0.9725 Y1.4898 
G01 X0.9725 Y1.5102 
G01 X0.9803 Y1.5292 
G01 X0.9855 Y1.5344 
G01 X0.9870 Y1.5365 
G01 X0.9882 Y1.5384 
G01 X0.9893 Y1.5410 
G01 X0.9901 Y1.5429 
G01 X0.9910 Y1.5476 
G01 X0.9910 Y1.5524 
G01 X0.9907 Y1.5542 
G01 X0.9901 Y1.5571 
G01 X0.9882 Y1.5616 
G01 X0.9869 Y1.5635 
G01 X0.9856 Y1.5656 
G01 X0.9821 Y1.5690 
G01 X0.9803 Y1.5708 
G01 X0.9725 Y1.5898 
G01 X0.9725 Y1.6102 
G01 X0.9803 Y1.6292 
G01 X0.9855 Y1.6344 
G01 X0.9870 Y1.6365 
G01 X0.9882 Y1.6384 
G01 X0.9893 Y1.6410 
G01 X0.9901 Y1.6429 
G01 X0.9910 Y1.6476 
G01 X0.9910 Y1.6524 
G01 X0.9907 Y1.6542 
G01 X0.9901 Y1.6571 
G01 X0.9882 Y1.6616 
G01 X0.9869 Y1.6635 
G01 X0.9856 Y1.6656 
G01 X0.9821 Y1.6690 
G01 X0.9803 Y1.6708 
G01 X0.9725 Y1.6898 
G01 X0.9725 Y1.7102 
G01 X0.9759 Y1.7184 
G01 X0.9776 Y1.7225 
G01 X0.9777 Y1.7229 
G01 X0.9787 Y1.7276 
G01 X0.9787 Y1.7324 
G01 X0.9786 Y1.7327 
G01 X0.9777 Y1.7371 
G01 X0.9759 Y1.7416 
G01 X0.9732 Y1.7455 
G01 X0.9698 Y1.7490 
G01 X0.9658 Y1.7517 
G01 X0.9613 Y1.7536 
G01 X0.9566 Y1.7545 
G01 X0.8434 Y1.7545 
G01 X0.8387 Y1.7536 
G01 X0.8342 Y1.7517 
G01 X0.8302 Y1.7490 
G01 X0.8268 Y1.7456 
G01 X0.8241 Y1.7416 
G01 X0.8223 Y1.7371 
G01 X0.8213 Y1.7324 
G01 X0.8213 Y1.7276 
G01 X0.8223 Y1.7229 
G01 X0.8241 Y1.7184 
G01 X0.8275 Y1.7102 
G01 X0.8275 Y1.6898 
G01 X0.8197 Y1.6708 
G01 X0.8179 Y1.6690 
G01 X0.8145 Y1.6657 
G01 X0.8132 Y1.6637 
G01 X0.8118 Y1.6616 
G01 X0.8099 Y1.6571 
G01 X0.8094 Y1.6543 
G01 X0.8090 Y1.6524 
G01 X0.8090 Y1.6476 
G01 X0.8099 Y1.6429 
G01 X0.8107 Y1.6411 
G01 X0.8118 Y1.6384 
G01 X0.8132 Y1.6363 
G01 X0.8144 Y1.6344 
G01 X0.8197 Y1.6292 
G01 X0.8275 Y1.6102 
G01 X0.8275 Y1.5898 
G01 X0.8197 Y1.5708 
G01 X0.8179 Y1.5690 
G01 X0.8145 Y1.5657 
G01 X0.8132 Y1.5637 
G01 X0.8118 Y1.5616 
G01 X0.8099 Y1.5571 
G01 X0.8094 Y1.5543 
G01 X0.8090 Y1.5524 
G01 X0.8090 Y1.5476 
G01 X0.8099 Y1.5429 
G01 X0.8107 Y1.5411 
G01 X0.8118 Y1.5384 
G01 X0.8132 Y1.5363 
G01 X0.8144 Y1.5344 
G01 X0.8197 Y1.5292 
G01 X0.8275 Y1.5102 
G01 X0.8275 Y1.4898 
G01 X0.8197 Y1.4708 
G01 X0.8144 Y1.4656 
G01 X0.8130 Y1.4635 
G01 X0.8118 Y1.4616 
G01 X0.8107 Y1.4590 
G01 X0.8099 Y1.4571 
G01 X0.8090 Y1.4524 
G01 X0.8090 Y1.4476 
G01 X0.8093 Y1.4458 
G01 X0.8099 Y1.4429 
G01 X0.8118 Y1.4384 
G01 X0.8131 Y1.4365 
G01 X0.8144 Y1.4344 
G01 X0.8179 Y1.4310 
G01 X0.8197 Y1.4292 
G01 X0.8275 Y1.4102 
G01 X0.8275 Y1.3898 
G01 X0.8197 Y1.3708 
G01 X0.8052 Y1.3563 
G01 X0.7862 Y1.3485 
G01 X0.7138 Y1.3485 
G01 X0.6948 Y1.3563 
G01 X0.6803 Y1.3708 
G01 X0.6725 Y1.3898 
G01 X0.6725 Y1.4014 
G01 X0.6716 Y1.4061 
G01 X0.6697 Y1.4106 
G01 X0.6670 Y1.4146 
G01 X0.6636 Y1.4180 
G01 X0.6596 Y1.4207 
G01 X0.6551 Y1.4226 
G01 X0.6504 Y1.4235 
G01 X0.6037 Y1.4235 
G01 X0.5735 Y1.4537 
G01 X0.5735 Y1.4764 
G01 X0.5726 Y1.4811 
G01 X0.5707 Y1.4856 
G01 X0.5680 Y1.4896 
G01 X0.5646 Y1.4930 
G01 X0.5606 Y1.4957 
G01 X0.5561 Y1.4976 
G01 X0.5514 Y1.4985 
G01 X0.5019 Y1.4985 
G01 X0.5012 Y1.4988 
G01 X0.4982 Y1.5000 
G01 X0.4974 Y1.5002 
G01 X0.4934 Y1.5010 
G01 X0.4886 Y1.5010 
G01 X0.4865 Y1.5006 
G01 X0.4839 Y1.5000 
G01 X0.4801 Y1.4985 
G01 X0.4794 Y1.4982 
G01 X0.4762 Y1.4961 
G01 X0.4754 Y1.4955 
G01 X0.4737 Y1.4938 
G01 X0.4720 Y1.4921 
G01 X0.4712 Y1.4908 
G01 X0.4693 Y1.4881 
G01 X0.4686 Y1.4865 
G01 X0.4675 Y1.4836 
G01 X0.4636 Y1.4742 
G01 X0.4456 Y1.4563 
G01 X0.4008 Y1.4114 
G01 X0.3903 Y1.4071 
G01 X0.3863 Y1.4044 
G01 X0.3829 Y1.4010 
G01 X0.3802 Y1.3970 
G01 X0.3784 Y1.3925 
G01 X0.3774 Y1.3878 
G01 X0.3774 Y1.3830 
G01 X0.3784 Y1.3782 
G01 X0.3802 Y1.3738 
G01 X0.3855 Y1.3610 
G01 X0.3855 Y1.3390 
G01 X0.3771 Y1.3186 
G01 X0.3614 Y1.3029 
G01 X0.3410 Y1.2945 
G01 X0.2590 Y1.2945 
G01 X0.2386 Y1.3029 
G01 X0.2229 Y1.3186 
G01 X0.2145 Y1.3390 
G01 X0.2145 Y1.3610 
G01 X0.2229 Y1.3814 
G01 X0.2258 Y1.3843 
G01 X0.2269 Y1.3859 
G01 X0.2286 Y1.3884 
G01 X0.2304 Y1.3929 
G01 X0.2308 Y1.3947 
G01 X0.2314 Y1.3976 
G01 X0.2314 Y1.4024 
G01 X0.2304 Y1.4071 
G01 X0.2289 Y1.4108 
G01 X0.2286 Y1.4116 
G01 X0.2259 Y1.4156 
G01 X0.2229 Y1.4186 
G01 X0.2145 Y1.4390 
G01 X0.2145 Y1.4610 
G01 X0.2229 Y1.4814 
G01 X0.2258 Y1.4843 
G01 X0.2269 Y1.4859 
G01 X0.2286 Y1.4884 
G01 X0.2304 Y1.4929 
G01 X0.2308 Y1.4947 
G01 X0.2314 Y1.4976 
G01 X0.2314 Y1.5024 
G01 X0.2304 Y1.5071 
G01 X0.2289 Y1.5108 
G01 X0.2286 Y1.5116 
G01 X0.2259 Y1.5156 
G01 X0.2229 Y1.5186 
G01 X0.2145 Y1.5390 
G01 X0.2145 Y1.5610 
G01 X0.2229 Y1.5814 
G01 X0.2386 Y1.5971 
G01 X0.2590 Y1.6055 
G01 X0.3410 Y1.6055 
G01 X0.3477 Y1.6027 
G01 X0.3519 Y1.6010 
G01 X0.3522 Y1.6009 
G01 X0.3569 Y1.5999 
G01 X0.3618 Y1.5999 
G01 X0.3665 Y1.6009 
G01 X0.3666 Y1.6009 
G01 X0.3710 Y1.6027 
G01 X0.3725 Y1.6038 
G01 X0.3750 Y1.6054 
G01 X0.3784 Y1.6088 
G01 X0.3811 Y1.6128 
G01 X0.3812 Y1.6133 
G01 X0.3864 Y1.6258 
G01 X0.4847 Y1.7240 
G01 X0.4992 Y1.7386 
G01 X0.5159 Y1.7455 
G01 X0.5491 Y1.7455 
G01 X0.5501 Y1.7454 
G01 X0.5515 Y1.7455 
G01 X0.5529 Y1.7455 
G01 X0.5539 Y1.7457 
G01 X0.5549 Y1.7458 
G01 X0.5563 Y1.7462 
G01 X0.5576 Y1.7464 
G01 X0.5586 Y1.7468 
G01 X0.5596 Y1.7471 
G01 X0.5608 Y1.7478 
G01 X0.5621 Y1.7483 
G01 X0.5629 Y1.7489 
G01 X0.5639 Y1.7494 
G01 X0.5649 Y1.7502 
G01 X0.5661 Y1.7510 
G01 X0.5668 Y1.7517 
G01 X0.5699 Y1.7542 
G01 X0.5711 Y1.7550 
G01 X0.5718 Y1.7557 
G01 X0.5726 Y1.7564 
G01 X0.5735 Y1.7574 
G01 X0.5745 Y1.7584 
G01 X0.5751 Y1.7593 
G01 X0.5757 Y1.7601 
G01 X0.5764 Y1.7613 
G01 X0.5772 Y1.7624 
G01 X0.5776 Y1.7634 
G01 X0.5781 Y1.7643 
G01 X0.5785 Y1.7656 
G01 X0.5790 Y1.7669 
G01 X0.5792 Y1.7679 
G01 X0.5795 Y1.7689 
G01 X0.5797 Y1.7703 
G01 X0.5799 Y1.7716 
G01 X0.5799 Y1.7726 
G01 X0.5801 Y1.7737 
G01 X0.5799 Y1.7751 
G01 X0.5799 Y1.7764 
G01 X0.5797 Y1.7774 
G01 X0.5796 Y1.7785 
G01 X0.5793 Y1.7798 
G01 X0.5790 Y1.7811 
G01 X0.5786 Y1.7821 
G01 X0.5783 Y1.7831 
G01 X0.5777 Y1.7843 
G01 X0.5772 Y1.7856 
G01 X0.5766 Y1.7865 
G01 X0.5761 Y1.7874 
G01 X0.5752 Y1.7885 
G01 X0.5745 Y1.7896 
G01 X0.5737 Y1.7904 
G01 X0.5731 Y1.7912 
G01 X0.5720 Y1.7921 
G01 X0.5711 Y1.7930 
G01 X0.5702 Y1.7936 
G01 X0.5694 Y1.7943 
G01 X0.5682 Y1.7950 
G01 X0.5671 Y1.7957 
G01 X0.5661 Y1.7961 
G01 X0.5651 Y1.7966 
G01 X0.5639 Y1.7970 
G01 X0.5626 Y1.7976 
G01 X0.5616 Y1.7978 
G01 X0.5605 Y1.7981 
G01 X0.5592 Y1.7982 
G01 X0.5579 Y1.7985 
G01 X0.5568 Y1.7985 
G01 X0.5558 Y1.7986 
G01 X0.5544 Y1.7985 
G01 X0.5287 Y1.7985 
G01 X0.4985 Y1.8287 
G01 X0.4985 Y1.8713 
G01 X0.5287 Y1.9015 
G01 X0.5709 Y1.9015 
G01 X0.5757 Y1.9024 
G01 X0.5801 Y1.9043 
G01 X0.5841 Y1.9070 
G01 X0.5876 Y1.9104 
G01 X0.6037 Y1.9265 
G01 X0.6463 Y1.9265 
G01 X0.6765 Y1.8963 
G01 X0.6765 Y1.8717 
G01 X0.6764 Y1.8706 
G01 X0.6765 Y1.8693 
G01 X0.6765 Y1.8679 
G01 X0.6767 Y1.8669 
G01 X0.6768 Y1.8658 
G01 X0.6772 Y1.8645 
G01 X0.6774 Y1.8632 
G01 X0.6778 Y1.8622 
G01 X0.6781 Y1.8612 
G01 X0.6788 Y1.8600 
G01 X0.6793 Y1.8587 
G01 X0.6799 Y1.8578 
G01 X0.6804 Y1.8569 
G01 X0.6812 Y1.8558 
G01 X0.6820 Y1.8547 
G01 X0.6827 Y1.8540 
G01 X0.6834 Y1.8531 
G01 X0.6844 Y1.8523 
G01 X0.6854 Y1.8513 
G01 X0.6863 Y1.8507 
G01 X0.6871 Y1.8500 
G01 X0.6883 Y1.8494 
G01 X0.6894 Y1.8486 
G01 X0.6904 Y1.8482 
G01 X0.6913 Y1.8477 
G01 X0.6926 Y1.8473 
G01 X0.6939 Y1.8468 
G01 X0.6949 Y1.8466 
G01 X0.6959 Y1.8462 
G01 X0.6973 Y1.8461 
G01 X0.6986 Y1.8458 
G01 X0.6996 Y1.8458 
G01 X0.7001 Y1.8458 
G01 X0.7015 Y1.8455 
G01 X0.7025 Y1.8455 
G01 X0.7036 Y1.8454 
G01 X0.7049 Y1.8455 
G01 X1.1091 Y1.8455 
G01 X1.1268 Y1.8382 
G01 X1.1270 Y1.8380 
G01 X1.1290 Y1.8367 
G01 X1.1309 Y1.8359 
G01 X1.1335 Y1.8348 
G01 X1.1348 Y1.8345 
G01 X1.1382 Y1.8339 
G01 X1.1406 Y1.8339 
G01 X1.1430 Y1.8339 
G01 X1.1454 Y1.8343 
G01 X1.1478 Y1.8348 
G01 X1.1499 Y1.8357 
G01 X1.1522 Y1.8367 
G01 X1.1542 Y1.8380 
G01 X1.1562 Y1.8393 
G01 X1.1579 Y1.8410 
G01 X1.1597 Y1.8427 
G01 X1.1610 Y1.8447 
G01 X1.1623 Y1.8468 
G01 X1.1631 Y1.8486 
G01 X1.1642 Y1.8512 
G01 X1.1644 Y1.8525 
G01 X1.1651 Y1.8559 
G01 X1.1651 Y1.8583 
G01 X1.1651 Y1.8608 
G01 X1.1651 Y1.8610 
G01 X1.1735 Y1.8813 
G01 X1.1891 Y1.8968 
G01 X1.2093 Y1.9052 
G01 X1.2907 Y1.9052 
G01 X1.3034 Y1.8999 
G01 X1.3079 Y1.8981 
G01 X1.3123 Y1.8972 
G01 X1.3126 Y1.8971 
G01 X1.3174 Y1.8971 
G01 X1.3221 Y1.8981 
G01 X1.3266 Y1.8999 
G01 X1.3306 Y1.9026 
G01 X1.3340 Y1.9060 
G01 X1.3367 Y1.9100 
G01 X1.3386 Y1.9145 
G01 X1.3394 Y1.9189 
G01 X1.3395 Y1.9192 
G01 X1.3395 Y1.9824 
G01 X1.3386 Y1.9871 
G01 X1.3367 Y1.9916 
G01 X1.3340 Y1.9956 
G01 X1.3306 Y1.9990 
G01 X1.3266 Y2.0017 
G01 X1.3221 Y2.0036 
G01 X1.3174 Y2.0045 
G01 X0.7909 Y2.0045 
G01 X0.7742 Y2.0114 
G01 X0.5960 Y2.1896 
G01 X0.5955 Y2.1901 
G01 X0.5926 Y2.1930 
G01 X0.5886 Y2.1957 
G01 X0.5842 Y2.1976 
G01 X0.5794 Y2.1985 
G01 X0.5287 Y2.1985 
G01 X0.4985 Y2.2287 
G01 X0.4985 Y2.2713 
G01 X0.5287 Y2.3015 
G01 X0.5713 Y2.3015 
G01 X0.5719 Y2.3010 
G01 X0.5759 Y2.2983 
G01 X0.5803 Y2.2964 
G01 X0.5851 Y2.2955 
G01 X0.6149 Y2.2955 
G01 X0.6197 Y2.2964 
G01 X0.6241 Y2.2983 
G01 X0.6281 Y2.3010 
G01 X0.6287 Y2.3015 
G01 X0.6713 Y2.3015 
G01 X0.7015 Y2.2713 
G00 Z0.1000 
G00 X2.5494 Y2.1955 
G01 Z-0.0060 F10.00 
G01 X2.5539 Y2.1964 F10.00 
G01 X2.5542 Y2.1964 
G01 X2.5543 Y2.1965 
G01 X2.5586 Y2.1983 
G01 X2.5626 Y2.2010 
G01 X2.5660 Y2.2043 
G01 X2.5687 Y2.2084 
G01 X2.5706 Y2.2129 
G01 X2.5713 Y2.2166 
G01 X2.5715 Y2.2176 
G01 X2.5715 Y2.2224 
G01 X2.5706 Y2.2269 
G01 X2.5706 Y2.2271 
G01 X2.5705 Y2.2273 
G01 X2.5687 Y2.2316 
G01 X2.5660 Y2.2356 
G01 X2.5627 Y2.2390 
G01 X2.5586 Y2.2417 
G01 X2.5436 Y2.2479 
G01 X2.5406 Y2.2509 
G01 X2.5366 Y2.2536 
G01 X2.5359 Y2.2539 
G01 X2.5321 Y2.2554 
G01 X2.5274 Y2.2564 
G01 X2.5226 Y2.2564 
G01 X2.5198 Y2.2558 
G01 X2.5179 Y2.2554 
G01 X2.5134 Y2.2536 
G01 X2.5110 Y2.2520 
G01 X2.5094 Y2.2509 
G01 X2.5064 Y2.2479 
G01 X2.4958 Y2.2436 
G01 X2.4914 Y2.2417 
G01 X2.4898 Y2.2407 
G01 X2.4874 Y2.2390 
G01 X2.4840 Y2.2356 
G01 X2.4813 Y2.2316 
G01 X2.4794 Y2.2271 
G01 X2.4785 Y2.2224 
G01 X2.4785 Y2.2176 
G01 X2.4785 Y2.2173 
G01 X2.4794 Y2.2129 
G01 X2.4813 Y2.2084 
G01 X2.4823 Y2.2068 
G01 X2.4840 Y2.2044 
G01 X2.4874 Y2.2010 
G01 X2.4914 Y2.1983 
G01 X2.4958 Y2.1964 
G01 X2.5006 Y2.1955 
G01 X2.5494 Y2.1955 
G00 Z0.1000 
G00 X1.2516 Y1.0445 
G01 Z-0.0060 F10.00 
G01 X1.2501 Y1.0442 F10.00 
G01 X1.2485 Y1.0440 
G01 X1.2477 Y1.0437 
G01 X1.2468 Y1.0436 
G01 X1.2454 Y1.0430 
G01 X1.2440 Y1.0425 
G01 X1.2432 Y1.0420 
G01 X1.2424 Y1.0417 
G01 X1.2411 Y1.0409 
G01 X1.2398 Y1.0401 
G01 X1.2391 Y1.0395 
G01 X1.2384 Y1.0390 
G01 X1.2373 Y1.0379 
G01 X1.2361 Y1.0369 
G01 X1.2356 Y1.0362 
G01 X1.2350 Y1.0356 
G01 X1.2341 Y1.0343 
G01 X1.2332 Y1.0331 
G01 X1.2328 Y1.0323 
G01 X1.2323 Y1.0316 
G01 X1.2317 Y1.0302 
G01 X1.2310 Y1.0288 
G01 X1.2308 Y1.0280 
G01 X1.2304 Y1.0271 
G01 X1.2301 Y1.0256 
G01 X1.2297 Y1.0241 
G01 X1.2297 Y1.0233 
G01 X1.2295 Y1.0224 
G01 X1.2295 Y1.0209 
G01 X1.2294 Y1.0193 
G01 X1.2295 Y1.0185 
G01 X1.2295 Y1.0176 
G01 X1.2298 Y1.0161 
G01 X1.2300 Y1.0145 
G01 X1.2303 Y1.0137 
G01 X1.2304 Y1.0129 
G01 X1.2310 Y1.0114 
G01 X1.2315 Y1.0100 
G01 X1.2319 Y1.0092 
G01 X1.2323 Y1.0084 
G01 X1.2331 Y1.0071 
G01 X1.2339 Y1.0058 
G01 X1.2345 Y1.0051 
G01 X1.2350 Y1.0044 
G01 X1.2361 Y1.0033 
G01 X1.2371 Y1.0021 
G01 X1.2378 Y1.0016 
G01 X1.2384 Y1.0010 
G01 X1.2397 Y1.0001 
G01 X1.2409 Y0.9992 
G01 X1.2417 Y0.9988 
G01 X1.2424 Y0.9983 
G01 X1.2438 Y0.9977 
G01 X1.2452 Y0.9970 
G01 X1.2460 Y0.9968 
G01 X1.2468 Y0.9964 
G01 X1.2484 Y0.9961 
G01 X1.2499 Y0.9957 
G01 X1.2507 Y0.9957 
G01 X1.2516 Y0.9955 
G01 X1.2531 Y0.9955 
G01 X1.2547 Y0.9954 
G01 X1.2555 Y0.9955 
G01 X1.3228 Y0.9955 
G01 X1.3276 Y0.9964 
G01 X1.3320 Y0.9983 
G01 X1.3360 Y1.0010 
G01 X1.3395 Y1.0044 
G01 X1.3421 Y1.0084 
G01 X1.3440 Y1.0129 
G01 X1.3449 Y1.0176 
G01 X1.3449 Y1.0224 
G01 X1.3440 Y1.0271 
G01 X1.3421 Y1.0316 
G01 X1.3385 Y1.0403 
G01 X1.3359 Y1.0443 
G01 X1.3325 Y1.0477 
G01 X1.3284 Y1.0504 
G01 X1.3240 Y1.0522 
G01 X1.3192 Y1.0532 
G01 X1.3144 Y1.0532 
G01 X1.3097 Y1.0522 
G01 X1.3052 Y1.0504 
G01 X1.2910 Y1.0445 
G01 X1.2549 Y1.0445 
G01 X1.2533 Y1.0446 
G01 X1.2525 Y1.0445 
G01 X1.2516 Y1.0445 
G00 Z0.1000 
G00 X1.2910 Y1.3555 
G01 Z-0.0060 F10.00 
G01 X1.3097 Y1.3478 F10.00 
G01 X1.3144 Y1.3468 
G01 X1.3192 Y1.3468 
G01 X1.3237 Y1.3477 
G01 X1.3240 Y1.3478 
G01 X1.3284 Y1.3496 
G01 X1.3325 Y1.3523 
G01 X1.3359 Y1.3557 
G01 X1.3374 Y1.3581 
G01 X1.3385 Y1.3597 
G01 X1.3404 Y1.3642 
G01 X1.3487 Y1.3843 
G01 X1.3488 Y1.3844 
G01 X1.3499 Y1.3859 
G01 X1.3515 Y1.3884 
G01 X1.3522 Y1.3900 
G01 X1.3534 Y1.3929 
G01 X1.3539 Y1.3957 
G01 X1.3543 Y1.3976 
G01 X1.3543 Y1.4000 
G01 X1.3543 Y1.4024 
G01 X1.3540 Y1.4039 
G01 X1.3534 Y1.4071 
G01 X1.3525 Y1.4093 
G01 X1.3515 Y1.4116 
G01 X1.3499 Y1.4140 
G01 X1.3488 Y1.4156 
G01 X1.3487 Y1.4157 
G01 X1.3395 Y1.4380 
G01 X1.3395 Y1.4620 
G01 X1.3421 Y1.4684 
G01 X1.3437 Y1.4722 
G01 X1.3440 Y1.4729 
G01 X1.3449 Y1.4776 
G01 X1.3449 Y1.4824 
G01 X1.3449 Y1.4827 
G01 X1.3440 Y1.4871 
G01 X1.3422 Y1.4915 
G01 X1.3421 Y1.4916 
G01 X1.3395 Y1.4956 
G01 X1.3360 Y1.4990 
G01 X1.3320 Y1.5017 
G01 X1.3276 Y1.5036 
G01 X1.3228 Y1.5045 
G01 X1.2659 Y1.5045 
G01 X1.2492 Y1.5114 
G01 X1.2356 Y1.5250 
G01 X1.2316 Y1.5277 
G01 X1.2271 Y1.5296 
G01 X1.2224 Y1.5305 
G01 X1.2176 Y1.5305 
G01 X1.2167 Y1.5303 
G01 X1.2129 Y1.5296 
G01 X1.2084 Y1.5277 
G01 X1.2044 Y1.5250 
G01 X1.2010 Y1.5216 
G01 X1.1983 Y1.5176 
G01 X1.1964 Y1.5132 
G01 X1.1955 Y1.5084 
G01 X1.1955 Y1.3776 
G01 X1.1964 Y1.3729 
G01 X1.1983 Y1.3684 
G01 X1.2010 Y1.3644 
G01 X1.2044 Y1.3610 
G01 X1.2084 Y1.3583 
G01 X1.2129 Y1.3564 
G01 X1.2176 Y1.3555 
G01 X1.2224 Y1.3555 
G01 X1.2910 Y1.3555 
G00 Z0.1000 
G00 X2.9405 Y0.4584 
G01 Z-0.0060 F10.00 
G01 X2.9405 Y0.3916 F10.00 
G01 X2.9418 Y0.3849 
G01 X2.9444 Y0.3787 
G01 X2.9482 Y0.3730 
G01 X2.9530 Y0.3682 
G01 X2.9587 Y0.3644 
G01 X2.9649 Y0.3618 
G01 X2.9716 Y0.3605 
G01 X2.9784 Y0.3605 
G01 X2.9851 Y0.3618 
G01 X2.9913 Y0.3644 
G01 X2.9970 Y0.3682 
G01 X3.0018 Y0.3730 
G01 X3.0056 Y0.3787 
G01 X3.0082 Y0.3849 
G01 X3.0095 Y0.3916 
G01 X3.0095 Y0.4584 
G01 X3.0082 Y0.4651 
G01 X3.0056 Y0.4713 
G01 X3.0018 Y0.4770 
G01 X2.9970 Y0.4818 
G01 X2.9913 Y0.4856 
G01 X2.9851 Y0.4882 
G01 X2.9784 Y0.4895 
G01 X2.9716 Y0.4895 
G01 X2.9649 Y0.4882 
G01 X2.9587 Y0.4856 
G01 X2.9530 Y0.4818 
G01 X2.9482 Y0.4770 
G01 X2.9444 Y0.4713 
G01 X2.9418 Y0.4651 
G01 X2.9405 Y0.4584 
G00 Z0.1000 
G00 X2.8405 Y0.4584 
G01 Z-0.0060 F10.00 
G01 X2.8405 Y0.3916 F10.00 
G01 X2.8418 Y0.3849 
G01 X2.8444 Y0.3787 
G01 X2.8482 Y0.3730 
G01 X2.8530 Y0.3682 
G01 X2.8587 Y0.3644 
G01 X2.8649 Y0.3618 
G01 X2.8716 Y0.3605 
G01 X2.8784 Y0.3605 
G01 X2.8851 Y0.3618 
G01 X2.8913 Y0.3644 
G01 X2.8970 Y0.3682 
G01 X2.9018 Y0.3730 
G01 X2.9056 Y0.3787 
G01 X2.9082 Y0.3849 
G01 X2.9095 Y0.3916 
G01 X2.9095 Y0.4584 
G01 X2.9082 Y0.4651 
G01 X2.9056 Y0.4713 
G01 X2.9018 Y0.4770 
G01 X2.8970 Y0.4818 
G01 X2.8913 Y0.4856 
G01 X2.8851 Y0.4882 
G01 X2.8784 Y0.4895 
G01 X2.8716 Y0.4895 
G01 X2.8649 Y0.4882 
G01 X2.8587 Y0.4856 
G01 X2.8530 Y0.4818 
G01 X2.8482 Y0.4770 
G01 X2.8444 Y0.4713 
G01 X2.8418 Y0.4651 
G01 X2.8405 Y0.4584 
G00 Z0.1000 
G00 X0.2666 Y1.1155 
G01 Z-0.0060 F10.00 
G01 X0.3334 Y1.1155 F10.00 
G01 X0.3401 Y1.1168 
G01 X0.3463 Y1.1194 
G01 X0.3520 Y1.1232 
G01 X0.3568 Y1.1280 
G01 X0.3606 Y1.1337 
G01 X0.3632 Y1.1399 
G01 X0.3645 Y1.1466 
G01 X0.3645 Y1.1534 
G01 X0.3632 Y1.1601 
G01 X0.3606 Y1.1663 
G01 X0.3568 Y1.1720 
G01 X0.3520 Y1.1768 
G01 X0.3463 Y1.1806 
G01 X0.3401 Y1.1832 
G01 X0.3334 Y1.1845 
G01 X0.2666 Y1.1845 
G01 X0.2599 Y1.1832 
G01 X0.2537 Y1.1806 
G01 X0.2480 Y1.1768 
G01 X0.2432 Y1.1720 
G01 X0.2394 Y1.1663 
G01 X0.2368 Y1.1601 
G01 X0.2355 Y1.1534 
G01 X0.2355 Y1.1466 
G01 X0.2368 Y1.1399 
G01 X0.2394 Y1.1337 
G01 X0.2432 Y1.1280 
G01 X0.2480 Y1.1232 
G01 X0.2537 Y1.1194 
G01 X0.2599 Y1.1168 
G01 X0.2666 Y1.1155 
G00 Z0.1000 
G00 X0.2666 Y1.0155 
G01 Z-0.0060 F10.00 
G01 X0.3334 Y1.0155 F10.00 
G01 X0.3401 Y1.0168 
G01 X0.3463 Y1.0194 
G01 X0.3520 Y1.0232 
G01 X0.3568 Y1.0280 
G01 X0.3606 Y1.0337 
G01 X0.3632 Y1.0399 
G01 X0.3645 Y1.0466 
G01 X0.3645 Y1.0534 
G01 X0.3632 Y1.0601 
G01 X0.3606 Y1.0663 
G01 X0.3568 Y1.0720 
G01 X0.3520 Y1.0768 
G01 X0.3463 Y1.0806 
G01 X0.3401 Y1.0832 
G01 X0.3334 Y1.0845 
G01 X0.2666 Y1.0845 
G01 X0.2599 Y1.0832 
G01 X0.2537 Y1.0806 
G01 X0.2480 Y1.0768 
G01 X0.2432 Y1.0720 
G01 X0.2394 Y1.0663 
G01 X0.2368 Y1.0601 
G01 X0.2355 Y1.0534 
G01 X0.2355 Y1.0466 
G01 X0.2368 Y1.0399 
G01 X0.2394 Y1.0337 
G01 X0.2432 Y1.0280 
G01 X0.2480 Y1.0232 
G01 X0.2537 Y1.0194 
G01 X0.2599 Y1.0168 
G01 X0.2666 Y1.0155 
G00 Z0.1000 
G00 X0.2666 Y0.9155 
G01 Z-0.0060 F10.00 
G01 X0.3334 Y0.9155 F10.00 
G01 X0.3401 Y0.9168 
G01 X0.3463 Y0.9194 
G01 X0.3520 Y0.9232 
G01 X0.3568 Y0.9280 
G01 X0.3606 Y0.9337 
G01 X0.3632 Y0.9399 
G01 X0.3645 Y0.9466 
G01 X0.3645 Y0.9534 
G01 X0.3632 Y0.9601 
G01 X0.3606 Y0.9663 
G01 X0.3568 Y0.9720 
G01 X0.3520 Y0.9768 
G01 X0.3463 Y0.9806 
G01 X0.3401 Y0.9832 
G01 X0.3334 Y0.9845 
G01 X0.2666 Y0.9845 
G01 X0.2599 Y0.9832 
G01 X0.2537 Y0.9806 
G01 X0.2480 Y0.9768 
G01 X0.2432 Y0.9720 
G01 X0.2394 Y0.9663 
G01 X0.2368 Y0.9601 
G01 X0.2355 Y0.9534 
G01 X0.2355 Y0.9466 
G01 X0.2368 Y0.9399 
G01 X0.2394 Y0.9337 
G01 X0.2432 Y0.9280 
G01 X0.2480 Y0.9232 
G01 X0.2537 Y0.9194 
G01 X0.2599 Y0.9168 
G01 X0.2666 Y0.9155 
G00 Z0.1000 
G00 X0.2666 Y0.8155 
G01 Z-0.0060 F10.00 
G01 X0.3334 Y0.8155 F10.00 
G01 X0.3401 Y0.8168 
G01 X0.3463 Y0.8194 
G01 X0.3520 Y0.8232 
G01 X0.3568 Y0.8280 
G01 X0.3606 Y0.8337 
G01 X0.3632 Y0.8399 
G01 X0.3645 Y0.8466 
G01 X0.3645 Y0.8534 
G01 X0.3632 Y0.8601 
G01 X0.3606 Y0.8663 
G01 X0.3568 Y0.8720 
G01 X0.3520 Y0.8768 
G01 X0.3463 Y0.8806 
G01 X0.3401 Y0.8832 
G01 X0.3334 Y0.8845 
G01 X0.2666 Y0.8845 
G01 X0.2599 Y0.8832 
G01 X0.2537 Y0.8806 
G01 X0.2480 Y0.8768 
G01 X0.2432 Y0.8720 
G01 X0.2394 Y0.8663 
G01 X0.2368 Y0.8601 
G01 X0.2355 Y0.8534 
G01 X0.2355 Y0.8466 
G01 X0.2368 Y0.8399 
G01 X0.2394 Y0.8337 
G01 X0.2432 Y0.8280 
G01 X0.2480 Y0.8232 
G01 X0.2537 Y0.8194 
G01 X0.2599 Y0.8168 
G01 X0.2666 Y0.8155 
G00 Z0.1000 
G00 X0.2666 Y0.7155 
G01 Z-0.0060 F10.00 
G01 X0.3334 Y0.7155 F10.00 
G01 X0.3401 Y0.7168 
G01 X0.3463 Y0.7194 
G01 X0.3520 Y0.7232 
G01 X0.3568 Y0.7280 
G01 X0.3606 Y0.7337 
G01 X0.3632 Y0.7399 
G01 X0.3645 Y0.7466 
G01 X0.3645 Y0.7534 
G01 X0.3632 Y0.7601 
G01 X0.3606 Y0.7663 
G01 X0.3568 Y0.7720 
G01 X0.3520 Y0.7768 
G01 X0.3463 Y0.7806 
G01 X0.3401 Y0.7832 
G01 X0.3334 Y0.7845 
G01 X0.2666 Y0.7845 
G01 X0.2599 Y0.7832 
G01 X0.2537 Y0.7806 
G01 X0.2480 Y0.7768 
G01 X0.2432 Y0.7720 
G01 X0.2394 Y0.7663 
G01 X0.2368 Y0.7601 
G01 X0.2355 Y0.7534 
G01 X0.2355 Y0.7466 
G01 X0.2368 Y0.7399 
G01 X0.2394 Y0.7337 
G01 X0.2432 Y0.7280 
G01 X0.2480 Y0.7232 
G01 X0.2537 Y0.7194 
G01 X0.2599 Y0.7168 
G01 X0.2666 Y0.7155 
G00 Z0.1000 
G00 X0.2666 Y0.6155 
G01 Z-0.0060 F10.00 
G01 X0.3334 Y0.6155 F10.00 
G01 X0.3401 Y0.6168 
G01 X0.3463 Y0.6194 
G01 X0.3520 Y0.6232 
G01 X0.3568 Y0.6280 
G01 X0.3606 Y0.6337 
G01 X0.3632 Y0.6399 
G01 X0.3645 Y0.6466 
G01 X0.3645 Y0.6534 
G01 X0.3632 Y0.6601 
G01 X0.3606 Y0.6663 
G01 X0.3568 Y0.6720 
G01 X0.3520 Y0.6768 
G01 X0.3463 Y0.6806 
G01 X0.3401 Y0.6832 
G01 X0.3334 Y0.6845 
G01 X0.2666 Y0.6845 
G01 X0.2599 Y0.6832 
G01 X0.2537 Y0.6806 
G01 X0.2480 Y0.6768 
G01 X0.2457 Y0.6745 
G01 X0.1976 Y0.6745 
G01 X0.1929 Y0.6736 
G01 X0.1884 Y0.6717 
G01 X0.1844 Y0.6690 
G01 X0.1810 Y0.6656 
G01 X0.1310 Y0.6156 
G01 X0.1283 Y0.6116 
G01 X0.1264 Y0.6071 
G01 X0.1255 Y0.6024 
G01 X0.1255 Y0.3976 
G01 X0.1264 Y0.3929 
G01 X0.1283 Y0.3884 
G01 X0.1310 Y0.3844 
G01 X0.1344 Y0.3810 
G01 X0.1844 Y0.3310 
G01 X0.1884 Y0.3283 
G01 X0.1929 Y0.3264 
G01 X0.1976 Y0.3255 
G01 X0.5524 Y0.3255 
G01 X0.5571 Y0.3264 
G01 X0.5616 Y0.3283 
G01 X0.5656 Y0.3310 
G01 X0.5690 Y0.3344 
G01 X0.6690 Y0.4344 
G01 X0.6717 Y0.4384 
G01 X0.6736 Y0.4429 
G01 X0.6745 Y0.4476 
G01 X0.6745 Y0.4755 
G01 X0.7058 Y0.4755 
G01 X0.7096 Y0.4730 
G01 X0.7151 Y0.4707 
G01 X0.7210 Y0.4695 
G01 X0.7790 Y0.4695 
G01 X0.7849 Y0.4707 
G01 X0.7904 Y0.4730 
G01 X0.7954 Y0.4763 
G01 X0.7997 Y0.4806 
G01 X0.8030 Y0.4856 
G01 X0.8053 Y0.4911 
G01 X0.8065 Y0.4970 
G01 X0.8065 Y0.5030 
G01 X0.8053 Y0.5089 
G01 X0.8030 Y0.5144 
G01 X0.7997 Y0.5194 
G01 X0.7954 Y0.5237 
G01 X0.7904 Y0.5270 
G01 X0.7849 Y0.5293 
G01 X0.7790 Y0.5305 
G01 X0.7210 Y0.5305 
G01 X0.7151 Y0.5293 
G01 X0.7096 Y0.5270 
G01 X0.7058 Y0.5245 
G01 X0.6851 Y0.5245 
G01 X0.6745 Y0.5351 
G01 X0.6745 Y0.9649 
G01 X0.6851 Y0.9755 
G01 X0.7058 Y0.9755 
G01 X0.7096 Y0.9730 
G01 X0.7151 Y0.9707 
G01 X0.7210 Y0.9695 
G01 X0.7790 Y0.9695 
G01 X0.7849 Y0.9707 
G01 X0.7904 Y0.9730 
G01 X0.7954 Y0.9763 
G01 X0.7997 Y0.9806 
G01 X0.8030 Y0.9856 
G01 X0.8053 Y0.9911 
G01 X0.8065 Y0.9970 
G01 X0.8065 Y1.0030 
G01 X0.8053 Y1.0089 
G01 X0.8030 Y1.0144 
G01 X0.7997 Y1.0194 
G01 X0.7954 Y1.0237 
G01 X0.7904 Y1.0270 
G01 X0.7849 Y1.0293 
G01 X0.7790 Y1.0305 
G01 X0.7210 Y1.0305 
G01 X0.7151 Y1.0293 
G01 X0.7096 Y1.0270 
G01 X0.7058 Y1.0245 
G01 X0.6726 Y1.0245 
G01 X0.6679 Y1.0236 
G01 X0.6634 Y1.0217 
G01 X0.6594 Y1.0190 
G01 X0.6344 Y0.9940 
G01 X0.6310 Y0.9906 
G01 X0.6283 Y0.9866 
G01 X0.6264 Y0.9821 
G01 X0.6255 Y0.9774 
G01 X0.6255 Y0.4601 
G01 X0.5399 Y0.3745 
G01 X0.2101 Y0.3745 
G01 X0.1745 Y0.4101 
G01 X0.1745 Y0.5899 
G01 X0.2101 Y0.6255 
G01 X0.2457 Y0.6255 
G01 X0.2480 Y0.6232 
G01 X0.2537 Y0.6194 
G01 X0.2599 Y0.6168 
G01 X0.2666 Y0.6155 
G00 Z0.1000 
G00 X0.2666 Y0.5155 
G01 Z-0.0060 F10.00 
G01 X0.3334 Y0.5155 F10.00 
G01 X0.3401 Y0.5168 
G01 X0.3463 Y0.5194 
G01 X0.3520 Y0.5232 
G01 X0.3568 Y0.5280 
G01 X0.3606 Y0.5337 
G01 X0.3632 Y0.5399 
G01 X0.3645 Y0.5466 
G01 X0.3645 Y0.5534 
G01 X0.3632 Y0.5601 
G01 X0.3606 Y0.5663 
G01 X0.3568 Y0.5720 
G01 X0.3520 Y0.5768 
G01 X0.3463 Y0.5806 
G01 X0.3401 Y0.5832 
G01 X0.3334 Y0.5845 
G01 X0.2666 Y0.5845 
G01 X0.2599 Y0.5832 
G01 X0.2537 Y0.5806 
G01 X0.2480 Y0.5768 
G01 X0.2432 Y0.5720 
G01 X0.2394 Y0.5663 
G01 X0.2368 Y0.5601 
G01 X0.2355 Y0.5534 
G01 X0.2355 Y0.5466 
G01 X0.2368 Y0.5399 
G01 X0.2394 Y0.5337 
G01 X0.2432 Y0.5280 
G01 X0.2480 Y0.5232 
G01 X0.2537 Y0.5194 
G01 X0.2599 Y0.5168 
G01 X0.2666 Y0.5155 
G00 Z0.1000 
G00 X0.2666 Y0.4155 
G01 Z-0.0060 F10.00 
G01 X0.3334 Y0.4155 F10.00 
G01 X0.3401 Y0.4168 
G01 X0.3463 Y0.4194 
G01 X0.3520 Y0.4232 
G01 X0.3543 Y0.4255 
G01 X0.4024 Y0.4255 
G01 X0.4071 Y0.4264 
G01 X0.4116 Y0.4283 
G01 X0.4156 Y0.4310 
G01 X0.4190 Y0.4344 
G01 X0.5440 Y0.5594 
G01 X0.5467 Y0.5634 
G01 X0.5486 Y0.5679 
G01 X0.5495 Y0.5726 
G01 X0.5495 Y0.9899 
G01 X0.7291 Y1.1695 
G01 X0.7790 Y1.1695 
G01 X0.7849 Y1.1707 
G01 X0.7904 Y1.1730 
G01 X0.7954 Y1.1763 
G01 X0.7997 Y1.1806 
G01 X0.8030 Y1.1856 
G01 X0.8053 Y1.1911 
G01 X0.8065 Y1.1970 
G01 X0.8065 Y1.2030 
G01 X0.8053 Y1.2089 
G01 X0.8030 Y1.2144 
G01 X0.7997 Y1.2194 
G01 X0.7954 Y1.2237 
G01 X0.7904 Y1.2270 
G01 X0.7849 Y1.2293 
G01 X0.7790 Y1.2305 
G01 X0.7210 Y1.2305 
G01 X0.7151 Y1.2293 
G01 X0.7096 Y1.2270 
G01 X0.7046 Y1.2237 
G01 X0.7003 Y1.2194 
G01 X0.6970 Y1.2144 
G01 X0.6947 Y1.2089 
G01 X0.6935 Y1.2032 
G01 X0.5094 Y1.0190 
G01 X0.5060 Y1.0156 
G01 X0.5033 Y1.0116 
G01 X0.5014 Y1.0071 
G01 X0.5005 Y1.0024 
G01 X0.5005 Y0.5851 
G01 X0.3899 Y0.4745 
G01 X0.3543 Y0.4745 
G01 X0.3520 Y0.4768 
G01 X0.3463 Y0.4806 
G01 X0.3401 Y0.4832 
G01 X0.3334 Y0.4845 
G01 X0.2666 Y0.4845 
G01 X0.2599 Y0.4832 
G01 X0.2537 Y0.4806 
G01 X0.2480 Y0.4768 
G01 X0.2432 Y0.4720 
G01 X0.2394 Y0.4663 
G01 X0.2368 Y0.4601 
G01 X0.2355 Y0.4534 
G01 X0.2355 Y0.4466 
G01 X0.2368 Y0.4399 
G01 X0.2394 Y0.4337 
G01 X0.2432 Y0.4280 
G01 X0.2480 Y0.4232 
G01 X0.2537 Y0.4194 
G01 X0.2599 Y0.4168 
G01 X0.2666 Y0.4155 
G00 Z0.1000 
G00 X2.3905 Y0.4584 
G01 Z-0.0060 F10.00 
G01 X2.3905 Y0.3916 F10.00 
G01 X2.3918 Y0.3849 
G01 X2.3944 Y0.3787 
G01 X2.3982 Y0.3730 
G01 X2.4030 Y0.3682 
G01 X2.4087 Y0.3644 
G01 X2.4149 Y0.3618 
G01 X2.4216 Y0.3605 
G01 X2.4284 Y0.3605 
G01 X2.4351 Y0.3618 
G01 X2.4413 Y0.3644 
G01 X2.4470 Y0.3682 
G01 X2.4518 Y0.3730 
G01 X2.4556 Y0.3787 
G01 X2.4582 Y0.3849 
G01 X2.4595 Y0.3916 
G01 X2.4595 Y0.4584 
G01 X2.4582 Y0.4651 
G01 X2.4556 Y0.4713 
G01 X2.4518 Y0.4770 
G01 X2.4470 Y0.4818 
G01 X2.4413 Y0.4856 
G01 X2.4351 Y0.4882 
G01 X2.4284 Y0.4895 
G01 X2.4216 Y0.4895 
G01 X2.4149 Y0.4882 
G01 X2.4087 Y0.4856 
G01 X2.4030 Y0.4818 
G01 X2.3982 Y0.4770 
G01 X2.3944 Y0.4713 
G01 X2.3918 Y0.4651 
G01 X2.3905 Y0.4584 
G00 Z0.1000 
G00 X2.2905 Y0.4584 
G01 Z-0.0060 F10.00 
G01 X2.2905 Y0.3916 F10.00 
G01 X2.2918 Y0.3849 
G01 X2.2944 Y0.3787 
G01 X2.2982 Y0.3730 
G01 X2.3030 Y0.3682 
G01 X2.3087 Y0.3644 
G01 X2.3149 Y0.3618 
G01 X2.3216 Y0.3605 
G01 X2.3284 Y0.3605 
G01 X2.3351 Y0.3618 
G01 X2.3413 Y0.3644 
G01 X2.3470 Y0.3682 
G01 X2.3518 Y0.3730 
G01 X2.3556 Y0.3787 
G01 X2.3582 Y0.3849 
G01 X2.3595 Y0.3916 
G01 X2.3595 Y0.4584 
G01 X2.3582 Y0.4651 
G01 X2.3556 Y0.4713 
G01 X2.3518 Y0.4770 
G01 X2.3470 Y0.4818 
G01 X2.3413 Y0.4856 
G01 X2.3351 Y0.4882 
G01 X2.3284 Y0.4895 
G01 X2.3216 Y0.4895 
G01 X2.3149 Y0.4882 
G01 X2.3087 Y0.4856 
G01 X2.3030 Y0.4818 
G01 X2.2982 Y0.4770 
G01 X2.2944 Y0.4713 
G01 X2.2918 Y0.4651 
G01 X2.2905 Y0.4584 
G00 Z0.1000 
G00 X2.1905 Y0.4584 
G01 Z-0.0060 F10.00 
G01 X2.1905 Y0.4001 F10.00 
G01 X2.1899 Y0.3995 
G01 X1.8851 Y0.3995 
G01 X1.7995 Y0.4851 
G01 X1.7995 Y1.4817 
G01 X1.7986 Y1.4864 
G01 X1.7967 Y1.4909 
G01 X1.7940 Y1.4949 
G01 X1.7233 Y1.5656 
G01 X1.7199 Y1.5690 
G01 X1.7159 Y1.5717 
G01 X1.7114 Y1.5736 
G01 X1.7067 Y1.5745 
G01 X1.5811 Y1.5745 
G01 X1.5807 Y1.5752 
G01 X1.5752 Y1.5807 
G01 X1.5687 Y1.5850 
G01 X1.5615 Y1.5880 
G01 X1.5539 Y1.5895 
G01 X1.5461 Y1.5895 
G01 X1.5385 Y1.5880 
G01 X1.5313 Y1.5850 
G01 X1.5248 Y1.5807 
G01 X1.5193 Y1.5752 
G01 X1.5150 Y1.5687 
G01 X1.5120 Y1.5615 
G01 X1.5105 Y1.5539 
G01 X1.5105 Y1.5461 
G01 X1.5120 Y1.5385 
G01 X1.5150 Y1.5313 
G01 X1.5193 Y1.5248 
G01 X1.5248 Y1.5193 
G01 X1.5313 Y1.5150 
G01 X1.5385 Y1.5120 
G01 X1.5461 Y1.5105 
G01 X1.5539 Y1.5105 
G01 X1.5615 Y1.5120 
G01 X1.5687 Y1.5150 
G01 X1.5752 Y1.5193 
G01 X1.5807 Y1.5248 
G01 X1.5811 Y1.5255 
G01 X1.6941 Y1.5255 
G01 X1.7505 Y1.4691 
G01 X1.7505 Y0.4726 
G01 X1.7514 Y0.4679 
G01 X1.7533 Y0.4634 
G01 X1.7560 Y0.4594 
G01 X1.7594 Y0.4560 
G01 X1.8594 Y0.3560 
G01 X1.8634 Y0.3533 
G01 X1.8679 Y0.3514 
G01 X1.8726 Y0.3505 
G01 X2.2024 Y0.3505 
G01 X2.2071 Y0.3514 
G01 X2.2116 Y0.3533 
G01 X2.2156 Y0.3560 
G01 X2.2190 Y0.3594 
G01 X2.2204 Y0.3607 
G01 X2.2216 Y0.3605 
G01 X2.2284 Y0.3605 
G01 X2.2351 Y0.3618 
G01 X2.2413 Y0.3644 
G01 X2.2470 Y0.3682 
G01 X2.2518 Y0.3730 
G01 X2.2556 Y0.3787 
G01 X2.2582 Y0.3849 
G01 X2.2595 Y0.3916 
G01 X2.2595 Y0.4584 
G01 X2.2582 Y0.4651 
G01 X2.2556 Y0.4713 
G01 X2.2518 Y0.4770 
G01 X2.2470 Y0.4818 
G01 X2.2413 Y0.4856 
G01 X2.2351 Y0.4882 
G01 X2.2284 Y0.4895 
G01 X2.2216 Y0.4895 
G01 X2.2149 Y0.4882 
G01 X2.2087 Y0.4856 
G01 X2.2030 Y0.4818 
G01 X2.1982 Y0.4770 
G01 X2.1944 Y0.4713 
G01 X2.1918 Y0.4651 
G01 X2.1905 Y0.4584 
G00 Z0.1000 
G00 X1.2831 Y1.7842 
G01 Z-0.0060 F10.00 
G01 X1.2169 Y1.7842 F10.00 
G01 X1.2103 Y1.7829 
G01 X1.2041 Y1.7803 
G01 X1.1985 Y1.7766 
G01 X1.1938 Y1.7718 
G01 X1.1900 Y1.7662 
G01 X1.1874 Y1.7600 
G01 X1.1861 Y1.7534 
G01 X1.1861 Y1.7466 
G01 X1.1874 Y1.7400 
G01 X1.1900 Y1.7338 
G01 X1.1938 Y1.7282 
G01 X1.1985 Y1.7234 
G01 X1.2041 Y1.7197 
G01 X1.2103 Y1.7171 
G01 X1.2169 Y1.7158 
G01 X1.2831 Y1.7158 
G01 X1.2897 Y1.7171 
G01 X1.2959 Y1.7197 
G01 X1.3015 Y1.7234 
G01 X1.3062 Y1.7282 
G01 X1.3100 Y1.7338 
G01 X1.3126 Y1.7400 
G01 X1.3139 Y1.7466 
G01 X1.3139 Y1.7534 
G01 X1.3126 Y1.7600 
G01 X1.3100 Y1.7662 
G01 X1.3062 Y1.7718 
G01 X1.3015 Y1.7766 
G01 X1.2959 Y1.7803 
G01 X1.2897 Y1.7829 
G01 X1.2831 Y1.7842 
G00 Z0.1000 
G00 X1.2831 Y1.8842 
G01 Z-0.0060 F10.00 
G01 X1.2169 Y1.8842 F10.00 
G01 X1.2103 Y1.8829 
G01 X1.2041 Y1.8803 
G01 X1.1985 Y1.8766 
G01 X1.1938 Y1.8718 
G01 X1.1900 Y1.8662 
G01 X1.1874 Y1.8600 
G01 X1.1861 Y1.8534 
G01 X1.1861 Y1.8466 
G01 X1.1874 Y1.8400 
G01 X1.1900 Y1.8338 
G01 X1.1938 Y1.8282 
G01 X1.1985 Y1.8234 
G01 X1.2041 Y1.8197 
G01 X1.2103 Y1.8171 
G01 X1.2169 Y1.8158 
G01 X1.2831 Y1.8158 
G01 X1.2897 Y1.8171 
G01 X1.2959 Y1.8197 
G01 X1.3015 Y1.8234 
G01 X1.3062 Y1.8282 
G01 X1.3100 Y1.8338 
G01 X1.3126 Y1.8400 
G01 X1.3139 Y1.8466 
G01 X1.3139 Y1.8534 
G01 X1.3126 Y1.8600 
G01 X1.3100 Y1.8662 
G01 X1.3062 Y1.8718 
G01 X1.3015 Y1.8766 
G01 X1.2959 Y1.8803 
G01 X1.2897 Y1.8829 
G01 X1.2831 Y1.8842 
G00 Z0.1000 
G00 X1.2834 Y1.1345 
G01 Z-0.0060 F10.00 
G01 X1.2166 Y1.1345 F10.00 
G01 X1.2099 Y1.1332 
G01 X1.2037 Y1.1306 
G01 X1.1980 Y1.1268 
G01 X1.1932 Y1.1220 
G01 X1.1894 Y1.1163 
G01 X1.1868 Y1.1101 
G01 X1.1855 Y1.1034 
G01 X1.1855 Y1.0966 
G01 X1.1868 Y1.0899 
G01 X1.1894 Y1.0837 
G01 X1.1932 Y1.0780 
G01 X1.1980 Y1.0732 
G01 X1.2037 Y1.0694 
G01 X1.2099 Y1.0668 
G01 X1.2166 Y1.0655 
G01 X1.2834 Y1.0655 
G01 X1.2901 Y1.0668 
G01 X1.2963 Y1.0694 
G01 X1.3020 Y1.0732 
G01 X1.3068 Y1.0780 
G01 X1.3106 Y1.0837 
G01 X1.3132 Y1.0899 
G01 X1.3145 Y1.0966 
G01 X1.3145 Y1.1034 
G01 X1.3132 Y1.1101 
G01 X1.3106 Y1.1163 
G01 X1.3068 Y1.1220 
G01 X1.3020 Y1.1268 
G01 X1.2963 Y1.1306 
G01 X1.2901 Y1.1332 
G01 X1.2834 Y1.1345 
G00 Z0.1000 
G00 X1.2834 Y1.2345 
G01 Z-0.0060 F10.00 
G01 X1.2166 Y1.2345 F10.00 
G01 X1.2099 Y1.2332 
G01 X1.2037 Y1.2306 
G01 X1.1980 Y1.2268 
G01 X1.1932 Y1.2220 
G01 X1.1894 Y1.2163 
G01 X1.1868 Y1.2101 
G01 X1.1855 Y1.2034 
G01 X1.1855 Y1.1966 
G01 X1.1868 Y1.1899 
G01 X1.1894 Y1.1837 
G01 X1.1932 Y1.1780 
G01 X1.1980 Y1.1732 
G01 X1.2037 Y1.1694 
G01 X1.2099 Y1.1668 
G01 X1.2166 Y1.1655 
G01 X1.2834 Y1.1655 
G01 X1.2901 Y1.1668 
G01 X1.2963 Y1.1694 
G01 X1.3020 Y1.1732 
G01 X1.3068 Y1.1780 
G01 X1.3106 Y1.1837 
G01 X1.3132 Y1.1899 
G01 X1.3145 Y1.1966 
G01 X1.3145 Y1.2034 
G01 X1.3132 Y1.2101 
G01 X1.3106 Y1.2163 
G01 X1.3068 Y1.2220 
G01 X1.3020 Y1.2268 
G01 X1.2963 Y1.2306 
G01 X1.2901 Y1.2332 
G01 X1.2834 Y1.2345 
G00 Z0.1000 
G00 X1.2834 Y1.3345 
G01 Z-0.0060 F10.00 
G01 X1.2166 Y1.3345 F10.00 
G01 X1.2099 Y1.3332 
G01 X1.2037 Y1.3306 
G01 X1.1980 Y1.3268 
G01 X1.1932 Y1.3220 
G01 X1.1894 Y1.3163 
G01 X1.1868 Y1.3101 
G01 X1.1855 Y1.3034 
G01 X1.1855 Y1.2966 
G01 X1.1868 Y1.2899 
G01 X1.1894 Y1.2837 
G01 X1.1932 Y1.2780 
G01 X1.1980 Y1.2732 
G01 X1.2037 Y1.2694 
G01 X1.2099 Y1.2668 
G01 X1.2166 Y1.2655 
G01 X1.2834 Y1.2655 
G01 X1.2901 Y1.2668 
G01 X1.2963 Y1.2694 
G01 X1.3020 Y1.2732 
G01 X1.3068 Y1.2780 
G01 X1.3106 Y1.2837 
G01 X1.3132 Y1.2899 
G01 X1.3145 Y1.2966 
G01 X1.3145 Y1.3034 
G01 X1.3132 Y1.3101 
G01 X1.3106 Y1.3163 
G01 X1.3068 Y1.3220 
G01 X1.3020 Y1.3268 
G01 X1.2963 Y1.3306 
G01 X1.2901 Y1.3332 
G01 X1.2834 Y1.3345 
G00 Z0.1000 
G00 X1.1915 Y2.1467 
G01 Z-0.0060 F10.00 
G01 X1.1915 Y2.1533 F10.00 
G01 X1.1905 Y2.1597 
G01 X1.1885 Y2.1659 
G01 X1.1855 Y2.1718 
G01 X1.1817 Y2.1770 
G01 X1.1770 Y2.1817 
G01 X1.1718 Y2.1855 
G01 X1.1659 Y2.1885 
G01 X1.1597 Y2.1905 
G01 X1.1533 Y2.1915 
G01 X1.1467 Y2.1915 
G01 X1.1403 Y2.1905 
G01 X1.1341 Y2.1885 
G01 X1.1282 Y2.1855 
G01 X1.1230 Y2.1817 
G01 X1.1183 Y2.1770 
G01 X1.1145 Y2.1718 
G01 X1.1115 Y2.1659 
G01 X1.1095 Y2.1597 
G01 X1.1085 Y2.1533 
G01 X1.1085 Y2.1467 
G01 X1.1095 Y2.1403 
G01 X1.1115 Y2.1341 
G01 X1.1145 Y2.1282 
G01 X1.1183 Y2.1230 
G01 X1.1230 Y2.1183 
G01 X1.1282 Y2.1145 
G01 X1.1341 Y2.1115 
G01 X1.1403 Y2.1095 
G01 X1.1467 Y2.1085 
G01 X1.1533 Y2.1085 
G01 X1.1597 Y2.1095 
G01 X1.1659 Y2.1115 
G01 X1.1718 Y2.1145 
G01 X1.1770 Y2.1183 
G01 X1.1817 Y2.1230 
G01 X1.1855 Y2.1282 
G01 X1.1885 Y2.1341 
G01 X1.1905 Y2.1403 
G01 X1.1915 Y2.1467 
G00 Z0.1000 
G00 X1.0915 Y2.1467 
G01 Z-0.0060 F10.00 
G01 X1.0915 Y2.1533 F10.00 
G01 X1.0905 Y2.1597 
G01 X1.0885 Y2.1659 
G01 X1.0855 Y2.1718 
G01 X1.0817 Y2.1770 
G01 X1.0770 Y2.1817 
G01 X1.0718 Y2.1855 
G01 X1.0659 Y2.1885 
G01 X1.0597 Y2.1905 
G01 X1.0533 Y2.1915 
G01 X1.0467 Y2.1915 
G01 X1.0403 Y2.1905 
G01 X1.0341 Y2.1885 
G01 X1.0282 Y2.1855 
G01 X1.0230 Y2.1817 
G01 X1.0183 Y2.1770 
G01 X1.0145 Y2.1718 
G01 X1.0115 Y2.1659 
G01 X1.0095 Y2.1597 
G01 X1.0085 Y2.1533 
G01 X1.0085 Y2.1467 
G01 X1.0095 Y2.1403 
G01 X1.0115 Y2.1341 
G01 X1.0145 Y2.1282 
G01 X1.0183 Y2.1230 
G01 X1.0230 Y2.1183 
G01 X1.0282 Y2.1145 
G01 X1.0341 Y2.1115 
G01 X1.0403 Y2.1095 
G01 X1.0467 Y2.1085 
G01 X1.0533 Y2.1085 
G01 X1.0597 Y2.1095 
G01 X1.0659 Y2.1115 
G01 X1.0718 Y2.1145 
G01 X1.0770 Y2.1183 
G01 X1.0817 Y2.1230 
G01 X1.0855 Y2.1282 
G01 X1.0885 Y2.1341 
G01 X1.0905 Y2.1403 
G01 X1.0915 Y2.1467 
G00 Z0.1000 
G00 X2.5584 Y1.6845 
G01 Z-0.0060 F10.00 
G01 X2.4916 Y1.6845 F10.00 
G01 X2.4849 Y1.6832 
G01 X2.4787 Y1.6806 
G01 X2.4730 Y1.6768 
G01 X2.4682 Y1.6720 
G01 X2.4644 Y1.6663 
G01 X2.4618 Y1.6601 
G01 X2.4605 Y1.6534 
G01 X2.4605 Y1.6466 
G01 X2.4618 Y1.6399 
G01 X2.4644 Y1.6337 
G01 X2.4682 Y1.6280 
G01 X2.4730 Y1.6232 
G01 X2.4787 Y1.6194 
G01 X2.4849 Y1.6168 
G01 X2.4916 Y1.6155 
G01 X2.5584 Y1.6155 
G01 X2.5651 Y1.6168 
G01 X2.5713 Y1.6194 
G01 X2.5770 Y1.6232 
G01 X2.5818 Y1.6280 
G01 X2.5856 Y1.6337 
G01 X2.5882 Y1.6399 
G01 X2.5895 Y1.6466 
G01 X2.5895 Y1.6534 
G01 X2.5882 Y1.6601 
G01 X2.5856 Y1.6663 
G01 X2.5818 Y1.6720 
G01 X2.5770 Y1.6768 
G01 X2.5713 Y1.6806 
G01 X2.5651 Y1.6832 
G01 X2.5584 Y1.6845 
G00 Z0.1000 
G00 X2.5584 Y1.7845 
G01 Z-0.0060 F10.00 
G01 X2.4916 Y1.7845 F10.00 
G01 X2.4849 Y1.7832 
G01 X2.4787 Y1.7806 
G01 X2.4730 Y1.7768 
G01 X2.4682 Y1.7720 
G01 X2.4644 Y1.7663 
G01 X2.4618 Y1.7601 
G01 X2.4605 Y1.7534 
G01 X2.4605 Y1.7466 
G01 X2.4618 Y1.7399 
G01 X2.4644 Y1.7337 
G01 X2.4682 Y1.7280 
G01 X2.4730 Y1.7232 
G01 X2.4787 Y1.7194 
G01 X2.4849 Y1.7168 
G01 X2.4916 Y1.7155 
G01 X2.5584 Y1.7155 
G01 X2.5651 Y1.7168 
G01 X2.5713 Y1.7194 
G01 X2.5770 Y1.7232 
G01 X2.5818 Y1.7280 
G01 X2.5856 Y1.7337 
G01 X2.5882 Y1.7399 
G01 X2.5895 Y1.7466 
G01 X2.5895 Y1.7534 
G01 X2.5882 Y1.7601 
G01 X2.5856 Y1.7663 
G01 X2.5818 Y1.7720 
G01 X2.5770 Y1.7768 
G01 X2.5713 Y1.7806 
G01 X2.5651 Y1.7832 
G01 X2.5584 Y1.7845 
G00 Z0.1000 
G00 X2.5584 Y1.8845 
G01 Z-0.0060 F10.00 
G01 X2.4916 Y1.8845 F10.00 
G01 X2.4849 Y1.8832 
G01 X2.4787 Y1.8806 
G01 X2.4730 Y1.8768 
G01 X2.4682 Y1.8720 
G01 X2.4644 Y1.8663 
G01 X2.4618 Y1.8601 
G01 X2.4605 Y1.8534 
G01 X2.4605 Y1.8466 
G01 X2.4618 Y1.8399 
G01 X2.4644 Y1.8337 
G01 X2.4682 Y1.8280 
G01 X2.4730 Y1.8232 
G01 X2.4787 Y1.8194 
G01 X2.4849 Y1.8168 
G01 X2.4916 Y1.8155 
G01 X2.5584 Y1.8155 
G01 X2.5651 Y1.8168 
G01 X2.5713 Y1.8194 
G01 X2.5770 Y1.8232 
G01 X2.5818 Y1.8280 
G01 X2.5856 Y1.8337 
G01 X2.5882 Y1.8399 
G01 X2.5895 Y1.8466 
G01 X2.5895 Y1.8534 
G01 X2.5882 Y1.8601 
G01 X2.5856 Y1.8663 
G01 X2.5818 Y1.8720 
G01 X2.5770 Y1.8768 
G01 X2.5713 Y1.8806 
G01 X2.5651 Y1.8832 
G01 X2.5584 Y1.8845 
G00 Z0.1000 
G00 X2.2710 Y1.7195 
G01 Z-0.0060 F10.00 
G01 X2.3290 Y1.7195 F10.00 
G01 X2.3349 Y1.7207 
G01 X2.3404 Y1.7230 
G01 X2.3454 Y1.7263 
G01 X2.3497 Y1.7306 
G01 X2.3530 Y1.7356 
G01 X2.3553 Y1.7411 
G01 X2.3565 Y1.7470 
G01 X2.3565 Y1.7530 
G01 X2.3553 Y1.7589 
G01 X2.3530 Y1.7644 
G01 X2.3497 Y1.7694 
G01 X2.3454 Y1.7737 
G01 X2.3404 Y1.7770 
G01 X2.3349 Y1.7793 
G01 X2.3290 Y1.7805 
G01 X2.2710 Y1.7805 
G01 X2.2651 Y1.7793 
G01 X2.2596 Y1.7770 
G01 X2.2546 Y1.7737 
G01 X2.2503 Y1.7694 
G01 X2.2470 Y1.7644 
G01 X2.2447 Y1.7589 
G01 X2.2435 Y1.7530 
G01 X2.2435 Y1.7470 
G01 X2.2447 Y1.7411 
G01 X2.2470 Y1.7356 
G01 X2.2503 Y1.7306 
G01 X2.2546 Y1.7263 
G01 X2.2596 Y1.7230 
G01 X2.2651 Y1.7207 
G01 X2.2710 Y1.7195 
G00 Z0.1000 
G00 X2.2710 Y1.6195 
G01 Z-0.0060 F10.00 
G01 X2.3290 Y1.6195 F10.00 
G01 X2.3349 Y1.6207 
G01 X2.3404 Y1.6230 
G01 X2.3454 Y1.6263 
G01 X2.3497 Y1.6306 
G01 X2.3530 Y1.6356 
G01 X2.3553 Y1.6411 
G01 X2.3565 Y1.6470 
G01 X2.3565 Y1.6530 
G01 X2.3553 Y1.6589 
G01 X2.3530 Y1.6644 
G01 X2.3497 Y1.6694 
G01 X2.3454 Y1.6737 
G01 X2.3404 Y1.6770 
G01 X2.3349 Y1.6793 
G01 X2.3290 Y1.6805 
G01 X2.2710 Y1.6805 
G01 X2.2651 Y1.6793 
G01 X2.2596 Y1.6770 
G01 X2.2546 Y1.6737 
G01 X2.2503 Y1.6694 
G01 X2.2470 Y1.6644 
G01 X2.2447 Y1.6589 
G01 X2.2435 Y1.6530 
G01 X2.2435 Y1.6470 
G01 X2.2447 Y1.6411 
G01 X2.2470 Y1.6356 
G01 X2.2503 Y1.6306 
G01 X2.2546 Y1.6263 
G01 X2.2596 Y1.6230 
G01 X2.2651 Y1.6207 
G01 X2.2710 Y1.6195 
G00 Z0.1000 
G00 X2.2710 Y1.8195 
G01 Z-0.0060 F10.00 
G01 X2.3290 Y1.8195 F10.00 
G01 X2.3349 Y1.8207 
G01 X2.3404 Y1.8230 
G01 X2.3454 Y1.8263 
G01 X2.3497 Y1.8306 
G01 X2.3530 Y1.8356 
G01 X2.3553 Y1.8411 
G01 X2.3565 Y1.8470 
G01 X2.3565 Y1.8530 
G01 X2.3553 Y1.8589 
G01 X2.3530 Y1.8644 
G01 X2.3497 Y1.8694 
G01 X2.3454 Y1.8737 
G01 X2.3404 Y1.8770 
G01 X2.3349 Y1.8793 
G01 X2.3290 Y1.8805 
G01 X2.2710 Y1.8805 
G01 X2.2651 Y1.8793 
G01 X2.2596 Y1.8770 
G01 X2.2546 Y1.8737 
G01 X2.2503 Y1.8694 
G01 X2.2470 Y1.8644 
G01 X2.2447 Y1.8589 
G01 X2.2435 Y1.8530 
G01 X2.2435 Y1.8470 
G01 X2.2447 Y1.8411 
G01 X2.2470 Y1.8356 
G01 X2.2503 Y1.8306 
G01 X2.2546 Y1.8263 
G01 X2.2596 Y1.8230 
G01 X2.2651 Y1.8207 
G01 X2.2710 Y1.8195 
G00 Z0.1000 
G00 X2.4055 Y0.9460 
G01 Z-0.0060 F10.00 
G01 X2.4055 Y1.0040 F10.00 
G01 X2.4043 Y1.0099 
G01 X2.4020 Y1.0154 
G01 X2.3987 Y1.0204 
G01 X2.3944 Y1.0247 
G01 X2.3894 Y1.0280 
G01 X2.3839 Y1.0303 
G01 X2.3780 Y1.0315 
G01 X2.3720 Y1.0315 
G01 X2.3661 Y1.0303 
G01 X2.3606 Y1.0280 
G01 X2.3556 Y1.0247 
G01 X2.3513 Y1.0204 
G01 X2.3480 Y1.0154 
G01 X2.3457 Y1.0099 
G01 X2.3445 Y1.0040 
G01 X2.3445 Y0.9460 
G01 X2.3457 Y0.9401 
G01 X2.3480 Y0.9346 
G01 X2.3513 Y0.9296 
G01 X2.3556 Y0.9253 
G01 X2.3606 Y0.9220 
G01 X2.3661 Y0.9197 
G01 X2.3720 Y0.9185 
G01 X2.3780 Y0.9185 
G01 X2.3839 Y0.9197 
G01 X2.3894 Y0.9220 
G01 X2.3944 Y0.9253 
G01 X2.3987 Y0.9296 
G01 X2.4020 Y0.9346 
G01 X2.4043 Y0.9401 
G01 X2.4055 Y0.9460 
G00 Z0.1000 
G00 X2.5055 Y0.9460 
G01 Z-0.0060 F10.00 
G01 X2.5055 Y1.0040 F10.00 
G01 X2.5043 Y1.0099 
G01 X2.5020 Y1.0154 
G01 X2.4987 Y1.0204 
G01 X2.4944 Y1.0247 
G01 X2.4894 Y1.0280 
G01 X2.4839 Y1.0303 
G01 X2.4780 Y1.0315 
G01 X2.4720 Y1.0315 
G01 X2.4661 Y1.0303 
G01 X2.4606 Y1.0280 
G01 X2.4556 Y1.0247 
G01 X2.4513 Y1.0204 
G01 X2.4480 Y1.0154 
G01 X2.4457 Y1.0099 
G01 X2.4445 Y1.0040 
G01 X2.4445 Y0.9460 
G01 X2.4457 Y0.9401 
G01 X2.4480 Y0.9346 
G01 X2.4513 Y0.9296 
G01 X2.4556 Y0.9253 
G01 X2.4606 Y0.9220 
G01 X2.4661 Y0.9197 
G01 X2.4720 Y0.9185 
G01 X2.4780 Y0.9185 
G01 X2.4839 Y0.9197 
G01 X2.4894 Y0.9220 
G01 X2.4944 Y0.9253 
G01 X2.4987 Y0.9296 
G01 X2.5020 Y0.9346 
G01 X2.5043 Y0.9401 
G01 X2.5055 Y0.9460 
G00 Z0.1000 
G00 X2.3055 Y0.9460 
G01 Z-0.0060 F10.00 
G01 X2.3055 Y1.0040 F10.00 
G01 X2.3043 Y1.0099 
G01 X2.3020 Y1.0154 
G01 X2.2987 Y1.0204 
G01 X2.2944 Y1.0247 
G01 X2.2894 Y1.0280 
G01 X2.2839 Y1.0303 
G01 X2.2780 Y1.0315 
G01 X2.2720 Y1.0315 
G01 X2.2661 Y1.0303 
G01 X2.2606 Y1.0280 
G01 X2.2556 Y1.0247 
G01 X2.2513 Y1.0204 
G01 X2.2480 Y1.0154 
G01 X2.2457 Y1.0099 
G01 X2.2445 Y1.0040 
G01 X2.2445 Y0.9460 
G01 X2.2457 Y0.9401 
G01 X2.2480 Y0.9346 
G01 X2.2513 Y0.9296 
G01 X2.2556 Y0.9253 
G01 X2.2606 Y0.9220 
G01 X2.2661 Y0.9197 
G01 X2.2720 Y0.9185 
G01 X2.2780 Y0.9185 
G01 X2.2839 Y0.9197 
G01 X2.2894 Y0.9220 
G01 X2.2944 Y0.9253 
G01 X2.2987 Y0.9296 
G01 X2.3020 Y0.9346 
G01 X2.3043 Y0.9401 
G01 X2.3055 Y0.9460 
G00 Z0.1000 
G00 X2.4055 Y1.3960 
G01 Z-0.0060 F10.00 
G01 X2.4055 Y1.4540 F10.00 
G01 X2.4043 Y1.4599 
G01 X2.4020 Y1.4654 
G01 X2.3987 Y1.4704 
G01 X2.3944 Y1.4747 
G01 X2.3894 Y1.4780 
G01 X2.3839 Y1.4803 
G01 X2.3780 Y1.4815 
G01 X2.3720 Y1.4815 
G01 X2.3661 Y1.4803 
G01 X2.3606 Y1.4780 
G01 X2.3556 Y1.4747 
G01 X2.3513 Y1.4704 
G01 X2.3480 Y1.4654 
G01 X2.3457 Y1.4599 
G01 X2.3445 Y1.4540 
G01 X2.3445 Y1.3960 
G01 X2.3457 Y1.3901 
G01 X2.3480 Y1.3846 
G01 X2.3513 Y1.3796 
G01 X2.3556 Y1.3753 
G01 X2.3606 Y1.3720 
G01 X2.3661 Y1.3697 
G01 X2.3720 Y1.3685 
G01 X2.3780 Y1.3685 
G01 X2.3839 Y1.3697 
G01 X2.3894 Y1.3720 
G01 X2.3944 Y1.3753 
G01 X2.3987 Y1.3796 
G01 X2.4020 Y1.3846 
G01 X2.4043 Y1.3901 
G01 X2.4055 Y1.3960 
G00 Z0.1000 
G00 X2.5055 Y1.3960 
G01 Z-0.0060 F10.00 
G01 X2.5055 Y1.4540 F10.00 
G01 X2.5043 Y1.4599 
G01 X2.5020 Y1.4654 
G01 X2.4987 Y1.4704 
G01 X2.4944 Y1.4747 
G01 X2.4894 Y1.4780 
G01 X2.4839 Y1.4803 
G01 X2.4780 Y1.4815 
G01 X2.4720 Y1.4815 
G01 X2.4661 Y1.4803 
G01 X2.4606 Y1.4780 
G01 X2.4556 Y1.4747 
G01 X2.4513 Y1.4704 
G01 X2.4480 Y1.4654 
G01 X2.4457 Y1.4599 
G01 X2.4445 Y1.4540 
G01 X2.4445 Y1.3960 
G01 X2.4457 Y1.3901 
G01 X2.4480 Y1.3846 
G01 X2.4513 Y1.3796 
G01 X2.4556 Y1.3753 
G01 X2.4606 Y1.3720 
G01 X2.4661 Y1.3697 
G01 X2.4720 Y1.3685 
G01 X2.4780 Y1.3685 
G01 X2.4839 Y1.3697 
G01 X2.4894 Y1.3720 
G01 X2.4944 Y1.3753 
G01 X2.4987 Y1.3796 
G01 X2.5020 Y1.3846 
G01 X2.5043 Y1.3901 
G01 X2.5055 Y1.3960 
G00 Z0.1000 
G00 X2.3055 Y1.3960 
G01 Z-0.0060 F10.00 
G01 X2.3055 Y1.4540 F10.00 
G01 X2.3043 Y1.4599 
G01 X2.3020 Y1.4654 
G01 X2.2987 Y1.4704 
G01 X2.2944 Y1.4747 
G01 X2.2894 Y1.4780 
G01 X2.2839 Y1.4803 
G01 X2.2780 Y1.4815 
G01 X2.2720 Y1.4815 
G01 X2.2661 Y1.4803 
G01 X2.2606 Y1.4780 
G01 X2.2556 Y1.4747 
G01 X2.2513 Y1.4704 
G01 X2.2480 Y1.4654 
G01 X2.2457 Y1.4599 
G01 X2.2445 Y1.4540 
G01 X2.2445 Y1.3960 
G01 X2.2457 Y1.3901 
G01 X2.2480 Y1.3846 
G01 X2.2513 Y1.3796 
G01 X2.2556 Y1.3753 
G01 X2.2606 Y1.3720 
G01 X2.2661 Y1.3697 
G01 X2.2720 Y1.3685 
G01 X2.2780 Y1.3685 
G01 X2.2839 Y1.3697 
G01 X2.2894 Y1.3720 
G01 X2.2944 Y1.3753 
G01 X2.2987 Y1.3796 
G01 X2.3020 Y1.3846 
G01 X2.3043 Y1.3901 
G01 X2.3055 Y1.3960 
G00 Z0.1000 
G00 X2.2305 Y2.0624 
G01 Z-0.0060 F10.00 
G01 X2.2305 Y2.0876 F10.00 
G01 X2.2126 Y2.1055 
G01 X2.1874 Y2.1055 
G01 X2.1695 Y2.0876 
G01 X2.1695 Y2.0624 
G01 X2.1874 Y2.0445 
G01 X2.2126 Y2.0445 
G01 X2.2305 Y2.0624 
G00 Z0.1000 
G00 X2.6305 Y2.0624 
G01 Z-0.0060 F10.00 
G01 X2.6305 Y2.0876 F10.00 
G01 X2.6126 Y2.1055 
G01 X2.5874 Y2.1055 
G01 X2.5695 Y2.0876 
G01 X2.5695 Y2.0624 
G01 X2.5874 Y2.0445 
G01 X2.6126 Y2.0445 
G01 X2.6305 Y2.0624 
G00 Z0.1000 
G00 X2.3555 Y0.8374 
G01 Z-0.0060 F10.00 
G01 X2.3555 Y0.8626 F10.00 
G01 X2.3376 Y0.8805 
G01 X2.3124 Y0.8805 
G01 X2.2945 Y0.8626 
G01 X2.2945 Y0.8374 
G01 X2.3124 Y0.8195 
G01 X2.3376 Y0.8195 
G01 X2.3555 Y0.8374 
G00 Z0.1000 
G00 X2.7555 Y0.8374 
G01 Z-0.0060 F10.00 
G01 X2.7555 Y0.8626 F10.00 
G01 X2.7376 Y0.8805 
G01 X2.7124 Y0.8805 
G01 X2.6945 Y0.8626 
G01 X2.6945 Y0.8374 
G01 X2.7124 Y0.8195 
G01 X2.7376 Y0.8195 
G01 X2.7555 Y0.8374 
G00 Z0.1000 
G00 X2.7555 Y0.7374 
G01 Z-0.0060 F10.00 
G01 X2.7555 Y0.7626 F10.00 
G01 X2.7376 Y0.7805 
G01 X2.7124 Y0.7805 
G01 X2.6945 Y0.7626 
G01 X2.6945 Y0.7374 
G01 X2.7124 Y0.7195 
G01 X2.7376 Y0.7195 
G01 X2.7555 Y0.7374 
G00 Z0.1000 
G00 X2.3555 Y0.7374 
G01 Z-0.0060 F10.00 
G01 X2.3555 Y0.7626 F10.00 
G01 X2.3376 Y0.7805 
G01 X2.3124 Y0.7805 
G01 X2.2945 Y0.7626 
G01 X2.2945 Y0.7374 
G01 X2.3124 Y0.7195 
G01 X2.3376 Y0.7195 
G01 X2.3555 Y0.7374 
G00 Z0.1000 
G00 X2.7555 Y0.6624 
G01 Z-0.0060 F10.00 
G01 X2.7555 Y0.6876 F10.00 
G01 X2.7376 Y0.7055 
G01 X2.7124 Y0.7055 
G01 X2.6945 Y0.6876 
G01 X2.6945 Y0.6624 
G01 X2.7124 Y0.6445 
G01 X2.7376 Y0.6445 
G01 X2.7555 Y0.6624 
G00 Z0.1000 
G00 X2.3555 Y1.2874 
